luts/旅拍胶片04.cube
# Created by Adobe Lightroom plugin Export LUT (1.24.0)
# www.johnrellis.com/lightroom/exportlut.htm
# Preset: 旅拍胶片-素材江湖04
# Color profile: E:\lut插件\exportlut.1.24\exportlut.lrplugin\color profiles\Rec709gamma2.4.icc
LUT_3D_SIZE 32
DOMAIN_MIN 0.0 0.0 0.0
DOMAIN_MAX 1.0 1.0 1.0
0.000000 0.000000 0.000000
0.000000 0.000000 0.000000
0.001984 0.000000 0.000000
0.007233 0.000305 0.000000
0.031342 0.000000 0.000549
0.083467 0.000305 0.000000
0.108492 0.002655 0.000000
0.129427 0.007996 0.000000
0.153292 0.010315 0.000000
0.181827 0.005707 0.000000
0.215702 0.000000 0.000000
0.254948 0.000000 0.000000
0.300481 0.000000 0.000000
0.351843 0.000000 0.000000
0.406928 0.000000 0.000000
0.463935 0.000000 0.000000
0.522087 0.000000 0.000000
0.580224 0.000000 0.000000
0.637842 0.000000 0.000000
0.692470 0.000000 0.000000
0.742794 0.000000 0.000000
0.795254 0.000000 0.000000
0.839506 0.000000 0.000000
0.878141 0.000000 0.000000
0.912016 0.000000 0.000000
0.941894 0.000000 0.000000
0.968688 0.000000 0.000000
0.992889 0.000000 0.000000
1.000000 0.000000 0.000000
1.000000 0.000000 0.000000
1.000000 0.000000 0.000000
1.000000 0.000000 0.000000
0.000000 0.000000 0.000000
0.000000 0.000000 0.000000
0.001282 0.000977 0.000000
0.009216 0.000092 0.000000
0.030640 0.001007 0.000397
0.082826 0.001526 0.000366
0.107485 0.005280 0.000000
0.128359 0.009644 0.000000
0.152438 0.011963 0.000000
0.180606 0.007782 0.000000
0.213718 0.000000 0.000000
0.252659 0.000000 0.000000
0.297673 0.000000 0.000000
0.348547 0.000000 0.000000
0.403265 0.000000 0.000000
0.460121 0.000000 0.000000
0.518303 0.000000 0.000000
0.576287 0.000000 0.000000
0.634089 0.000000 0.000000
0.688838 0.000000 0.000000
0.739223 0.000000 0.000000
0.790738 0.000000 0.000000
0.834531 0.000000 0.000000
0.872984 0.000000 0.000000
0.906950 0.000000 0.000000
0.937133 0.000000 0.000000
0.964416 0.000000 0.000000
0.989105 0.000000 0.000000
1.000000 0.000000 0.000000
1.000000 0.000000 0.000000
1.000000 0.000000 0.000000
1.000000 0.000000 0.000000
0.000977 0.000977 0.000977
0.000977 0.000977 0.000977
0.002564 0.001953 0.000000
0.009491 0.002258 0.000641
0.035737 0.004913 0.000000
0.085115 0.007843 0.000000
0.107759 0.013031 0.000000
0.128420 0.018616 0.000000
0.151858 0.020172 0.000000
0.180362 0.016968 0.000000
0.213352 0.004395 0.000000
0.252201 0.000000 0.000000
0.296605 0.000000 0.000000
0.347112 0.000000 0.000000
0.401556 0.000000 0.000000
0.458350 0.000000 0.000000
0.516136 0.000000 0.000000
0.574334 0.000000 0.000000
0.631800 0.000000 0.000000
0.686763 0.000000 0.000000
0.738064 0.000000 0.000000
0.788785 0.000000 0.000000
0.832212 0.000000 0.000000
0.870451 0.000000 0.000000
0.904356 0.000000 0.000000
0.934569 0.000000 0.000000
0.962036 0.000000 0.000000
0.986908 0.000000 0.000000
1.000000 0.000000 0.000000
1.000000 0.000000 0.000000
1.000000 0.000000 0.000000
1.000000 0.000000 0.000000
0.005066 0.006104 0.001343
0.005066 0.006104 0.001343
0.006348 0.007080 0.001160
0.016144 0.009339 0.000671
0.043671 0.012970 0.000000
0.087251 0.020935 0.000000
0.108278 0.028534 0.000000
0.128725 0.034089 0.000000
0.152865 0.035218 0.000000
0.181247 0.030823 0.000000
0.214511 0.017792 0.000000
0.253025 0.000000 0.000000
0.297307 0.000000 0.000000
0.347417 0.000000 0.000000
0.401373 0.000000 0.000000
0.457160 0.000000 0.000000
0.514549 0.000000 0.000000
0.571740 0.000000 0.000000
0.628962 0.000000 0.000000
0.683589 0.000000 0.000000
0.735439 0.000000 0.000000
0.784695 0.000000 0.000000
0.827543 0.000000 0.000000
0.865995 0.000000 0.000000
0.900542 0.000000 0.000000
0.931670 0.000000 0.000000
0.959838 0.000000 0.000000
0.985382 0.000000 0.000000
1.000000 0.000000 0.000000
1.000000 0.000000 0.000000
1.000000 0.000000 0.000000
1.000000 0.000000 0.000000
0.015229 0.025055 0.001953
0.015229 0.025055 0.001953
0.018494 0.025818 0.001770
0.031128 0.030030 0.000000
0.058656 0.033692 0.000000
0.089448 0.039368 0.000000
0.109010 0.048371 0.000000
0.129366 0.053956 0.000000
0.154269 0.055604 0.000000
0.182620 0.050996 0.000000
0.215518 0.039155 0.000000
0.253819 0.019043 0.000000
0.297917 0.000000 0.000000
0.347967 0.000000 0.000000
0.401343 0.000000 0.000000
0.457527 0.000000 0.000000
0.514549 0.000000 0.000000
0.571923 0.000000 0.000000
0.628962 0.000000 0.000000
0.683131 0.000000 0.000000
0.735958 0.000000 0.000000
0.783780 0.000000 0.000000
0.826078 0.000000 0.000000
0.864469 0.000000 0.000000
0.898985 0.000000 0.000000
0.930266 0.000000 0.000000
0.958495 0.000000 0.000000
0.983948 0.000000 0.000000
1.000000 0.000000 0.000000
1.000000 0.000000 0.000000
1.000000 0.000000 0.000000
1.000000 0.000000 0.000000
0.037934 0.052613 0.004517
0.039216 0.053590 0.004364
0.043183 0.053132 0.004334
0.054566 0.056397 0.002564
0.077394 0.061677 0.001404
0.095064 0.067811 0.000000
0.110231 0.071412 0.000000
0.130831 0.078645 0.000000
0.155581 0.081025 0.000000
0.185031 0.080903 0.000000
0.219333 0.075532 0.000000
0.258091 0.057221 0.000000
0.302342 0.026246 0.000000
0.352270 0.000000 0.000000
0.405798 0.000000 0.000000
0.461433 0.000000 0.000000
0.518395 0.000000 0.000000
0.575616 0.000000 0.000000
0.632319 0.000000 0.000000
0.686397 0.000000 0.000000
0.739467 0.000000 0.000000
0.786313 0.000000 0.000000
0.855283 0.000000 0.000000
0.891539 0.000000 0.000000
0.923339 0.000000 0.000000
0.951720 0.000000 0.000000
0.976989 0.000000 0.000000
0.999634 0.000000 0.000000
1.000000 0.000000 0.000000
1.000000 0.000000 0.000000
1.000000 0.070680 0.000000
1.000000 0.150729 0.000000
0.067964 0.085756 0.011200
0.069947 0.085634 0.011200
0.075196 0.085939 0.011017
0.082399 0.087373 0.010529
0.092012 0.089265 0.008392
0.102602 0.092164 0.004486
0.117342 0.096101 0.000000
0.135225 0.096254 0.000000
0.161013 0.099428 0.000000
0.191165 0.101015 0.000000
0.226841 0.101076 0.000000
0.269627 0.096986 0.000000
0.317693 0.087678 0.000000
0.368322 0.049256 0.000000
0.421820 0.000000 0.000000
0.476997 0.000000 0.000000
0.533257 0.000000 0.000000
0.589380 0.000000 0.000000
0.645045 0.000000 0.000000
0.702235 0.000000 0.000000
0.755520 0.000000 0.000000
0.802914 0.000000 0.000000
0.845579 0.000000 0.000000
0.883696 0.000000 0.000000
0.917357 0.000000 0.000000
0.946685 0.000000 0.000000
0.972503 0.000000 0.000000
0.995392 0.000000 0.000000
1.000000 0.000000 0.000000
1.000000 0.084657 0.000000
1.000000 0.145022 0.000000
1.000000 0.187991 0.000000
0.088838 0.102602 0.019104
0.089601 0.102541 0.019104
0.091066 0.102388 0.019074
0.094087 0.102815 0.019867
0.099794 0.105043 0.016327
0.108888 0.108064 0.013245
0.121736 0.112001 0.008179
0.140932 0.116091 0.002167
0.160678 0.115572 0.000000
0.191226 0.119173 0.000000
0.226780 0.121248 0.000000
0.268376 0.121370 0.000000
0.316228 0.118502 0.000000
0.369726 0.111147 0.000000
0.425391 0.097719 0.000000
0.479835 0.058930 0.000000
0.535271 0.000000 0.000000
0.591028 0.000000 0.000000
0.649073 0.000000 0.000000
0.705165 0.000000 0.000000
0.755550 0.000000 0.000000
0.801205 0.000000 0.000000
0.842649 0.000000 0.000000
0.880034 0.000000 0.000000
0.913390 0.000000 0.000000
0.942718 0.000000 0.000000
0.968597 0.000000 0.000000
0.991608 0.089693 0.000000
1.000000 0.132906 0.000000
1.000000 0.166262 0.000000
1.000000 0.197116 0.000000
1.000000 0.227024 0.000000
0.098909 0.121828 0.028351
0.098665 0.122133 0.028199
0.100587 0.121950 0.028168
0.103670 0.121675 0.029267
0.108400 0.123720 0.026673
0.116793 0.126680 0.022156
0.128573 0.130587 0.016632
0.145693 0.135012 0.008911
0.168460 0.140597 0.000458
0.190677 0.138674 0.000000
0.227512 0.143038 0.000000
0.268406 0.146334 0.000000
0.315709 0.147585 0.000000
0.368139 0.146487 0.000000
0.424048 0.143008 0.000000
0.482033 0.136446 0.000000
0.539605 0.127169 0.000000
0.597314 0.115816 0.000000
0.654871 0.104616 0.000000
0.707973 0.094606 0.000000
0.756558 0.090120 0.000000
0.800748 0.091890 0.000000
0.841306 0.101442 0.000000
0.877867 0.115206 0.000000
0.910704 0.131685 0.000000
0.939696 0.147768 0.000000
0.965362 0.165682 0.000000
0.988403 0.183719 0.000000
1.000000 0.202976 0.000000
1.000000 0.223056 0.000000
1.000000 0.244144 0.000000
1.000000 0.266361 0.000000
0.109285 0.144839 0.035889
0.109468 0.144594 0.036042
0.111147 0.144472 0.036042
0.114168 0.144442 0.036957
0.119509 0.145083 0.036103
0.126406 0.148135 0.031128
0.137270 0.152102 0.024994
0.152346 0.156954 0.016388
0.172732 0.162783 0.005890
0.200198 0.169284 0.000000
0.224277 0.166049 0.000000
0.267704 0.171328 0.000000
0.314214 0.176272 0.000000
0.365576 0.179446 0.000000
0.420813 0.181491 0.000000
0.478920 0.182193 0.000000
0.541100 0.183810 0.000000
0.603235 0.185031 0.000000
0.661189 0.186709 0.000000
0.711971 0.187320 0.000000
0.758114 0.188846 0.000000
0.800137 0.191928 0.000000
0.838834 0.197055 0.000000
0.874144 0.203799 0.000000
0.906096 0.211948 0.000000
0.934569 0.220554 0.000000
0.960235 0.230869 0.000000
0.983398 0.242802 0.000000
1.000000 0.255833 0.000000
1.000000 0.270420 0.000000
1.000000 0.286412 0.000000
1.000000 0.304051 0.000000
0.120668 0.170382 0.042023
0.121370 0.170169 0.042145
0.122805 0.170077 0.042115
0.126375 0.169986 0.043030
0.131289 0.170108 0.043641
0.138033 0.173190 0.038025
0.147890 0.177218 0.029999
0.161929 0.182406 0.021271
0.180514 0.188571 0.009430
0.205753 0.195865 0.000000
0.237949 0.203799 0.000000
0.263951 0.199130 0.000000
0.314366 0.205783 0.000000
0.365606 0.213016 0.000000
0.421729 0.219913 0.000000
0.480079 0.225711 0.000000
0.539910 0.231266 0.000000
0.600214 0.236881 0.000000
0.658076 0.243137 0.000000
0.711757 0.249424 0.000000
0.758541 0.254307 0.000000
0.799039 0.257755 0.000000
0.836698 0.262638 0.000000
0.871427 0.267582 0.000000
0.902983 0.273686 0.000000
0.931518 0.280278 0.000000
0.956878 0.287449 0.000000
0.979919 0.295720 0.000000
1.000000 0.305303 0.000000
1.000000 0.316320 0.000000
1.000000 0.328771 0.000000
1.000000 0.342657 0.000000
0.133120 0.200992 0.046754
0.134005 0.200931 0.046754
0.135653 0.200809 0.047852
0.139223 0.200717 0.047608
0.144198 0.200504 0.048493
0.151156 0.202884 0.045136
0.160372 0.207431 0.035554
0.173648 0.212711 0.024323
0.191562 0.219242 0.010468
0.214786 0.226963 0.000000
0.244846 0.235660 0.000000
0.283726 0.246220 0.000000
0.330480 0.255009 0.000000
0.388922 0.262974 0.000000
0.445899 0.273442 0.000000
0.504906 0.283085 0.000000
0.564385 0.292271 0.000000
0.623407 0.301518 0.000000
0.678737 0.309972 0.000000
0.729274 0.317784 0.000000
0.775235 0.324956 0.000000
0.816739 0.331579 0.000000
0.852934 0.336461 0.000000
0.884520 0.339879 0.000000
0.913268 0.343420 0.000000
0.939452 0.347082 0.000000
0.963073 0.351141 0.000000
0.984039 0.355901 0.000000
1.000000 0.361852 0.000000
1.000000 0.368933 0.000000
1.000000 0.377630 0.000000
1.000000 0.388342 0.000000
0.148196 0.241245 0.053010
0.149081 0.241093 0.053162
0.150912 0.241001 0.053101
0.154116 0.240482 0.054627
0.159884 0.239902 0.054780
0.167025 0.240604 0.054078
0.176730 0.245151 0.042908
0.189883 0.251377 0.028443
0.208042 0.259129 0.009094
0.231968 0.268193 0.000000
0.262730 0.278996 0.000000
0.301030 0.291020 0.000000
0.347265 0.303899 0.000000
0.383612 0.301946 0.000000
0.441047 0.309148 0.000000
0.499672 0.320470 0.000000
0.557427 0.331579 0.000000
0.614313 0.341924 0.000000
0.667720 0.351324 0.000000
0.716915 0.359380 0.000000
0.762020 0.366491 0.000000
0.803738 0.373297 0.000000
0.841825 0.379736 0.000000
0.876646 0.385931 0.000000
0.906676 0.389899 0.000000
0.932952 0.392554 0.000000
0.956847 0.395270 0.000000
0.978454 0.398566 0.000000
0.997681 0.402899 0.000000
1.000000 0.408637 0.000000
1.000000 0.415595 0.000000
1.000000 0.423987 0.000000
0.164309 0.283055 0.060853
0.164706 0.282780 0.060151
0.166781 0.282322 0.060731
0.170779 0.281834 0.062196
0.176547 0.281437 0.063325
0.184604 0.280766 0.065675
0.194064 0.284703 0.052735
0.206973 0.290349 0.035859
0.224765 0.297276 0.014099
0.247349 0.305943 0.000000
0.275853 0.316197 0.000000
0.310857 0.327794 0.000000
0.352605 0.340581 0.000000
0.400671 0.353735 0.000000
0.437629 0.351537 0.000000
0.491646 0.356451 0.000000
0.550561 0.368231 0.000000
0.605524 0.379644 0.000000
0.657557 0.389899 0.000000
0.705867 0.398444 0.000000
0.750454 0.405829 0.000000
0.792233 0.412818 0.000000
0.830533 0.419257 0.000000
0.865782 0.425208 0.000000
0.897704 0.430549 0.000000
0.926452 0.435615 0.000000
0.951263 0.438605 0.000000
0.973022 0.440497 0.000000
0.992432 0.443458 0.000000
1.000000 0.447578 0.000000
1.000000 0.452979 0.000000
1.000000 0.459846 0.000000
0.184176 0.326574 0.073610
0.184451 0.326543 0.073610
0.186465 0.326177 0.074128
0.190158 0.325261 0.074434
0.196353 0.324285 0.076722
0.204349 0.323125 0.077974
0.214084 0.324865 0.072602
0.226749 0.329931 0.051331
0.243381 0.336614 0.025147
0.264652 0.344610 0.000000
0.291142 0.354223 0.000000
0.323613 0.365484 0.000000
0.361730 0.377630 0.000000
0.405127 0.390326 0.000000
0.453315 0.403235 0.000000
0.490089 0.400916 0.000000
0.539971 0.403632 0.000000
0.597833 0.415442 0.000000
0.648493 0.426246 0.000000
0.695827 0.435218 0.000000
0.739986 0.443000 0.000000
0.781430 0.450172 0.000000
0.819883 0.456519 0.000000
0.855253 0.462318 0.000000
0.887510 0.467414 0.000000
0.916747 0.472084 0.000000
0.943145 0.476356 0.000000
0.966918 0.480507 0.000000
0.987488 0.483131 0.000000
1.000000 0.486427 0.000000
1.000000 0.491005 0.000000
1.000000 0.496834 0.000000
0.206638 0.369299 0.088624
0.207340 0.369268 0.088594
0.209354 0.369055 0.088685
0.213199 0.368566 0.088930
0.218875 0.367895 0.090028
0.227604 0.367102 0.091463
0.237644 0.367346 0.091768
0.250248 0.372656 0.079896
0.266239 0.379034 0.052583
0.286503 0.386725 0.018677
0.310857 0.395483 0.000000
0.340276 0.405310 0.000000
0.374243 0.416052 0.000000
0.413031 0.427283 0.000000
0.456062 0.438880 0.000000
0.502922 0.450538 0.000000
0.538933 0.448310 0.000000
0.583734 0.448554 0.000000
0.639063 0.459236 0.000000
0.685573 0.468788 0.000000
0.729702 0.477333 0.000000
0.771237 0.485054 0.000000
0.809995 0.491859 0.000000
0.845518 0.497902 0.000000
0.878141 0.503075 0.000000
0.907866 0.507622 0.000000
0.934630 0.511864 0.000000
0.958831 0.515496 0.000000
0.980407 0.519097 0.000000
0.999268 0.523491 0.000000
1.000000 0.527062 0.000000
1.000000 0.531640 0.000000
0.231907 0.411444 0.102113
0.232273 0.411414 0.102480
0.234257 0.411170 0.102602
0.237888 0.410895 0.102998
0.243717 0.410163 0.103670
0.251743 0.409613 0.105043
0.261875 0.409125 0.106813
0.273777 0.412757 0.101198
0.288945 0.418799 0.090700
0.307561 0.425727 0.063264
0.330175 0.433906 0.020142
0.357000 0.443091 0.000000
0.388067 0.453162 0.000000
0.423316 0.463569 0.000000
0.462623 0.474647 0.000000
0.505272 0.485664 0.000000
0.550805 0.496620 0.000000
0.585473 0.494514 0.000000
0.624567 0.491920 0.000000
0.677241 0.501061 0.000000
0.720729 0.510094 0.000000
0.761959 0.518273 0.000000
0.800504 0.525475 0.000000
0.836240 0.531518 0.000000
0.868986 0.536797 0.000000
0.898833 0.541375 0.000000
0.926055 0.545434 0.000000
0.950469 0.549004 0.000000
0.972442 0.552087 0.000000
0.991882 0.555291 0.000000
1.000000 0.560418 0.000000
1.000000 0.566186 0.000000
0.260075 0.455177 0.120821
0.260868 0.455390 0.121157
0.272984 0.469764 0.129030
0.276524 0.469490 0.129580
0.282170 0.468910 0.130495
0.289769 0.468177 0.131655
0.299504 0.467262 0.132784
0.311040 0.468666 0.131685
0.325505 0.473976 0.122744
0.343267 0.480537 0.111666
0.364538 0.487984 0.095674
0.389380 0.496193 0.053651
0.417823 0.504723 0.000000
0.449775 0.513634 0.000000
0.484657 0.522515 0.000000
0.522454 0.531670 0.000000
0.562707 0.540581 0.000000
0.604944 0.549676 0.000000
0.636774 0.546654 0.000000
0.669825 0.540398 0.000000
0.718959 0.547723 0.000000
0.759213 0.555444 0.000000
0.796536 0.562036 0.000000
0.831113 0.567559 0.000000
0.862882 0.571954 0.000000
0.892058 0.575616 0.000000
0.918547 0.578759 0.000000
0.942687 0.581476 0.000000
0.964508 0.584009 0.000000
0.984070 0.586358 0.000000
1.000000 0.590265 0.000000
1.000000 0.595575 0.047822
0.294011 0.502800 0.146365
0.295262 0.504204 0.147158
0.298161 0.505394 0.148470
0.302495 0.506371 0.149599
0.308385 0.506889 0.150790
0.315679 0.506615 0.152438
0.324712 0.506004 0.153414
0.335698 0.505150 0.155184
0.348699 0.509697 0.148196
0.364782 0.515404 0.139376
0.384161 0.521843 0.127779
0.406775 0.529137 0.112551
0.432380 0.536706 0.090059
0.460975 0.544671 0.020264
0.492531 0.552911 0.000000
0.526818 0.561303 0.000000
0.563134 0.569696 0.000000
0.601801 0.578363 0.000000
0.642481 0.587304 0.000000
0.673243 0.584955 0.000000
0.702480 0.577173 0.000000
0.749111 0.584527 0.000000
0.787564 0.591150 0.000000
0.822049 0.596887 0.000000
0.853758 0.601465 0.000000
0.882902 0.605097 0.000000
0.909514 0.608087 0.000000
0.933776 0.610590 0.000000
0.955749 0.612940 0.000000
0.975525 0.615045 0.000000
0.992554 0.617975 0.000000
1.000000 0.622705 0.111604
0.324163 0.541985 0.171054
0.325628 0.543206 0.172061
0.328405 0.544518 0.173434
0.332586 0.545678 0.174838
0.338109 0.546197 0.176242
0.344915 0.545983 0.177371
0.353399 0.545556 0.178561
0.363409 0.544732 0.180331
0.375280 0.546899 0.177493
0.389960 0.551659 0.170169
0.407385 0.557366 0.161349
0.427832 0.563592 0.150790
0.450935 0.570306 0.137118
0.476692 0.577417 0.118349
0.505089 0.584894 0.090974
0.535790 0.592401 0.003449
0.568658 0.600153 0.000000
0.603540 0.607965 0.000000
0.640497 0.616083 0.000000
0.679011 0.624353 0.000000
0.708400 0.622339 0.000000
0.733883 0.613031 0.000000
0.777157 0.619440 0.000000
0.813779 0.624537 0.000000
0.845243 0.629358 0.000000
0.874327 0.633082 0.000000
0.900938 0.635981 0.000000
0.925170 0.638483 0.000000
0.947173 0.640589 0.000000
0.967041 0.642420 0.000000
0.984527 0.644556 0.000000
0.998657 0.648768 0.146517
0.356847 0.580621 0.200168
0.358221 0.581781 0.201358
0.360540 0.582818 0.202426
0.364355 0.583764 0.204166
0.369360 0.584314 0.205264
0.375463 0.584039 0.206210
0.383215 0.583703 0.207401
0.392432 0.583032 0.209049
0.403540 0.583215 0.209201
0.416571 0.587304 0.203616
0.432258 0.592248 0.196902
0.450568 0.597681 0.188510
0.471321 0.603571 0.178775
0.494270 0.609827 0.166293
0.519707 0.616510 0.150790
0.547539 0.623468 0.130648
0.577600 0.630793 0.102754
0.609583 0.638392 0.018524
0.643641 0.646296 0.000000
0.679377 0.654475 0.000000
0.716487 0.662715 0.000000
0.745144 0.661555 0.000000
0.767788 0.651575 0.000000
0.807248 0.656672 0.000000
0.841794 0.660609 0.000000
0.870390 0.664515 0.000000
0.896605 0.667506 0.000000
0.920409 0.669947 0.000000
0.941955 0.671839 0.000000
0.961364 0.673426 0.022034
0.978576 0.674861 0.120150
0.992126 0.678676 0.200504
0.397925 0.624903 0.240848
0.398901 0.625360 0.241550
0.400122 0.625574 0.242039
0.402838 0.625605 0.242649
0.406622 0.625360 0.243259
0.411810 0.624781 0.243778
0.418494 0.624170 0.244572
0.426490 0.623468 0.245640
0.436133 0.622705 0.247166
0.448219 0.625727 0.243961
0.462165 0.629938 0.238651
0.478279 0.634699 0.232242
0.496681 0.639796 0.224704
0.517235 0.645289 0.215824
0.539757 0.651087 0.205234
0.564446 0.657069 0.192142
0.591089 0.663294 0.176761
0.619715 0.669703 0.157656
0.650019 0.676234 0.132540
0.682002 0.683009 0.096162
0.715114 0.689723 0.000000
0.749355 0.696590 0.000000
0.775753 0.694789 0.000000
0.796262 0.684535 0.000000
0.830442 0.686519 0.000000
0.862669 0.689021 0.000000
0.888701 0.692164 0.000000
0.912444 0.694636 0.000000
0.933959 0.696498 0.079774
0.953246 0.697963 0.131044
0.970489 0.699062 0.167422
0.984039 0.702327 0.232486
0.432349 0.659907 0.278111
0.432929 0.660273 0.278630
0.434424 0.660426 0.279301
0.436774 0.660456 0.279820
0.440162 0.660334 0.280522
0.444739 0.659937 0.280980
0.450690 0.659358 0.281621
0.457954 0.658778 0.282902
0.466621 0.658259 0.284428
0.477180 0.659327 0.283787
0.489479 0.662959 0.279576
0.503746 0.667170 0.274601
0.520012 0.671595 0.268711
0.538231 0.676417 0.261692
0.558465 0.681453 0.253483
0.580438 0.686732 0.244236
0.604425 0.692287 0.233616
0.629999 0.697993 0.221103
0.657404 0.703792 0.206699
0.686183 0.709712 0.189517
0.716365 0.715724 0.168856
0.747646 0.721706 0.142153
0.779538 0.727626 0.102907
0.804318 0.725795 0.025605
0.820584 0.713344 0.000000
0.850309 0.712886 0.000000
0.880583 0.714290 0.004822
0.904234 0.716823 0.103456
0.925689 0.718776 0.142855
0.944976 0.720150 0.175570
0.962249 0.721370 0.206577
0.975769 0.724392 0.263615
0.471382 0.696376 0.325017
0.472206 0.696895 0.325841
0.473610 0.697108 0.326574
0.475196 0.696834 0.326635
0.477760 0.696284 0.326452
0.481147 0.695552 0.326513
0.485695 0.694575 0.326452
0.491524 0.693507 0.326513
0.498573 0.692439 0.327123
0.507103 0.691646 0.327764
0.517174 0.694148 0.323522
0.529412 0.697230 0.318639
0.543236 0.700649 0.313054
0.558892 0.704372 0.306981
0.576104 0.708278 0.299626
0.595209 0.712367 0.291752
0.616052 0.716854 0.282506
0.638727 0.721584 0.272801
0.663233 0.726650 0.261845
0.689326 0.731960 0.250034
0.716823 0.737331 0.236820
0.745113 0.742733 0.221592
0.774319 0.747799 0.202518
0.803769 0.752682 0.179263
0.826658 0.750423 0.157656
0.843473 0.740627 0.141665
0.868986 0.738064 0.145296
0.896391 0.738460 0.161318
0.918029 0.739864 0.187259
0.937133 0.741115 0.214389
0.954223 0.742123 0.240818
0.967590 0.744991 0.295140
0.503807 0.724605 0.366918
0.504448 0.725063 0.367773
0.505821 0.725307 0.368536
0.507561 0.725277 0.369024
0.509941 0.725063 0.369390
0.513237 0.724666 0.369696
0.517693 0.724239 0.370367
0.523339 0.723751 0.371252
0.530144 0.723293 0.372473
0.537987 0.722774 0.374151
0.547173 0.724208 0.372259
0.557824 0.726986 0.368872
0.569909 0.729976 0.364385
0.583581 0.733181 0.359472
0.598688 0.736416 0.353429
0.615259 0.739925 0.346654
0.633509 0.743618 0.338994
0.653254 0.747555 0.331029
0.674861 0.751766 0.322576
0.697932 0.756222 0.313756
0.722347 0.760800 0.303807
0.747799 0.765408 0.292790
0.774105 0.769802 0.280491
0.800931 0.774075 0.266056
0.828275 0.778073 0.248478
0.849516 0.775937 0.233951
0.864897 0.766751 0.221958
0.886656 0.762722 0.224887
0.911131 0.762509 0.238773
0.930785 0.762936 0.260197
0.947417 0.763851 0.284825
0.960052 0.766384 0.337194
0.539574 0.753353 0.416358
0.540093 0.753536 0.416907
0.540856 0.753597 0.417151
0.542351 0.753506 0.417456
0.544244 0.753262 0.417670
0.547112 0.752895 0.418006
0.550835 0.752468 0.418219
0.555627 0.752010 0.418921
0.561425 0.751492 0.420050
0.568353 0.751034 0.421454
0.576135 0.751217 0.421881
0.585412 0.753506 0.418799
0.595941 0.756008 0.415137
0.607721 0.758724 0.411017
0.620630 0.761471 0.406012
0.635096 0.764370 0.400153
0.650874 0.767453 0.394141
0.668208 0.770718 0.387335
0.687098 0.774289 0.380438
0.707424 0.778042 0.373236
0.728939 0.781857 0.365881
0.751553 0.785733 0.357275
0.774899 0.789456 0.347448
0.799069 0.793027 0.336645
0.823636 0.796384 0.324132
0.848569 0.799496 0.308873
0.868162 0.797391 0.295903
0.882048 0.788632 0.285222
0.900633 0.783383 0.285191
0.922332 0.782742 0.300511
0.940276 0.782437 0.320378
0.952331 0.784970 0.373632
0.573053 0.778317 0.464363
0.573480 0.778500 0.464881
0.574212 0.778592 0.465400
0.575494 0.778592 0.465705
0.577539 0.778561 0.466224
0.580377 0.778561 0.467140
0.584527 0.778714 0.469001
0.589563 0.778897 0.471046
0.595605 0.779232 0.473701
0.602655 0.779568 0.476967
0.610559 0.779934 0.480354
0.619379 0.782254 0.480140
0.629175 0.784909 0.479072
0.639887 0.787594 0.477028
0.651331 0.790188 0.474006
0.663752 0.792721 0.470192
0.677211 0.795254 0.465431
0.691981 0.797940 0.460334
0.708003 0.800809 0.455177
0.725307 0.803769 0.449653
0.743679 0.806821 0.444038
0.763058 0.809873 0.437629
0.783169 0.812772 0.430213
0.803952 0.815549 0.421973
0.825345 0.818173 0.412238
0.847166 0.820584 0.401526
0.869322 0.822873 0.389319
0.886931 0.820706 0.377630
0.899199 0.812558 0.367681
0.914488 0.806424 0.366278
0.932677 0.805478 0.385504
0.945678 0.806241 0.430732
0.614191 0.805692 0.526085
0.614405 0.805692 0.526360
0.614801 0.805661 0.526299
0.615686 0.805509 0.526299
0.617121 0.805325 0.526543
0.619257 0.805112 0.526757
0.622126 0.804929 0.527459
0.625757 0.804715 0.528283
0.630274 0.804562 0.529595
0.635584 0.804410 0.531334
0.641627 0.804227 0.533288
0.648432 0.804990 0.533623
0.656245 0.806790 0.531853
0.664851 0.808682 0.529534
