luts/旅拍胶片04.cube
# Created by Adobe Lightroom plugin Export LUT (1.24.0)
# www.johnrellis.com/lightroom/exportlut.htm
# Preset: 旅拍胶片-素材江湖04
# Color profile: E:\lut插件\exportlut.1.24\exportlut.lrplugin\color profiles\Rec709gamma2.4.icc
LUT_3D_SIZE 5
DOMAIN_MIN 0.000000 0.000000 0.000000
DOMAIN_MAX 0.903226 0.903226 0.903226
0.000000 0.000000 0.000000
0.129427 0.007996 0.000000
0.406928 0.000000 0.000000
0.795254 0.000000 0.000000
1.000000 0.000000 0.000000
0.088838 0.102602 0.019104
0.140932 0.116091 0.002167
0.425391 0.097719 0.000000
0.801205 0.000000 0.000000
1.000000 0.132906 0.000000
0.184176 0.326574 0.073610
0.226749 0.329931 0.051331
0.453315 0.403235 0.000000
0.781430 0.450172 0.000000
0.987488 0.483131 0.000000
0.397925 0.624903 0.240848
0.426490 0.623468 0.245640
0.539757 0.651087 0.205234
0.749355 0.696590 0.000000
0.933959 0.696498 0.079774
0.647303 0.825895 0.576715
0.657649 0.825376 0.579675
0.691249 0.825284 0.566094
0.775326 0.839811 0.545769
0.893217 0.852354 0.499153
0.000000 0.011841 0.104189
0.128542 0.000000 0.104768
0.372900 0.000000 0.092134
0.752224 0.000000 0.069551
0.995239 0.000000 0.000000
0.088350 0.119936 0.098177
0.148806 0.126650 0.103517
0.394751 0.117464 0.102327
0.761288 0.000000 0.044221
0.992432 0.169375 0.000000
0.208164 0.336980 0.152193
0.250004 0.333928 0.155245
0.436042 0.387701 0.087312
0.761196 0.445655 0.000000
0.976135 0.492622 0.066377
0.413489 0.629541 0.302983
0.441260 0.628779 0.307439
0.543206 0.648615 0.290654
0.743923 0.694545 0.207126
0.927550 0.701564 0.256474
0.651484 0.826352 0.600519
0.661128 0.825711 0.602594
0.700130 0.827817 0.607599
0.776852 0.841245 0.587518
0.890105 0.854154 0.547448
0.000000 0.081270 0.399451
0.000000 0.065278 0.393744
0.345800 0.000000 0.376989
0.750240 0.000000 0.301396
0.966979 0.000000 0.335119
0.000000 0.198062 0.380041
0.000000 0.166171 0.378302
0.371862 0.102296 0.369329
0.741543 0.109377 0.321416
0.958343 0.214725 0.355871
0.080201 0.390509 0.347753
0.212802 0.393194 0.350195
0.440589 0.412146 0.370367
0.729000 0.449805 0.386786
0.941100 0.513085 0.422492
0.423804 0.650874 0.458930
0.471321 0.649622 0.476020
0.557092 0.645808 0.486458
0.722866 0.692683 0.470253
0.901793 0.721492 0.521538
0.656794 0.828183 0.668482
0.666987 0.828031 0.671015
0.704250 0.826963 0.679896
0.769741 0.837552 0.675929
0.874784 0.852995 0.652552
0.000000 0.149660 0.751736
0.000000 0.136568 0.749447
0.000000 0.080385 0.738918
0.638666 0.000000 0.721096
0.944121 0.179599 0.641321
0.000000 0.264988 0.738888
0.000000 0.235691 0.737514
0.157839 0.196475 0.728603
0.645502 0.000000 0.711604
0.934722 0.311101 0.640192
0.000000 0.520378 0.704616
0.159487 0.516503 0.702876
0.370459 0.464088 0.702327
0.661402 0.412757 0.689631
0.902953 0.561486 0.658534
0.319097 0.685328 0.675532
0.368566 0.684321 0.674647
0.512963 0.685664 0.677333
0.688380 0.694881 0.689998
0.870298 0.728115 0.713893
0.627375 0.834928 0.744381
0.642817 0.835233 0.747890
0.700282 0.837247 0.764431
0.767025 0.835691 0.779446
0.855131 0.854582 0.776822
0.000000 0.277165 0.910582
0.000000 0.258000 0.910399
0.000000 0.247990 0.908263
0.489570 0.186893 0.903990
0.819333 0.000000 0.897581
0.000000 0.367163 0.905425
0.000000 0.348211 0.905638
0.000000 0.320836 0.904356
0.511376 0.276585 0.900450
0.820920 0.196292 0.894560
0.302251 0.612848 0.887663
0.313481 0.600641 0.887938
0.365759 0.546197 0.890227
0.573877 0.503716 0.888396
0.823606 0.464668 0.885283
0.491615 0.761807 0.870665
0.513542 0.762020 0.870359
0.590021 0.761196 0.870603
0.666011 0.729610 0.873991
0.824338 0.702937 0.873594
0.603204 0.852720 0.861601
0.616358 0.852506 0.861601
0.669520 0.852476 0.862547
0.749844 0.852659 0.864103
0.836942 0.855375 0.868254
