luts/旅拍胶片08.cube
# Created by Adobe Lightroom plugin Export LUT (1.24.0)
# www.johnrellis.com/lightroom/exportlut.htm
# Preset: 旅拍胶片-素材江湖08
# Color profile: E:\lut插件\exportlut.1.24\exportlut.lrplugin\color profiles\Rec709gamma2.4.icc
LUT_3D_SIZE 32
DOMAIN_MIN 0.0 0.0 0.0
DOMAIN_MAX 1.0 1.0 1.0
0.118441 0.110048 0.100343
0.118441 0.110048 0.100343
0.118441 0.110048 0.100343
0.118441 0.110048 0.100343
0.118441 0.110048 0.100343
0.119203 0.110262 0.100649
0.119265 0.110872 0.100893
0.120272 0.111360 0.101534
0.120577 0.112245 0.102113
0.121401 0.113069 0.102663
0.123079 0.114321 0.104219
0.126040 0.116884 0.106447
0.130068 0.121126 0.110292
0.136812 0.127138 0.115724
0.144442 0.134279 0.122499
0.153262 0.142672 0.130282
0.163973 0.152712 0.139376
0.176303 0.164248 0.150210
0.190555 0.177646 0.162753
0.208530 0.194522 0.178561
0.229831 0.214664 0.197482
0.251835 0.235843 0.217594
0.274357 0.257420 0.238285
0.298009 0.280217 0.260349
0.322423 0.304051 0.283604
0.348089 0.329168 0.308385
0.374762 0.355596 0.334661
0.402625 0.383398 0.362524
0.431586 0.412482 0.392004
0.461646 0.443000 0.423194
0.492653 0.474708 0.455756
0.524407 0.507469 0.489601
0.118441 0.110048 0.100343
0.118441 0.110048 0.100343
0.118441 0.110048 0.100343
0.118441 0.110048 0.100343
0.118441 0.110048 0.100343
0.119203 0.110262 0.100649
0.119265 0.110872 0.100893
0.120272 0.111360 0.101534
0.120577 0.112245 0.102113
0.121401 0.113069 0.102663
0.123079 0.114321 0.104219
0.126040 0.116884 0.106447
0.130068 0.121126 0.110292
0.136538 0.126894 0.115755
0.144259 0.134066 0.122255
0.153079 0.142489 0.130068
0.163912 0.152316 0.139193
0.176120 0.163729 0.149905
0.190036 0.177066 0.162112
0.207828 0.193790 0.177859
0.228244 0.213260 0.196170
0.249607 0.233524 0.215488
0.271611 0.254704 0.235691
0.294530 0.276890 0.257115
0.318669 0.300267 0.280034
0.343938 0.325048 0.304326
0.370459 0.351324 0.330388
0.398230 0.378912 0.358099
0.427131 0.407996 0.387427
0.457221 0.438544 0.418616
0.488380 0.470344 0.451240
0.520226 0.503166 0.485176
0.118441 0.110048 0.100343
0.118441 0.110048 0.100343
0.118441 0.110048 0.100343
0.118441 0.110048 0.100343
0.118441 0.110048 0.100343
0.119203 0.110262 0.100649
0.119265 0.110872 0.100893
0.120272 0.111360 0.101534
0.120577 0.112245 0.102113
0.121645 0.113344 0.102998
0.123873 0.115114 0.104768
0.126741 0.117647 0.107332
0.131472 0.122042 0.111086
0.138033 0.127993 0.116762
0.145449 0.135317 0.123415
0.154513 0.143587 0.131106
0.165072 0.153536 0.140352
0.177310 0.165011 0.151125
0.191501 0.178317 0.163394
0.209018 0.195041 0.178958
0.229404 0.214206 0.197147
0.250431 0.234379 0.216342
0.271916 0.255039 0.236088
0.294743 0.276951 0.257298
0.318517 0.300145 0.279881
0.343297 0.324529 0.303807
0.369635 0.350439 0.329595
0.397314 0.378027 0.357122
0.426184 0.407019 0.386481
0.456184 0.437446 0.417487
0.487221 0.469154 0.450019
0.519005 0.501823 0.483803
0.118441 0.110048 0.100343
0.118441 0.110048 0.100343
0.118441 0.110048 0.100343
0.118441 0.110048 0.100343
0.118441 0.110048 0.100343
0.119203 0.110262 0.100649
0.119783 0.110811 0.100893
0.120089 0.111696 0.101472
0.121584 0.112734 0.102724
0.123079 0.114321 0.104219
0.125521 0.116365 0.106203
0.128908 0.119875 0.109255
0.134310 0.124605 0.113771
0.140749 0.130861 0.119448
0.148592 0.138155 0.125887
0.157412 0.146609 0.133791
0.168399 0.156619 0.142977
0.180453 0.167941 0.153658
0.194553 0.181216 0.166171
0.212100 0.197971 0.181674
0.231449 0.216159 0.199039
0.251743 0.235752 0.217472
0.272984 0.255985 0.237003
0.295476 0.277714 0.257969
0.319249 0.300908 0.280522
0.344640 0.325658 0.304997
0.371191 0.352087 0.331182
0.399084 0.379797 0.358923
0.428046 0.408972 0.388403
0.458076 0.439338 0.419409
0.488594 0.470588 0.451484
0.519768 0.502617 0.484657
0.118441 0.110048 0.100343
0.118776 0.110323 0.100282
0.118776 0.110323 0.100282
0.118776 0.110323 0.100282
0.119020 0.110597 0.100587
0.120333 0.111971 0.101778
0.121096 0.112795 0.102724
0.122591 0.113802 0.103609
0.123873 0.115114 0.104768
0.126040 0.116884 0.106447
0.129152 0.119570 0.108980
0.133425 0.123659 0.113008
0.138705 0.129183 0.117739
0.145693 0.135531 0.123384
0.153414 0.142855 0.130495
0.162966 0.151644 0.138399
0.173739 0.161898 0.147921
0.186435 0.173617 0.158938
0.200839 0.186984 0.171481
0.218631 0.203861 0.187472
0.237491 0.222080 0.204623
0.257450 0.241154 0.222751
0.278172 0.261082 0.241855
0.300481 0.282658 0.262791
0.324315 0.305760 0.285344
0.349462 0.330449 0.309667
0.375799 0.356542 0.335668
0.403265 0.383978 0.363165
0.431830 0.412757 0.392279
0.461280 0.442603 0.422766
0.491371 0.473396 0.454383
0.521935 0.504967 0.487007
0.119783 0.110811 0.100893
0.119783 0.110811 0.100893
0.119509 0.111147 0.101228
0.119509 0.111147 0.101228
0.119509 0.111147 0.101228
0.120333 0.111971 0.101778
0.123873 0.115114 0.104768
0.127260 0.118135 0.107576
0.129366 0.119844 0.109255
0.131899 0.122530 0.111635
0.135927 0.126223 0.114992
0.140566 0.130648 0.119203
0.146578 0.136110 0.124361
0.153414 0.142855 0.130495
0.162112 0.150759 0.137606
0.171695 0.159762 0.146151
0.183047 0.170352 0.156008
0.195956 0.182437 0.167391
0.211124 0.196994 0.180880
0.228885 0.213901 0.196750
0.247837 0.231876 0.213870
0.267491 0.250736 0.231907
0.307408 0.289342 0.269291
0.330968 0.312383 0.291814
0.355322 0.336339 0.315465
0.380499 0.361273 0.340337
0.406531 0.387182 0.366430
0.433112 0.414008 0.393591
0.460517 0.441901 0.422004
0.488472 0.470466 0.451362
0.516930 0.499733 0.481636
0.545983 0.529808 0.512871
0.121096 0.112184 0.102083
0.121096 0.112184 0.102083
0.121096 0.112184 0.102083
0.121096 0.112184 0.102083
0.120760 0.111910 0.102144
0.121584 0.112734 0.102724
0.122591 0.113802 0.103609
0.127718 0.118654 0.108156
0.136812 0.127138 0.115724
0.144045 0.133852 0.122042
0.148196 0.137758 0.125704
0.153597 0.142611 0.130282
0.159976 0.148562 0.135866
0.167391 0.155581 0.142275
0.176181 0.164096 0.150057
0.186435 0.173617 0.158938
0.198184 0.184756 0.169467
0.211490 0.197360 0.181125
0.228885 0.213901 0.196750
0.247837 0.231876 0.213870
0.267918 0.251164 0.232273
0.289311 0.271916 0.252323
0.312200 0.293919 0.273777
0.336461 0.317693 0.297063
0.361395 0.342351 0.321416
0.386908 0.367529 0.346685
0.412390 0.393133 0.372381
0.438331 0.419348 0.398962
0.465064 0.446479 0.426703
0.492103 0.474189 0.455238
0.519768 0.502617 0.484657
0.548333 0.532250 0.515373
0.122377 0.113558 0.103304
0.122377 0.113558 0.103304
0.122377 0.113558 0.103304
0.122377 0.113558 0.103304
0.121645 0.113344 0.102998
0.122591 0.113802 0.103609
0.123629 0.114839 0.104463
0.125826 0.116609 0.106172
0.133425 0.123659 0.113008
0.144442 0.134279 0.122499
0.158083 0.146944 0.134218
0.168185 0.156435 0.143008
0.174807 0.162661 0.148623
0.182620 0.169894 0.155489
0.191623 0.178470 0.163546
0.202060 0.188296 0.172824
0.213687 0.199405 0.183139
0.228855 0.213657 0.196658
0.245335 0.229648 0.211734
0.263249 0.246677 0.228031
0.282261 0.264988 0.245609
0.302922 0.284947 0.265049
0.324804 0.306310 0.285863
0.348150 0.329229 0.308446
0.372442 0.353155 0.332280
0.396826 0.377508 0.356664
0.421546 0.402441 0.381750
0.446723 0.427771 0.407599
0.472572 0.454170 0.434638
0.499001 0.481239 0.462501
0.525933 0.509056 0.491310
0.553887 0.538018 0.521386
0.124819 0.116152 0.105928
0.124819 0.116152 0.105928
0.125063 0.115846 0.105623
0.124575 0.115908 0.105623
0.124331 0.115633 0.105348
0.124819 0.115572 0.105348
0.126040 0.116884 0.106447
0.127718 0.118654 0.108156
0.130739 0.121340 0.110567
0.141360 0.131044 0.119692
0.154116 0.143191 0.130922
0.169986 0.158297 0.144686
0.189487 0.176486 0.161654
0.202579 0.188815 0.173220
0.211612 0.197482 0.181277
0.221958 0.207095 0.190372
0.235111 0.219791 0.202426
0.249790 0.233921 0.215793
0.265782 0.248966 0.230259
0.282536 0.265324 0.245975
0.300938 0.283024 0.263188
0.320531 0.302098 0.281804
0.341375 0.322606 0.301946
0.363806 0.344671 0.323735
0.386999 0.367651 0.346807
0.410376 0.391119 0.370397
0.434058 0.415076 0.394598
0.458320 0.439673 0.419715
0.483223 0.465064 0.445838
0.508568 0.491157 0.472755
0.534752 0.518151 0.500725
0.562066 0.546532 0.530236
0.130587 0.121614 0.110536
0.130739 0.121340 0.110567
0.130312 0.121370 0.110567
0.130526 0.121065 0.110292
0.130007 0.120577 0.110079
0.129122 0.120150 0.109529
0.130739 0.121340 0.110567
0.132845 0.123476 0.112428
0.135927 0.126223 0.114992
0.139925 0.130007 0.118746
0.152834 0.141848 0.129641
0.168185 0.156435 0.143008
0.186862 0.174044 0.159457
0.209262 0.195285 0.179232
0.234806 0.219455 0.202090
0.246921 0.231113 0.213138
0.260349 0.243778 0.225254
0.274357 0.257237 0.238224
0.289525 0.271977 0.252415
0.305760 0.287785 0.267735
0.323064 0.304570 0.284123
0.340917 0.322118 0.301396
0.360266 0.341161 0.320256
0.380652 0.361425 0.340520
0.401984 0.382727 0.361852
0.423865 0.404669 0.384131
0.446509 0.427588 0.407385
0.469825 0.451392 0.431678
0.493904 0.475990 0.457099
0.518639 0.501427 0.483406
0.544305 0.528038 0.511009
0.571191 0.556023 0.540154
0.139315 0.129335 0.117983
0.139315 0.129335 0.117983
0.139132 0.129122 0.117739
0.138918 0.128908 0.117494
0.138460 0.128450 0.117281
0.137636 0.128054 0.116762
0.138033 0.127993 0.116762
0.140108 0.130220 0.118990
0.143221 0.132998 0.121370
0.147005 0.136507 0.124575
0.152193 0.141512 0.128969
0.167056 0.155612 0.142275
0.185885 0.173007 0.158480
0.208865 0.194919 0.178988
0.235508 0.220188 0.202762
0.264469 0.247929 0.229191
0.288090 0.270634 0.251133
0.301305 0.283391 0.263523
0.315526 0.297276 0.277043
0.330602 0.311986 0.291478
0.346563 0.327672 0.306889
0.363317 0.344152 0.323278
0.381445 0.362158 0.341253
0.400732 0.381384 0.360571
0.420813 0.401678 0.380987
0.441627 0.422736 0.402411
0.463203 0.444587 0.424720
0.485420 0.467262 0.448096
0.508293 0.490822 0.472389
0.532097 0.515404 0.497902
0.556939 0.541222 0.524712
0.583062 0.568414 0.553155
0.149752 0.139376 0.126986
0.149752 0.139376 0.126986
0.149874 0.139132 0.127016
0.149325 0.138979 0.126802
0.149081 0.138308 0.126375
0.148196 0.137758 0.125704
0.147616 0.137118 0.125002
0.149142 0.138766 0.126558
0.152316 0.141695 0.129427
0.156191 0.145296 0.132570
0.160861 0.149477 0.136660
0.168032 0.156252 0.142824
0.193515 0.180423 0.165225
0.219181 0.204471 0.187991
0.247288 0.231296 0.213352
0.277928 0.260838 0.241703
0.310399 0.292180 0.272099
0.343786 0.324865 0.304112
0.361273 0.342138 0.321263
0.375280 0.356023 0.335088
0.389899 0.370550 0.349645
0.405158 0.385840 0.365026
0.421363 0.402258 0.381628
0.438788 0.419837 0.399451
0.456947 0.438209 0.418219
0.475532 0.457191 0.437690
0.494728 0.476844 0.457954
0.514488 0.497169 0.478981
0.535119 0.518547 0.501122
0.557031 0.541314 0.524834
0.580194 0.565423 0.550011
0.604852 0.591211 0.576989
0.164767 0.153201 0.139956
0.164553 0.153017 0.139986
0.164279 0.153048 0.139773
0.164096 0.152468 0.139406
0.163272 0.151980 0.138796
0.162417 0.151095 0.138033
0.161563 0.150210 0.137240
0.161227 0.149844 0.136843
0.164920 0.153353 0.140169
0.169680 0.157961 0.144289
0.175540 0.163455 0.149538
0.182803 0.170382 0.155825
0.192844 0.179721 0.164614
0.217075 0.202487 0.186038
0.245151 0.229435 0.211490
0.275334 0.258427 0.239322
0.307195 0.289128 0.269169
0.339849 0.320989 0.300328
0.372808 0.353521 0.332647
0.400916 0.381689 0.360815
0.413794 0.394598 0.373846
0.427619 0.408515 0.388006
0.442603 0.423651 0.403357
0.458686 0.439979 0.420050
0.475441 0.457160 0.437659
0.493019 0.475135 0.456184
0.511162 0.493782 0.475471
0.530083 0.513329 0.495735
0.550134 0.534112 0.517327
0.571496 0.556420 0.540551
0.594232 0.580072 0.565301
0.618250 0.605188 0.591638
0.180880 0.168399 0.154177
0.180758 0.168246 0.153994
0.180453 0.167941 0.153658
0.180026 0.167819 0.153475
0.179721 0.167178 0.152987
0.178683 0.166445 0.152316
0.177798 0.165499 0.151461
0.176608 0.164584 0.150576
0.179110 0.166567 0.152468
0.183932 0.171267 0.156649
0.189883 0.176913 0.162142
0.197147 0.183658 0.168399
0.205661 0.191775 0.175906
0.216770 0.202396 0.185885
0.242924 0.227146 0.209445
0.273045 0.256046 0.237095
0.304265 0.286320 0.266300
0.336339 0.317571 0.296941
0.368994 0.349767 0.328923
0.401068 0.381781 0.360967
0.432685 0.413611 0.393164
0.452216 0.433387 0.413336
0.465919 0.447364 0.427649
0.480781 0.462562 0.443244
0.496407 0.478614 0.459754
0.512688 0.495399 0.477089
0.529870 0.513085 0.495491
0.547967 0.531853 0.514977
0.567193 0.551873 0.535882
0.587854 0.573419 0.558343
0.609888 0.596399 0.582422
0.633143 0.620752 0.607935
0.201602 0.187778 0.172213
0.201450 0.187625 0.172244
0.200992 0.187411 0.171786
0.200473 0.186862 0.171359
0.199466 0.186099 0.170626
0.198459 0.185031 0.169589
0.197421 0.183932 0.168521
0.195956 0.182437 0.167391
0.195071 0.181765 0.166598
0.199863 0.186496 0.170901
0.205905 0.192020 0.176211
0.213199 0.198917 0.182773
0.221500 0.206912 0.190280
0.230747 0.215640 0.198428
0.243046 0.227237 0.209415
0.270359 0.253422 0.234592
0.301732 0.283848 0.263920
0.333684 0.314916 0.294316
0.365789 0.346624 0.325750
0.397772 0.378515 0.357671
0.429389 0.410285 0.389776
0.460517 0.441901 0.422004
0.490242 0.472236 0.453193
0.503593 0.486030 0.467414
0.517967 0.500847 0.482795
0.533410 0.516747 0.499275
0.549828 0.533806 0.517021
0.567315 0.551995 0.535943
0.586175 0.571649 0.556512
0.606561 0.592950 0.578790
0.628199 0.615595 0.602533
0.650965 0.639521 0.627619
0.223239 0.208469 0.191775
0.223239 0.208469 0.191775
0.222934 0.208133 0.191379
0.222477 0.207675 0.191012
0.221653 0.207004 0.190249
0.220737 0.206088 0.189517
0.219760 0.205051 0.188479
0.218448 0.203891 0.187320
0.217105 0.202731 0.186130
0.218997 0.204471 0.187839
0.224949 0.210056 0.193240
0.231754 0.216495 0.199283
0.239567 0.224002 0.206424
0.248020 0.232059 0.214115
0.257359 0.241062 0.222629
0.269627 0.252811 0.234012
0.297642 0.279850 0.260014
0.330175 0.311528 0.290959
0.362127 0.343023 0.322179
0.394202 0.374884 0.354040
0.426184 0.407019 0.386481
0.457893 0.439124 0.419196
0.488777 0.470802 0.451698
0.518853 0.501732 0.483711
0.541100 0.524712 0.507561
0.555779 0.540002 0.523461
0.571618 0.556451 0.540642
0.588495 0.574060 0.559045
0.606653 0.593072 0.578912
0.625940 0.613245 0.600061
0.646357 0.634638 0.622522
0.667994 0.657313 0.646326
0.246342 0.230503 0.212589
0.246342 0.230503 0.212589
0.246189 0.230320 0.212375
0.245518 0.229831 0.211948
0.244846 0.229160 0.211307
0.243992 0.228244 0.210422
0.243046 0.227237 0.209415
0.241703 0.226047 0.208316
0.240238 0.224735 0.207095
0.238682 0.223087 0.205509
0.243992 0.228244 0.210422
0.250614 0.234592 0.216434
0.258122 0.241703 0.223362
0.266300 0.249699 0.230961
0.275181 0.258274 0.239139
0.284855 0.267582 0.248081
0.297765 0.280003 0.260197
0.326390 0.307805 0.287358
0.359655 0.340520 0.319646
0.391577 0.372351 0.351446
0.423713 0.404608 0.383978
0.455665 0.436988 0.416968
0.487068 0.469001 0.449836
0.517418 0.500237 0.482155
0.547326 0.531212 0.514336
0.576959 0.562036 0.546471
0.593866 0.579675 0.564904
0.610163 0.596704 0.582757
0.627588 0.614984 0.601892
0.646113 0.634394 0.622248
0.665675 0.654932 0.643793
0.686305 0.676570 0.666499
0.272007 0.255131 0.236179
0.272099 0.255222 0.236149
0.280766 0.263615 0.244297
0.280369 0.263218 0.243931
0.279759 0.262547 0.243320
0.278721 0.261479 0.242313
0.277379 0.260258 0.241154
0.275883 0.258854 0.239689
0.274357 0.257237 0.238224
0.272496 0.255650 0.236637
0.273625 0.256657 0.237675
0.280217 0.262852 0.243687
0.287266 0.269780 0.250248
0.294957 0.277379 0.257633
0.303349 0.285374 0.265446
0.312291 0.294163 0.273930
0.321874 0.303380 0.283024
0.334752 0.316075 0.295506
0.363287 0.344091 0.323217
0.396155 0.376928 0.356054
0.427955 0.408789 0.388281
0.459571 0.440894 0.421027
0.490608 0.472602 0.453590
0.520714 0.503593 0.485634
0.550103 0.534081 0.517296
0.579278 0.564446 0.548974
0.608331 0.594812 0.580743
0.632898 0.620569 0.607752
0.649073 0.637476 0.625483
0.666377 0.655665 0.644556
0.684932 0.675135 0.665003
0.704555 0.695705 0.686610
0.301884 0.284001 0.264073
0.302708 0.284703 0.264805
0.303410 0.285435 0.265507
0.303960 0.285863 0.265904
0.303960 0.285863 0.265904
0.303075 0.285252 0.265263
0.301946 0.284062 0.264164
0.300389 0.282597 0.262699
0.298894 0.281010 0.261265
0.297063 0.279240 0.259434
0.294957 0.277379 0.257633
0.299840 0.281987 0.262150
0.306676 0.288548 0.268528
0.314000 0.295842 0.275608
0.322087 0.303716 0.283330
0.330877 0.312230 0.291661
0.340093 0.321386 0.300664
0.350103 0.331121 0.310307
0.363806 0.344671 0.323735
0.392248 0.373053 0.352148
0.425452 0.406348 0.385748
0.457496 0.438819 0.418860
0.488869 0.470863 0.451789
0.519219 0.502129 0.484138
0.548913 0.532860 0.516014
0.578332 0.563439 0.547936
0.607538 0.593988 0.579889
0.636622 0.624445 0.611780
0.665339 0.654566 0.643397
0.685206 0.675380 0.665278
0.702907 0.693965 0.684749
0.721584 0.713588 0.705318
0.328435 0.309850 0.289372
0.329503 0.310796 0.290349
0.330236 0.311589 0.291051
0.330877 0.312230 0.291661
0.330968 0.312383 0.291814
0.330358 0.311711 0.291173
0.329198 0.310613 0.290135
0.327825 0.309331 0.288853
0.326268 0.307683 0.287205
0.324498 0.305974 0.285588
0.322362 0.303990 0.283543
0.322362 0.303990 0.283543
0.328954 0.310369 0.289860
0.336126 0.317388 0.296818
0.343938 0.325048 0.304326
0.352300 0.333318 0.312505
0.361273 0.342260 0.321386
0.370794 0.351629 0.330694
0.381048 0.361730 0.340856
0.395056 0.375799 0.354955
0.423011 0.403876 0.383246
0.455879 0.437140 0.417151
0.487526 0.469490 0.450355
0.518242 0.501030 0.483009
0.548211 0.532128 0.515251
0.577783 0.562951 0.547387
0.607294 0.593744 0.579644
0.636561 0.624414 0.611749
0.665553 0.654780 0.643610
0.694209 0.684871 0.675227
0.720790 0.712764 0.704463
0.738491 0.731289 0.723873
0.357061 0.338079 0.317235
0.358007 0.338933 0.318090
0.358709 0.339696 0.318853
0.359319 0.340307 0.319463
0.359442 0.340429 0.319524
0.358892 0.339849 0.318975
0.358007 0.338933 0.318090
0.356573 0.337560 0.316747
0.355138 0.336034 0.315221
0.353307 0.334356 0.313512
0.351507 0.332464 0.311681
0.349248 0.330358 0.309545
0.353094 0.334142 0.313268
0.359930 0.340826 0.319951
0.367437 0.348363 0.327428
0.375738 0.356481 0.335607
0.384649 0.365393 0.344457
0.394263 0.374945 0.354040
0.404547 0.385321 0.364508
0.415717 0.396521 0.375830
0.430915 0.411780 0.391333
0.459083 0.440375 0.420478
0.491249 0.473304 0.454322
0.522789 0.505791 0.487892
0.553674 0.537804 0.521141
0.584070 0.569451 0.554223
0.614160 0.600885 0.587121
0.643854 0.632044 0.619806
0.673213 0.662837 0.652064
0.702052 0.693141 0.683894
0.730312 0.722713 0.714870
0.757534 0.751217 0.744686
0.393500 0.374243 0.353338
0.393866 0.374640 0.353765
0.394079 0.374853 0.353918
0.393866 0.374640 0.353765
0.393408 0.374151 0.353216
0.392676 0.373388 0.352453
0.391516 0.372168 0.351263
0.390173 0.370855 0.349981
0.388678 0.369390 0.348486
0.387060 0.367803 0.346899
0.385351 0.366125 0.345190
0.383307 0.364111 0.343175
0.382238 0.363012 0.342107
0.388800 0.369543 0.348669
0.396063 0.376715 0.355840
0.403693 0.384405 0.363592
0.411963 0.392767 0.371984
0.420966 0.401740 0.381140
0.430457 0.411383 0.390875
0.440681 0.421637 0.401373
0.451331 0.432532 0.412421
0.465919 0.447364 0.427649
0.492287 0.474372 0.455390
0.522484 0.505516 0.487617
0.553338 0.537438 0.520775
0.583917 0.569329 0.554070
0.614466 0.601251 0.587488
0.644556 0.632776 0.620539
0.674220 0.663905 0.653223
0.703334 0.694453 0.685267
0.731716 0.724208 0.716426
0.759060 0.752834 0.746365
0.424659 0.405493 0.384894
0.425025 0.405890 0.385321
0.425116 0.405982 0.385412
0.425086 0.405951 0.385321
0.424689 0.405524 0.384924
0.423957 0.404761 0.384161
0.422919 0.403693 0.383124
0.421759 0.402564 0.381964
0.420417 0.401251 0.380591
0.418982 0.399847 0.379187
0.417456 0.398230 0.377569
0.415656 0.396429 0.375738
0.413458 0.394263 0.373541
0.416358 0.397070 0.376379
0.423224 0.403998 0.383398
0.430701 0.411566 0.391119
0.438727 0.419684 0.399329
0.447242 0.428412 0.408209
0.456428 0.437690 0.417700
0.466102 0.447578 0.427832
0.476356 0.458015 0.438544
0.487037 0.468971 0.449805
0.501305 0.483650 0.465003
0.526421 0.509545 0.491829
0.552331 0.536400 0.519677
0.582605 0.567956 0.552636
0.613519 0.600305 0.586450
0.644007 0.632227 0.619959
0.674037 0.663691 0.653010
0.703517 0.694636 0.685481
0.732387 0.724880 0.717159
0.760067 0.753841 0.747463
0.460517 0.441901 0.422004
0.461067 0.442451 0.422583
0.461280 0.442603 0.422766
0.460883 0.442267 0.422370
0.460060 0.441413 0.421546
0.458930 0.440223 0.420325
0.457435 0.438727 0.418769
0.455818 0.437049 0.417060
0.453986 0.435218 0.415167
0.452155 0.433295 0.413275
0.450080 0.431220 0.411139
0.447944 0.429084 0.408881
0.445594 0.426703 0.406500
0.443214 0.424292 0.403967
0.449073 0.430243 0.410071
0.455604 0.436835 0.416846
0.462745 0.444129 0.424262
0.470588 0.452094 0.432532
0.479103 0.460853 0.441505
0.488411 0.470405 0.451270
0.498268 0.480476 0.461707
0.508354 0.490944 0.472541
0.518791 0.501579 0.483558
0.532494 0.515831 0.498329
0.556329 0.540581 0.524041
0.584375 0.569787 0.554559
0.614099 0.600824 0.587060
0.644465 0.632685 0.620447
0.674464 0.664149 0.653437
0.704067 0.695186 0.686030
0.732998 0.725490 0.717830
0.760983 0.754818 0.748470
0.490455 0.472450 0.453437
0.490974 0.472999 0.453956
0.491249 0.473304 0.454322
0.491066 0.473121 0.454139
0.490639 0.472633 0.453620
0.489937 0.471931 0.452888
0.489113 0.471138 0.452003
0.488045 0.470039 0.450935
0.486946 0.468879 0.449775
0.485664 0.467628 0.448402
0.484291 0.466102 0.446906
0.482643 0.464515 0.445197
0.480659 0.462470 0.443122
0.478370 0.460060 0.440650
0.479622 0.461372 0.442023
0.485634 0.467506 0.448341
0.492195 0.474281 0.455299
0.499367 0.481605 0.462867
0.507317 0.489784 0.471321
0.515862 0.498634 0.480476
0.525078 0.508141 0.490333
0.534783 0.518212 0.500755
0.544823 0.528618 0.511620
0.555047 0.539269 0.522698
0.568872 0.553582 0.537621
0.592370 0.578149 0.563317
0.619745 0.606806 0.593286
0.648646 0.637049 0.625055
0.678920 0.668818 0.658350
0.708644 0.699977 0.691066
0.737636 0.730404 0.722927
0.765652 0.759731 0.753597
0.523888 0.506889 0.489021
0.524163 0.507195 0.489387
0.524163 0.507195 0.489387
0.523919 0.506950 0.489143
0.523491 0.506493 0.488655
0.522698 0.505760 0.487861
0.521874 0.504906 0.486946
0.520928 0.503899 0.485939
0.519921 0.502800 0.484840
0.518700 0.501579 0.483528
0.517357 0.500175 0.482063
0.515862 0.498634 0.480476
0.514275 0.496986 0.478767
0.512169 0.494850 0.476570
0.509850 0.492439 0.474037
0.514580 0.497353 0.479133
0.520745 0.503624 0.485664
0.527428 0.510613 0.492866
0.534905 0.518334 0.500908
0.543053 0.526818 0.509728
0.551904 0.535943 0.519249
0.561151 0.545556 0.529259
0.570672 0.555474 0.539635
0.580529 0.565698 0.550317
0.590509 0.576196 0.561242
0.604059 0.590326 0.576043
0.626825 0.614191 0.601068
0.652827 0.641413 0.629633
0.680507 0.670466 0.660090
0.710597 0.702052 0.693233
0.739956 0.732815 0.725460
0.768246 0.762417 0.756405
0.556390 0.540642 0.524163
0.556695 0.540948 0.524437
0.556756 0.541039 0.524559
0.556695 0.540948 0.524437
0.556542 0.540795 0.524285
0.556329 0.540581 0.524041
0.556390 0.540642 0.524163
0.556451 0.540703 0.524224
0.556603 0.540856 0.524376
0.556756 0.541039 0.524559
0.556878 0.541161 0.524651
0.556725 0.540978 0.524468
0.556237 0.540490 0.523980
0.555383 0.539574 0.523003
0.553918 0.538079 0.521477
0.554650 0.538811 0.522179
0.560662 0.545068 0.528740
0.567193 0.551873 0.535882
0.574426 0.559380 0.543664
0.582300 0.567559 0.552270
0.590723 0.576410 0.561486
0.599634 0.585657 0.571191
0.608698 0.595178 0.581170
0.618006 0.604944 0.591394
0.627436 0.614832 0.601709
0.636957 0.624811 0.612207
0.650050 0.638514 0.626581
0.671656 0.661189 0.650385
0.695949 0.686702 0.677150
0.721828 0.713832 0.705592
0.750790 0.744167 0.737331
0.778470 0.773068 0.767514
0.598779 0.584802 0.570306
0.598810 0.584863 0.570336
0.598627 0.584710 0.570153
0.598383 0.584375 0.569818
0.597925 0.583978 0.569390
0.597467 0.583429 0.568841
0.596887 0.582879 0.568261
0.596277 0.582238 0.567559
0.595758 0.581659 0.566979
0.595087 0.580957 0.566247
0.594385 0.580224 0.565484
0.593591 0.579400 0.564599
0.592584 0.578363 0.563531
0.591333 0.577050 0.562127
