luts/旅拍胶片07.cube
# Created by Adobe Lightroom plugin Export LUT (1.24.0)
# www.johnrellis.com/lightroom/exportlut.htm
# Preset: 旅拍胶片-素材江湖07
# Color profile: E:\lut插件\exportlut.1.24\exportlut.lrplugin\color profiles\Rec709gamma2.4.icc
LUT_3D_SIZE 32
DOMAIN_MIN 0.0 0.0 0.0
DOMAIN_MAX 1.0 1.0 1.0
0.087770 0.102663 0.099489
0.089021 0.102907 0.099428
0.092348 0.102937 0.099733
0.098360 0.103395 0.100282
0.108217 0.104005 0.100740
0.118410 0.104402 0.101534
0.129915 0.105135 0.102205
0.143191 0.105653 0.102815
0.158114 0.106233 0.103670
0.176333 0.106050 0.103700
0.197879 0.105684 0.104524
0.223636 0.104524 0.104402
0.253666 0.101228 0.104372
0.288334 0.096345 0.103426
0.326970 0.088075 0.102296
0.368719 0.062379 0.100587
0.412696 0.024109 0.098726
0.458930 0.000000 0.095949
0.505974 0.000000 0.093111
0.553857 0.000000 0.088502
0.601129 0.000000 0.080903
0.647486 0.000000 0.068940
0.692103 0.000000 0.053590
0.736477 0.000000 0.034760
0.780301 0.000000 0.016327
0.826444 0.000000 0.000000
0.873655 0.000000 0.000000
0.916869 0.000000 0.000000
0.957855 0.000000 0.000000
0.996551 0.000000 0.000000
1.000000 0.000000 0.000000
1.000000 0.000000 0.000000
0.088167 0.102998 0.099794
0.088930 0.102907 0.099794
0.092103 0.103334 0.099702
0.098116 0.103761 0.100252
0.108583 0.104311 0.100679
0.118746 0.104707 0.101472
0.129702 0.105470 0.102510
0.142794 0.105715 0.102815
0.157809 0.106325 0.103304
0.175296 0.106600 0.104005
0.196536 0.106386 0.104494
0.221805 0.104738 0.104463
0.251469 0.102449 0.104341
0.285679 0.097719 0.103487
0.323735 0.090242 0.102388
0.364965 0.071412 0.100984
0.409094 0.033051 0.098848
0.454963 0.000000 0.096101
0.501884 0.000000 0.093172
0.549615 0.000000 0.089113
0.596643 0.000000 0.082521
0.642817 0.000000 0.070344
0.687282 0.000000 0.055116
0.731533 0.000000 0.037171
0.775509 0.000000 0.017517
0.821347 0.000000 0.000000
0.867857 0.000000 0.000000
0.910887 0.000000 0.000000
0.951812 0.000000 0.000000
0.990784 0.000000 0.000000
1.000000 0.000000 0.000000
1.000000 0.000000 0.000000
0.089479 0.104585 0.100649
0.090211 0.104524 0.100649
0.091707 0.104372 0.100618
0.098970 0.105013 0.100771
0.108736 0.105623 0.101198
0.118929 0.106020 0.101625
0.130556 0.106355 0.102358
0.143374 0.106966 0.102968
0.158297 0.107546 0.103456
0.175906 0.107485 0.103517
0.197299 0.107210 0.104005
0.222049 0.106355 0.104219
0.251774 0.103792 0.103792
0.285710 0.099611 0.103243
0.323857 0.092683 0.102083
0.364843 0.078309 0.100710
0.408545 0.041138 0.098939
0.454170 0.000000 0.096193
0.501244 0.000000 0.092805
0.548577 0.000000 0.088655
0.595789 0.000000 0.081453
0.641596 0.000000 0.068879
0.686091 0.000000 0.053498
0.730220 0.000000 0.036133
0.773739 0.000000 0.016297
0.819821 0.000000 0.000000
0.865568 0.000000 0.000000
0.908110 0.000000 0.000000
0.948882 0.000000 0.000000
0.987793 0.000000 0.000000
1.000000 0.000000 0.000000
1.000000 0.000000 0.000000
0.092073 0.108278 0.102937
0.092958 0.107851 0.103334
0.094148 0.108095 0.103304
0.099428 0.107912 0.102846
0.108675 0.108583 0.102937
0.120150 0.108461 0.103059
0.131594 0.109163 0.102998
0.144808 0.109316 0.103670
0.159945 0.109834 0.103792
0.177768 0.109987 0.104128
0.199222 0.109651 0.103914
0.224887 0.108797 0.103731
0.254398 0.106844 0.103182
0.287968 0.103151 0.102571
0.325719 0.097017 0.101350
0.366278 0.086915 0.099916
0.409613 0.057588 0.098024
0.454658 0.014527 0.095186
0.500816 0.000000 0.092164
0.547723 0.000000 0.088075
0.594507 0.000000 0.079774
0.640009 0.000000 0.066407
0.684627 0.000000 0.050599
0.728664 0.000000 0.033570
0.773037 0.000000 0.011658
0.820066 0.000000 0.000000
0.865568 0.000000 0.000000
0.908263 0.000000 0.000000
0.949065 0.000000 0.000000
0.987884 0.000000 0.000000
1.000000 0.000000 0.000000
1.000000 0.000000 0.000000
0.096773 0.112520 0.106722
0.097353 0.112459 0.107057
0.098695 0.112337 0.107027
0.101778 0.112337 0.106630
0.107515 0.112398 0.106203
0.118288 0.113039 0.106203
0.131746 0.112856 0.105562
0.145449 0.112947 0.105501
0.161471 0.113588 0.104891
0.180331 0.113497 0.104524
0.202029 0.113313 0.104280
0.227634 0.112703 0.103670
0.257664 0.111147 0.102663
0.291905 0.108125 0.101503
0.329503 0.103212 0.100526
0.370367 0.095613 0.098817
0.413611 0.080751 0.096651
0.458747 0.040894 0.093629
0.504875 0.000000 0.089876
0.551568 0.000000 0.083986
0.597925 0.000000 0.074678
0.643091 0.000000 0.059693
0.687373 0.000000 0.043854
0.731746 0.000000 0.024689
0.775937 0.000000 0.003571
0.823575 0.000000 0.000000
0.868070 0.000000 0.000000
0.910033 0.000000 0.000000
0.950164 0.000000 0.000000
0.988525 0.000000 0.000000
1.000000 0.000000 0.000000
1.000000 0.000000 0.000000
0.101106 0.117433 0.110201
0.101656 0.117372 0.110506
0.102266 0.117311 0.110506
0.104555 0.117403 0.110445
0.109529 0.117494 0.110018
0.116304 0.117372 0.109590
0.129610 0.118654 0.109102
0.145754 0.118471 0.107698
0.163180 0.118532 0.107118
0.182925 0.119081 0.106264
0.206302 0.119020 0.105196
0.234012 0.118807 0.103731
0.264897 0.117647 0.102174
0.300237 0.115694 0.100679
0.338598 0.112093 0.098604
0.379278 0.105959 0.096529
0.422827 0.096803 0.093965
0.467994 0.078462 0.090791
0.514153 0.032044 0.085725
0.560327 0.000000 0.078035
0.606226 0.000000 0.064027
0.650874 0.000000 0.048676
0.719020 0.000000 0.019623
0.761868 0.000000 0.001099
0.807675 0.000000 0.000000
0.856931 0.000000 0.000000
0.901396 0.000000 0.000000
0.942321 0.000000 0.000000
0.980682 0.000000 0.000000
1.000000 0.000000 0.000000
1.000000 0.000000 0.000000
1.000000 0.000000 0.000000
0.105409 0.124453 0.114076
0.105989 0.124392 0.114076
0.107088 0.124300 0.114382
0.109316 0.124361 0.114015
0.113649 0.124239 0.113649
0.119936 0.124392 0.113191
0.129122 0.124208 0.112398
0.146029 0.126558 0.111879
0.165988 0.127260 0.110201
0.190463 0.127047 0.108309
0.215793 0.127840 0.106966
0.245396 0.128298 0.105165
0.279606 0.128176 0.102419
0.318151 0.126925 0.099245
0.359716 0.124178 0.095094
0.401465 0.119356 0.091829
0.444465 0.112367 0.088930
0.489326 0.101595 0.083192
0.534722 0.084932 0.073457
0.581048 0.036561 0.058991
0.627222 0.000000 0.044343
0.672908 0.000000 0.027161
0.717983 0.000000 0.007324
0.762692 0.000000 0.000000
0.813352 0.000000 0.000000
0.860533 0.000000 0.000000
0.903349 0.000000 0.000000
0.942992 0.000000 0.000000
0.980255 0.000000 0.000000
1.000000 0.000000 0.000000
1.000000 0.000000 0.000000
1.000000 0.000000 0.000000
0.109957 0.132448 0.117556
0.110170 0.132174 0.117586
0.111849 0.132021 0.117586
0.113924 0.132113 0.117250
0.117586 0.132509 0.117098
0.123110 0.132692 0.116640
0.131838 0.132784 0.115846
0.143038 0.132937 0.115236
0.163394 0.136233 0.114076
0.187716 0.138277 0.111910
0.217350 0.138918 0.109499
0.250767 0.139437 0.106813
0.285161 0.140383 0.103822
0.323827 0.140749 0.099886
0.365789 0.139651 0.095338
0.410071 0.137179 0.089509
0.456123 0.132631 0.080476
0.501091 0.125551 0.067720
0.546105 0.115877 0.055879
0.591394 0.102449 0.040436
0.636652 0.079469 0.023865
0.681331 0.020844 0.004822
0.725460 0.000000 0.000000
0.773312 0.000000 0.000000
0.822354 0.000000 0.000000
0.866728 0.000000 0.000000
0.907713 0.000000 0.000000
0.945983 0.000000 0.000000
0.982147 0.000000 0.000000
1.000000 0.000000 0.000000
1.000000 0.000000 0.000000
1.000000 0.000000 0.000000
0.115450 0.142397 0.121279
0.115267 0.142641 0.121218
0.116426 0.142550 0.120943
0.119142 0.142763 0.120851
0.122652 0.143130 0.120424
0.128359 0.143252 0.119997
0.136049 0.143587 0.119173
0.146304 0.144015 0.118563
0.160861 0.144228 0.117830
0.185641 0.149264 0.116365
0.214878 0.153262 0.113130
0.250248 0.155581 0.109407
0.291630 0.155947 0.105348
0.332586 0.156802 0.100679
0.374609 0.157656 0.095125
0.418830 0.157015 0.088258
0.465187 0.155093 0.074128
0.512566 0.151461 0.051942
0.559838 0.145113 0.032593
0.606195 0.136049 0.012848
0.650141 0.125551 0.000000
0.693629 0.111696 0.000000
0.739223 0.094392 0.000000
0.787778 0.058167 0.000000
0.833402 0.005432 0.000000
0.875517 0.000000 0.000000
0.914611 0.000000 0.000000
0.951476 0.000000 0.000000
0.986481 0.000000 0.000000
1.000000 0.000000 0.000000
1.000000 0.034638 0.000000
1.000000 0.104646 0.000000
0.120546 0.156252 0.125032
0.121035 0.156222 0.125032
0.122164 0.156130 0.124483
0.124544 0.156527 0.124361
0.128481 0.156588 0.123995
0.134096 0.156893 0.123537
0.141817 0.157534 0.122957
0.152255 0.158053 0.121767
0.165530 0.158663 0.121004
0.182498 0.159396 0.119997
0.212711 0.166201 0.117952
0.247471 0.172152 0.113619
0.288151 0.176455 0.108186
0.334386 0.178042 0.101869
0.384527 0.177218 0.095033
0.429145 0.178592 0.086702
0.475990 0.178775 0.067445
0.523491 0.177554 0.042786
0.571374 0.174472 0.015900
0.618647 0.170047 0.000000
0.664576 0.163394 0.000000
0.711360 0.154696 0.000000
0.756710 0.146487 0.000000
0.801053 0.137087 0.000000
0.842832 0.128603 0.000000
0.882200 0.119478 0.000000
0.919463 0.114778 0.000000
0.955261 0.112398 0.000000
0.989380 0.116091 0.000000
1.000000 0.127291 0.000000
1.000000 0.143526 0.000000
1.000000 0.163882 0.000000
0.126192 0.173159 0.128481
0.126680 0.173129 0.128481
0.127443 0.173251 0.128420
0.130190 0.173556 0.128054
0.134463 0.173922 0.127626
0.140139 0.174624 0.127077
0.148409 0.175265 0.126497
0.159182 0.176120 0.125490
0.172274 0.177249 0.124331
0.189212 0.178256 0.122988
0.210178 0.179568 0.121614
0.245975 0.188602 0.118776
0.286778 0.196506 0.112551
0.332586 0.202335 0.104891
0.383429 0.205478 0.096010
0.437476 0.204990 0.084108
0.488808 0.204257 0.060121
0.536004 0.204746 0.031861
0.582788 0.203830 0.001801
0.630304 0.201694 0.000000
0.678981 0.199039 0.000000
0.726101 0.195071 0.000000
0.772030 0.190249 0.000000
0.815885 0.184695 0.000000
0.855741 0.179324 0.000000
0.893095 0.175662 0.000000
0.928771 0.173587 0.000000
0.963043 0.173739 0.000000
0.995850 0.177462 0.000000
1.000000 0.184695 0.000000
1.000000 0.195651 0.000000
1.000000 0.210697 0.000000
0.131899 0.195346 0.132357
0.131899 0.195346 0.132357
0.133516 0.195377 0.132052
0.136202 0.195926 0.131868
0.140841 0.196323 0.131441
0.147066 0.197147 0.130831
0.155703 0.198184 0.130129
0.166934 0.199344 0.129305
0.181155 0.200687 0.127749
0.198184 0.202365 0.126223
0.218967 0.204013 0.124117
0.244511 0.205966 0.122377
0.298436 0.225040 0.118074
0.346807 0.235416 0.108003
0.398993 0.242588 0.095644
0.454200 0.246281 0.077821
0.511070 0.245884 0.040894
0.571954 0.242466 0.001556
0.623133 0.244114 0.000000
0.672450 0.244358 0.000000
0.719814 0.243229 0.000000
0.765072 0.241367 0.000000
0.808499 0.239139 0.000000
0.849210 0.236637 0.000000
0.887480 0.234257 0.000000
0.923766 0.232120 0.000000
0.957092 0.231510 0.000000
0.987549 0.232578 0.000000
1.000000 0.235996 0.000000
1.000000 0.241794 0.000000
1.000000 0.250187 0.000000
1.000000 0.261906 0.000000
0.137362 0.227543 0.136873
0.137606 0.227634 0.136843
0.139132 0.227695 0.136812
0.142580 0.227726 0.136263
0.147707 0.228000 0.135836
0.154940 0.228580 0.135256
0.164523 0.229557 0.134005
0.177035 0.230686 0.132845
0.192081 0.232517 0.131319
0.210910 0.234501 0.129549
0.232883 0.237186 0.126955
0.259556 0.239811 0.124514
0.291417 0.243290 0.121370
0.341253 0.256718 0.116426
0.397101 0.270909 0.101869
0.455482 0.280491 0.081788
0.515282 0.286168 0.034455
0.575097 0.287388 0.000000
0.634363 0.283635 0.000000
0.686732 0.279973 0.000000
0.730739 0.279362 0.000000
0.773648 0.278355 0.000000
0.814633 0.276921 0.000000
0.853544 0.275486 0.000000
0.890532 0.273716 0.000000
0.925780 0.272526 0.000000
0.959167 0.272221 0.000000
0.990600 0.272648 0.000000
1.000000 0.275090 0.000000
1.000000 0.280705 0.000000
1.000000 0.288121 0.000000
1.000000 0.298528 0.000000
0.141451 0.259617 0.140719
0.141543 0.259495 0.140963
0.143374 0.259312 0.140536
0.147066 0.259525 0.140414
0.152834 0.259709 0.139528
0.160952 0.260227 0.138949
0.171389 0.261143 0.137667
0.184543 0.262394 0.136416
0.200473 0.264347 0.134737
0.219730 0.266819 0.132692
0.243320 0.270634 0.129976
0.271336 0.275456 0.126925
0.304082 0.280278 0.122866
0.342870 0.285771 0.118532
0.399756 0.301183 0.112032
0.457771 0.315282 0.092134
0.515892 0.323919 0.044923
0.573724 0.328069 0.000000
0.631342 0.328161 0.000000
0.687160 0.324285 0.000000
0.740780 0.316869 0.000000
0.783047 0.315557 0.000000
0.822110 0.314611 0.000000
0.859709 0.313695 0.000000
0.895476 0.313115 0.000000
0.929717 0.312474 0.000000
0.962249 0.312718 0.000000
0.992920 0.313481 0.000000
1.000000 0.315740 0.000000
1.000000 0.319646 0.000000
1.000000 0.326299 0.000000
1.000000 0.335607 0.000000
0.144930 0.298131 0.146059
0.145937 0.298161 0.146029
0.147555 0.298100 0.145571
0.152255 0.298222 0.145235
0.158602 0.298405 0.144564
0.167636 0.299016 0.143679
0.179385 0.300206 0.142275
0.193942 0.301884 0.140963
0.211093 0.304509 0.138888
0.232029 0.307683 0.136782
0.256443 0.311620 0.133486
0.285130 0.316655 0.130404
0.317937 0.321569 0.125643
0.354894 0.326787 0.119905
0.397711 0.331701 0.114595
0.456001 0.345708 0.107607
0.514244 0.358953 0.078401
0.570947 0.366278 0.008209
0.626856 0.369329 0.000000
0.681575 0.368750 0.000000
0.734524 0.364691 0.000000
0.786038 0.358160 0.000000
0.829953 0.352850 0.000000
0.866087 0.352178 0.000000
0.900694 0.351812 0.000000
0.933989 0.352056 0.000000
0.965759 0.352667 0.000000
0.995941 0.354345 0.000000
1.000000 0.357153 0.000000
1.000000 0.361761 0.000000
1.000000 0.367651 0.000000
1.000000 0.375463 0.000000
0.150118 0.341924 0.152590
0.150546 0.341894 0.152377
0.153780 0.341985 0.152285
0.157870 0.342290 0.151675
0.165560 0.342565 0.150759
0.175692 0.343450 0.149935
0.188632 0.344884 0.148562
0.204349 0.346929 0.146975
0.223148 0.349615 0.145144
0.244785 0.352819 0.142123
0.269902 0.356664 0.139071
0.298497 0.360662 0.135439
0.330449 0.364935 0.130495
0.366033 0.368994 0.124453
0.405524 0.372625 0.117372
0.449439 0.376104 0.110323
0.507622 0.388281 0.105745
0.565179 0.400397 0.058900
0.620081 0.406592 0.000000
0.673854 0.409094 0.000000
0.726894 0.408972 0.000000
0.778378 0.405768 0.000000
0.826871 0.400031 0.000000
0.872923 0.391943 0.000000
0.907103 0.392035 0.000000
0.939696 0.392828 0.000000
0.970672 0.394293 0.000000
1.000000 0.396429 0.000000
1.000000 0.399298 0.000000
1.000000 0.403632 0.000000
1.000000 0.409339 0.000000
1.000000 0.416541 0.000000
0.156985 0.385290 0.160616
0.157809 0.385199 0.160647
0.160250 0.385290 0.160189
0.165255 0.385565 0.159762
0.173159 0.386175 0.159121
0.184451 0.386877 0.157961
0.197818 0.388190 0.156802
0.214420 0.390143 0.154757
0.233921 0.392523 0.152712
0.255741 0.395514 0.150118
0.281163 0.398901 0.147158
0.309361 0.402777 0.143069
0.340978 0.406744 0.138003
0.375555 0.410742 0.132357
0.413489 0.414313 0.125063
0.454902 0.417395 0.116121
0.500008 0.420172 0.109010
0.557733 0.430549 0.107210
0.614160 0.442054 0.056550
0.667384 0.447517 0.000000
0.719753 0.450355 0.000000
0.770779 0.450599 0.000000
0.818845 0.448005 0.000000
0.864897 0.443183 0.000000
0.908690 0.436713 0.000000
0.944854 0.434180 0.000000
0.974914 0.436072 0.000000
1.000000 0.438483 0.000000
1.000000 0.441932 0.000000
1.000000 0.446448 0.000000
1.000000 0.452033 0.000000
1.000000 0.458930 0.000000
0.168643 0.430121 0.171572
0.169406 0.430396 0.171969
0.177981 0.446815 0.176547
0.183139 0.447211 0.175723
0.191928 0.447578 0.175357
0.203250 0.448219 0.174105
0.217868 0.449287 0.172335
0.235142 0.450629 0.170596
0.255070 0.452766 0.168276
0.278630 0.455543 0.165499
0.304479 0.458656 0.162417
0.332982 0.462013 0.158785
0.363989 0.465156 0.153597
0.398291 0.468086 0.147768
0.434730 0.470832 0.140688
0.474556 0.473030 0.131960
0.517082 0.474617 0.120729
0.562707 0.475715 0.113619
0.618128 0.483162 0.119020
0.671534 0.492805 0.082216
0.722194 0.497658 0.000000
0.771267 0.499672 0.000000
0.817990 0.499214 0.000000
0.862608 0.496590 0.000000
0.904906 0.492164 0.000000
0.944640 0.486244 0.000000
0.980682 0.480201 0.000000
1.000000 0.482124 0.000000
1.000000 0.485206 0.000000
1.000000 0.489448 0.000000
1.000000 0.494850 0.000000
1.000000 0.501457 0.000000
0.187198 0.479561 0.188235
0.188724 0.481086 0.188785
0.191928 0.482979 0.189151
0.197421 0.484779 0.189029
0.206485 0.486336 0.188785
0.217929 0.487343 0.188022
0.231724 0.488411 0.186648
0.248539 0.489631 0.184909
0.267582 0.491432 0.182742
0.289891 0.493812 0.180484
0.314794 0.496437 0.177493
0.342351 0.499397 0.173648
0.372107 0.502403 0.169833
0.404273 0.505303 0.164553
0.439307 0.508049 0.157992
0.477058 0.510521 0.150607
0.517540 0.512749 0.141238
0.560967 0.514641 0.130373
0.607477 0.516136 0.125032
0.661585 0.522972 0.136110
0.713344 0.532738 0.107118
0.762020 0.537865 0.050538
0.808408 0.540154 0.000000
0.852750 0.540215 0.000000
0.894743 0.538598 0.000000
0.934417 0.535119 0.000000
0.971435 0.530510 0.000000
1.000000 0.524987 0.000000
1.000000 0.526146 0.000000
1.000000 0.530358 0.000000
1.000000 0.535637 0.000000
1.000000 0.541955 0.000000
0.207218 0.520317 0.205386
0.208682 0.522026 0.205844
0.212497 0.523827 0.206760
0.218173 0.525841 0.206973
0.226658 0.527367 0.206668
0.237186 0.528496 0.206119
0.250034 0.529595 0.204715
0.265965 0.530724 0.203311
0.284276 0.532128 0.201053
0.305455 0.533989 0.198764
0.328832 0.536431 0.196414
0.355138 0.539239 0.193271
0.383734 0.541894 0.189731
0.414405 0.544762 0.185397
0.447944 0.547539 0.180209
0.483803 0.550195 0.173587
0.522240 0.552544 0.166781
0.563226 0.554711 0.157595
0.607202 0.556817 0.147616
0.653040 0.558251 0.143984
0.704829 0.564111 0.159365
0.753140 0.572595 0.138094
0.799039 0.577783 0.114229
0.843015 0.580591 0.085359
0.884733 0.581353 0.012604
0.923980 0.580377 0.000000
0.960632 0.578180 0.000000
0.994995 0.574884 0.000000
1.000000 0.571374 0.000000
1.000000 0.570977 0.000000
1.000000 0.576226 0.000000
1.000000 0.582086 0.000000
0.232364 0.562066 0.226505
0.234134 0.563622 0.227359
0.237491 0.565209 0.228031
0.242954 0.566979 0.228458
0.250370 0.568353 0.228550
0.260227 0.569390 0.227695
0.272190 0.570459 0.226658
0.287297 0.571466 0.225284
0.304723 0.572900 0.223819
0.324254 0.574456 0.221683
0.346563 0.576684 0.219394
0.371313 0.579126 0.217136
0.398352 0.581689 0.213901
0.427771 0.584405 0.210452
0.459449 0.587121 0.206180
0.493751 0.589899 0.201358
0.530602 0.592859 0.195682
0.569940 0.596002 0.189395
0.612238 0.599145 0.182254
0.656794 0.602594 0.174258
0.702663 0.604944 0.174228
0.751583 0.610101 0.194644
0.796719 0.617975 0.180179
0.840452 0.624109 0.165621
0.881712 0.628046 0.152132
0.920378 0.629908 0.138521
0.956359 0.630243 0.124666
0.989807 0.629633 0.114412
1.000000 0.628382 0.106111
1.000000 0.626337 0.101930
1.000000 0.625177 0.106264
1.000000 0.630426 0.118105
0.271855 0.613031 0.257908
0.273167 0.613642 0.258579
0.275334 0.614221 0.258579
0.279484 0.614771 0.258427
0.285588 0.615290 0.257755
0.293889 0.615595 0.257023
0.304479 0.616083 0.256077
0.317754 0.616968 0.254917
0.333440 0.618097 0.253269
0.351843 0.619806 0.252079
0.372930 0.621851 0.250034
0.396185 0.623957 0.247715
0.421759 0.626215 0.245792
0.449317 0.628687 0.242832
0.479164 0.631006 0.239506
0.511223 0.633326 0.235874
0.545159 0.635828 0.231296
0.581872 0.638300 0.226444
0.620417 0.640864 0.221103
0.661158 0.643427 0.215213
0.703792 0.646021 0.208865
0.746334 0.647242 0.210849
0.790829 0.650721 0.231418
0.831662 0.656886 0.220706
0.871702 0.662593 0.210178
0.909697 0.666529 0.201389
0.945251 0.669154 0.194705
0.978210 0.670588 0.189090
1.000000 0.671351 0.186709
1.000000 0.671260 0.185824
1.000000 0.670497 0.189761
1.000000 0.668727 0.195926
0.308873 0.652705 0.287816
0.309575 0.653223 0.288243
0.311803 0.653803 0.288640
0.315709 0.654261 0.288334
0.321172 0.654688 0.288304
0.328496 0.655055 0.287633
0.337774 0.655604 0.286595
0.349828 0.656367 0.285679
0.364019 0.657496 0.284642
0.380926 0.658808 0.283330
0.400122 0.660456 0.281926
0.421393 0.662379 0.280339
0.444892 0.664454 0.278569
0.470710 0.666651 0.276616
0.498421 0.668849 0.274327
0.528252 0.671229 0.271763
0.560113 0.673671 0.268772
0.593896 0.676173 0.265568
0.629694 0.678645 0.261387
0.667323 0.681331 0.257359
0.706752 0.684108 0.253269
0.747707 0.686763 0.248692
0.787808 0.687922 0.252140
0.828458 0.691096 0.273503
0.861723 0.692073 0.261204
0.898344 0.697414 0.253941
0.933379 0.701930 0.249027
0.965789 0.705379 0.245670
0.995514 0.707820 0.244999
1.000000 0.709438 0.246372
1.000000 0.710445 0.250889
1.000000 0.710384 0.257511
0.357366 0.695308 0.326299
0.358465 0.696040 0.326970
0.360754 0.696437 0.327398
0.363226 0.696529 0.326879
0.367193 0.696345 0.326238
0.372839 0.696101 0.325078
0.380133 0.695766 0.323735
0.389624 0.695674 0.322118
0.401434 0.695827 0.320684
0.415290 0.696376 0.318853
0.431495 0.697108 0.317327
0.450355 0.698177 0.315740
0.470832 0.699458 0.313848
0.493538 0.700832 0.311864
0.518059 0.702144 0.309392
0.544579 0.703792 0.306889
0.573144 0.705470 0.303929
0.603815 0.707485 0.301518
0.636652 0.709865 0.298680
0.671595 0.712612 0.296147
0.708186 0.715480 0.293187
0.745876 0.718379 0.290501
0.784360 0.720912 0.286748
0.821317 0.721675 0.291295
0.857664 0.723720 0.312047
0.890562 0.727443 0.305882
0.923247 0.732082 0.300938
0.954650 0.736568 0.298802
0.983581 0.740108 0.298253
1.000000 0.743008 0.300786
1.000000 0.745022 0.305150
1.000000 0.746273 0.312657
0.397375 0.729610 0.357488
0.398688 0.730282 0.358251
0.400855 0.730465 0.359319
0.404059 0.730098 0.360357
0.408667 0.729549 0.361364
0.413886 0.729763 0.360998
0.420874 0.730098 0.360021
0.429755 0.730587 0.359319
0.441138 0.731319 0.358892
0.453803 0.732265 0.358068
0.468818 0.733333 0.357122
0.485756 0.734585 0.356115
0.504204 0.735927 0.354894
0.524712 0.737209 0.353307
0.546929 0.738460 0.351598
0.570520 0.739773 0.349279
0.596338 0.741238 0.347478
0.623896 0.742977 0.345220
0.653559 0.745052 0.343481
0.685054 0.747433 0.341741
0.718166 0.750027 0.340154
0.752499 0.752651 0.338506
0.787533 0.755276 0.336584
0.823270 0.757656 0.334142
0.856718 0.758267 0.339483
0.889097 0.759884 0.360388
0.918273 0.763027 0.356970
0.946990 0.767208 0.353765
0.974578 0.772000 0.354955
0.999390 0.775784 0.358312
1.000000 0.778683 0.363958
1.000000 0.780606 0.371679
0.445319 0.766171 0.395178
0.446296 0.766445 0.395819
0.447822 0.766354 0.396490
0.450599 0.765988 0.397436
0.454444 0.765255 0.398535
0.459785 0.764187 0.400488
0.466072 0.763973 0.400702
0.473671 0.764248 0.399756
0.483009 0.764767 0.399176
0.494270 0.765530 0.398627
0.507347 0.766384 0.397894
0.522057 0.767483 0.397192
0.538689 0.768643 0.396338
0.556725 0.769741 0.395300
0.576349 0.770840 0.393774
0.597467 0.771969 0.392340
0.620325 0.773190 0.390692
0.645014 0.774655 0.389136
0.671656 0.776486 0.388006
0.700008 0.778500 0.386938
0.729824 0.780850 0.386542
0.760678 0.783169 0.385351
0.792264 0.785397 0.384741
0.824430 0.787533 0.383398
0.856809 0.789517 0.381659
0.886564 0.789731 0.387640
0.914733 0.790677 0.407904
0.940063 0.792966 0.405859
0.964782 0.796262 0.404089
0.988739 0.800961 0.408026
1.000000 0.804623 0.414374
1.000000 0.807401 0.423255
0.491920 0.798520 0.433417
0.492561 0.798703 0.433845
0.493935 0.798734 0.434485
0.496803 0.798489 0.435615
0.500481 0.798032 0.436988
0.505943 0.797574 0.439338
0.513542 0.797116 0.442664
0.522332 0.797330 0.445350
0.532403 0.798795 0.446601
0.543938 0.800534 0.447639
0.557153 0.802426 0.449042
0.571801 0.804349 0.450172
0.587640 0.806180 0.451026
0.604639 0.807889 0.451545
0.622644 0.809354 0.451728
0.641382 0.810605 0.451148
0.661433 0.811765 0.450507
0.683009 0.812985 0.449744
0.706233 0.814511 0.449348
0.730953 0.816159 0.449256
0.756832 0.818021 0.449073
0.783749 0.819821 0.449287
0.811154 0.821530 0.449317
0.838987 0.823178 0.448920
0.867033 0.824674 0.448280
0.894957 0.826139 0.447852
0.919982 0.826047 0.454383
0.942565 0.826230 0.473640
0.963073 0.827420 0.472786
0.982818 0.829374 0.471778
1.000000 0.833158 0.478676
1.000000 0.836027 0.487648
0.554467 0.834958 0.485817
0.554772 0.834958 0.486061
0.555749 0.834745 0.486397
0.557244 0.834379 0.486854
0.560113 0.833829 0.487984
0.564111 0.833127 0.489540
0.569726 0.832212 0.491768
0.576593 0.831205 0.494820
0.584894 0.830350 0.498054
0.593561 0.831052 0.498177
0.603479 0.831907 0.498268
0.614954 0.832822 0.498665
0.627741 0.833799 0.498817
0.641718 0.834806 0.498878
