luts/旅拍胶片02.cube
# Created by Adobe Lightroom plugin Export LUT (1.24.0)
# www.johnrellis.com/lightroom/exportlut.htm
# Preset: 旅拍胶片-素材江湖02
# Color profile: E:\lut插件\exportlut.1.24\exportlut.lrplugin\color profiles\Rec709gamma2.4.icc
LUT_3D_SIZE 8
DOMAIN_MIN 0.000000 0.000000 0.000000
DOMAIN_MAX 0.903226 0.903226 0.903226
0.000000 0.000000 0.000000
0.025238 0.003876 0.000122
0.151675 0.048219 0.000000
0.354467 0.000000 0.003449
0.623713 0.000000 0.000000
0.834440 0.000000 0.000000
0.956847 0.104341 0.000000
1.000000 0.292699 0.090700
0.002869 0.020844 0.002747
0.026551 0.030488 0.002106
0.144961 0.082795 0.001465
0.336706 0.045716 0.008881
0.603723 0.000000 0.000000
0.813474 0.000000 0.000000
0.941924 0.139071 0.000000
1.000000 0.299748 0.078065
0.035645 0.117891 0.059266
0.067048 0.118624 0.066163
0.118746 0.128542 0.058137
0.313115 0.166812 0.028565
0.600458 0.170230 0.000000
0.804990 0.204929 0.000000
0.940063 0.288182 0.000000
1.000000 0.383032 0.122713
0.000000 0.245945 0.098665
0.079652 0.246067 0.100618
0.170169 0.253056 0.102144
0.273747 0.273167 0.076417
0.547417 0.338811 0.000000
0.791470 0.385687 0.000000
0.922271 0.427558 0.000000
1.000000 0.484779 0.167910
0.124208 0.435157 0.130678
0.167117 0.434791 0.133944
0.275761 0.436103 0.147127
0.375860 0.445594 0.130220
0.480323 0.446021 0.079255
0.684413 0.492805 0.002502
0.871641 0.547601 0.119570
0.987488 0.592737 0.226383
0.324529 0.604883 0.224979
0.347601 0.608759 0.231540
0.413031 0.608087 0.243046
0.501610 0.608240 0.256260
0.574426 0.611902 0.224460
0.656641 0.608789 0.187076
0.800839 0.644617 0.216892
0.940154 0.697414 0.315007
0.503990 0.750576 0.378393
0.514305 0.751125 0.381476
0.549859 0.749874 0.389349
0.610651 0.748928 0.406958
0.666194 0.749264 0.401465
0.726528 0.753353 0.376074
0.790738 0.751156 0.350134
0.887327 0.771450 0.393225
0.658412 0.862486 0.565942
0.663294 0.862303 0.567498
0.683955 0.862089 0.575189
0.721462 0.862181 0.591272
0.761624 0.857115 0.598108
0.801083 0.861814 0.589837
0.850309 0.867735 0.580896
0.898558 0.867765 0.570001
0.000000 0.000916 0.029328
0.019379 0.000000 0.033600
0.134615 0.022736 0.048249
0.302159 0.004456 0.079469
0.575586 0.000000 0.070314
0.795407 0.000000 0.038361
0.930480 0.103243 0.053407
1.000000 0.286870 0.133577
0.000000 0.028626 0.035920
0.018555 0.036683 0.045441
0.127230 0.076143 0.067567
0.300206 0.065644 0.081636
0.570153 0.000000 0.069093
0.788113 0.000000 0.034180
0.923003 0.147768 0.048066
1.000000 0.297887 0.129976
0.020874 0.118532 0.090974
0.050843 0.119875 0.093446
0.114076 0.127901 0.091707
0.298314 0.162448 0.087953
0.567315 0.168124 0.056977
0.778164 0.199893 0.016938
0.916838 0.276371 0.062898
1.000000 0.373602 0.151064
0.000000 0.239536 0.116732
0.054078 0.240055 0.118471
0.165133 0.246677 0.123293
0.255894 0.260075 0.106355
0.514275 0.319280 0.054688
0.762081 0.365454 0.000000
0.900328 0.410224 0.093904
0.999451 0.472297 0.182437
0.107210 0.429480 0.153292
0.153597 0.428443 0.155734
0.263310 0.428168 0.165866
0.362982 0.433967 0.154513
0.462959 0.432990 0.117281
0.670039 0.481758 0.098604
0.861509 0.539055 0.149783
0.979644 0.586114 0.239261
0.311467 0.597253 0.237308
0.330541 0.597345 0.239963
0.397589 0.597131 0.251011
0.491646 0.598566 0.267277
0.565026 0.603662 0.238621
0.649042 0.602991 0.205173
0.795132 0.640040 0.232120
0.935668 0.693355 0.323491
0.493263 0.744137 0.380438
0.501244 0.743008 0.380835
0.537469 0.741665 0.388159
0.600214 0.741512 0.406073
0.659785 0.743709 0.405798
0.719936 0.747860 0.380346
0.783505 0.744533 0.351568
0.881621 0.765316 0.391394
0.650477 0.859068 0.562982
0.656580 0.859495 0.566217
0.677394 0.859190 0.573358
0.715572 0.859373 0.589471
0.764370 0.859556 0.611566
0.801205 0.862577 0.598932
0.848631 0.867063 0.585687
0.896941 0.867033 0.573877
0.000000 0.000702 0.148775
0.007355 0.000000 0.145602
0.110536 0.019867 0.136904
0.268894 0.000000 0.154421
0.539178 0.000000 0.156893
0.767819 0.000000 0.189456
0.912627 0.204288 0.217502
1.000000 0.342962 0.263432
0.000000 0.062867 0.144808
0.000000 0.059663 0.142061
0.107546 0.065736 0.137087
0.266209 0.033661 0.152102
0.531243 0.000000 0.168002
0.758602 0.013672 0.189731
0.905852 0.222782 0.214908
1.000000 0.350896 0.260410
0.000000 0.131899 0.141238
0.000000 0.133303 0.142519
0.110506 0.144015 0.153201
0.276646 0.163790 0.161807
0.536431 0.183841 0.177646
0.754696 0.230625 0.194583
0.899840 0.312566 0.222324
1.000000 0.408179 0.271611
0.000000 0.246006 0.145693
0.000000 0.249577 0.153445
0.149142 0.259892 0.185550
0.256535 0.271153 0.178103
0.522484 0.330999 0.185000
0.744656 0.377935 0.204593
0.887755 0.431830 0.239689
0.988891 0.498238 0.295750
0.000000 0.433478 0.223850
0.096925 0.433722 0.227207
0.243046 0.435004 0.235599
0.365637 0.440223 0.240726
0.463844 0.441382 0.210880
0.671717 0.492378 0.220066
0.858061 0.550713 0.266880
0.969116 0.600885 0.334752
0.294591 0.597986 0.301762
0.315129 0.598352 0.304295
0.384283 0.598169 0.312657
0.483711 0.598352 0.329503
0.559136 0.602441 0.310857
0.641199 0.602289 0.280186
0.790951 0.644465 0.309758
0.931121 0.701381 0.393683
0.487465 0.746761 0.428595
0.495796 0.745876 0.429084
0.531151 0.743954 0.434363
0.592767 0.743008 0.448280
0.657954 0.744167 0.455299
0.716091 0.748806 0.431250
0.780362 0.747768 0.405432
0.881285 0.772396 0.445869
0.644282 0.859892 0.589288
0.648829 0.859464 0.589990
0.669734 0.859068 0.596124
0.709682 0.860044 0.612757
0.759060 0.860227 0.633173
0.799069 0.863523 0.628138
0.845823 0.868315 0.615137
0.894041 0.868589 0.602258
0.000000 0.013306 0.327062
0.000000 0.020508 0.321080
0.000000 0.032288 0.292180
0.224857 0.000702 0.265782
0.470680 0.000000 0.292760
0.728542 0.000000 0.298802
0.885924 0.155886 0.323217
0.983917 0.386542 0.392615
0.000000 0.084901 0.318303
0.000000 0.086366 0.312566
0.000000 0.085237 0.290013
0.228214 0.052522 0.266911
0.472999 0.000000 0.295232
0.727138 0.000000 0.299229
0.879606 0.227878 0.334600
0.981689 0.398718 0.394598
0.000000 0.170993 0.314153
0.000000 0.171695 0.312718
0.013733 0.166659 0.292454
0.236210 0.154086 0.270665
0.486366 0.155001 0.298161
0.725948 0.194186 0.308782
0.873198 0.356115 0.366522
0.978363 0.456977 0.412818
0.000000 0.286564 0.285649
0.000000 0.287053 0.285527
0.000000 0.291325 0.288396
0.262608 0.305486 0.302403
0.500053 0.335851 0.314153
0.704097 0.385870 0.340520
0.856748 0.452705 0.377111
0.965698 0.528130 0.425696
0.000000 0.437812 0.270909
0.000000 0.439033 0.274662
0.000000 0.447578 0.293126
0.353796 0.457954 0.349920
0.464515 0.459388 0.333349
0.677058 0.514549 0.359777
0.844388 0.570611 0.406073
0.950622 0.622583 0.456336
0.000000 0.608453 0.348150
0.177615 0.611658 0.361608
0.349859 0.610864 0.401404
0.468086 0.611414 0.421881
0.560967 0.613642 0.424079
0.634882 0.611231 0.391119
0.788479 0.658961 0.424170
0.924559 0.716060 0.497414
0.462348 0.750454 0.496559
0.475288 0.750637 0.500511
0.515068 0.750454 0.506676
0.580468 0.750668 0.519341
0.657404 0.751217 0.538018
0.711391 0.754116 0.515190
0.772976 0.752102 0.485451
0.878202 0.781582 0.526055
0.632410 0.863981 0.636591
0.637629 0.863828 0.637720
0.659113 0.863340 0.642756
0.698268 0.863035 0.653956
0.748898 0.862913 0.670741
0.794827 0.865080 0.675807
0.839841 0.869902 0.662074
0.888853 0.871336 0.649012
0.000000 0.049653 0.553246
0.000000 0.052247 0.548180
0.000000 0.049622 0.521996
0.190372 0.000000 0.476661
0.424506 0.000000 0.443366
0.665064 0.000000 0.459419
0.847227 0.000000 0.468299
0.973358 0.305638 0.487312
0.000000 0.103395 0.545953
0.000000 0.104280 0.542138
0.000000 0.103700 0.519005
0.202182 0.072145 0.475013
0.427100 0.000000 0.443275
0.664088 0.000000 0.459785
0.845548 0.109071 0.469368
0.971069 0.328313 0.489387
0.000000 0.211582 0.537469
0.000000 0.211368 0.531975
0.000000 0.206363 0.510155
0.235813 0.189059 0.473182
0.431525 0.157839 0.440131
0.653101 0.171847 0.456336
0.836484 0.265995 0.470924
0.961059 0.399939 0.494636
0.000000 0.360540 0.519554
0.000000 0.361639 0.518242
0.000000 0.365942 0.514916
0.277897 0.349340 0.485878
0.445472 0.315740 0.449012
0.653864 0.351965 0.465949
0.828916 0.420508 0.482643
0.935027 0.549157 0.545647
0.000000 0.492805 0.471534
0.000000 0.492622 0.471473
0.000000 0.490791 0.469795
0.249241 0.488289 0.468910
0.463478 0.488899 0.473732
0.652552 0.519280 0.487129
0.809506 0.570886 0.519005
0.925658 0.631128 0.562280
0.000000 0.595514 0.418891
0.000000 0.596399 0.421729
0.000000 0.598199 0.432502
0.328344 0.605097 0.456825
0.530083 0.612909 0.513817
0.617792 0.616419 0.499153
0.785306 0.673365 0.540703
0.913542 0.726528 0.600122
0.169833 0.753536 0.482216
0.208347 0.753017 0.484260
0.337774 0.751888 0.503807
0.512169 0.751522 0.564813
0.624170 0.752743 0.599115
0.697505 0.754818 0.600397
0.757198 0.752255 0.567590
0.872190 0.787839 0.607965
0.525292 0.866117 0.623804
0.540093 0.865537 0.630640
0.594629 0.863615 0.658137
0.665827 0.863767 0.692958
0.724300 0.863798 0.707698
0.785672 0.864866 0.727474
0.828153 0.869108 0.711757
0.877775 0.870390 0.694545
0.000000 0.094270 0.738949
0.000000 0.096071 0.735897
0.000000 0.096620 0.719478
0.000000 0.049622 0.689113
0.418189 0.000000 0.645563
0.623285 0.000000 0.615656
0.806119 0.000000 0.620172
0.936950 0.303166 0.638361
0.000000 0.130953 0.729549
0.000000 0.131991 0.725948
0.000000 0.132631 0.711116
0.000000 0.116915 0.682246
0.418280 0.000000 0.638819
0.618158 0.000000 0.609674
0.800534 0.083619 0.615961
0.933135 0.318486 0.635706
0.000000 0.255528 0.722621
0.000000 0.256138 0.719020
0.000000 0.254032 0.706233
0.209110 0.242924 0.679622
0.440070 0.212009 0.637568
0.619593 0.184451 0.607935
0.794430 0.258824 0.617945
0.927031 0.395056 0.640497
0.000000 0.426154 0.726192
0.000000 0.426764 0.722408
0.000000 0.429480 0.708339
0.317388 0.420600 0.685451
0.476783 0.386145 0.647822
0.624598 0.358709 0.614191
0.786831 0.414893 0.628748
0.919402 0.507012 0.653590
0.000000 0.560357 0.688777
0.000000 0.561028 0.687984
0.000000 0.563439 0.685481
0.357885 0.568017 0.682612
0.498817 0.544549 0.653895
0.613336 0.501152 0.612726
0.774289 0.541863 0.631952
0.909483 0.610101 0.657801
0.000000 0.665705 0.642969
0.000000 0.666407 0.643946
0.000000 0.663600 0.642054
0.271794 0.658839 0.639246
0.468116 0.652399 0.635767
0.616693 0.649287 0.636591
0.774685 0.685298 0.659602
0.893858 0.732113 0.696193
0.000000 0.754910 0.593317
0.000000 0.755459 0.594965
0.100893 0.755367 0.599298
0.362432 0.757504 0.613672
0.523705 0.762264 0.638575
0.679011 0.766476 0.691951
0.744991 0.763485 0.670802
0.873228 0.806699 0.715816
0.321569 0.872190 0.640681
0.339300 0.871733 0.641993
0.406806 0.871061 0.650599
0.508202 0.871214 0.670649
0.658595 0.868193 0.731502
0.758022 0.867887 0.769497
0.816373 0.870970 0.774319
0.865537 0.872068 0.754238
0.000000 0.135927 0.861631
0.000000 0.138369 0.860655
0.000000 0.142641 0.853788
0.000000 0.140139 0.840330
0.413825 0.116091 0.817441
0.606531 0.000000 0.781979
0.771420 0.032349 0.762875
0.903777 0.269078 0.757168
0.000000 0.171084 0.857420
0.000000 0.173190 0.856626
0.000000 0.177005 0.850034
0.000000 0.176852 0.836271
0.418555 0.160739 0.813107
0.603784 0.103761 0.777035
0.765835 0.122408 0.757015
0.898253 0.280797 0.751827
0.000000 0.301213 0.854032
0.000000 0.301762 0.852567
0.000000 0.302678 0.845884
0.194247 0.300908 0.832700
0.451484 0.288487 0.810147
0.612512 0.256992 0.775937
0.764828 0.266728 0.757229
0.894560 0.369299 0.756710
0.000000 0.465400 0.851499
0.000000 0.467414 0.849424
0.000000 0.476143 0.841703
0.344732 0.472328 0.829526
0.496132 0.452461 0.809262
0.625177 0.417151 0.778073
0.759915 0.410498 0.757961
0.885191 0.480354 0.762081
0.000000 0.607630 0.842954
0.000000 0.608759 0.842100
0.247654 0.615808 0.840330
0.412909 0.616632 0.830167
0.531395 0.602350 0.809964
0.629328 0.561089 0.780087
0.746548 0.533593 0.754574
0.873686 0.591089 0.768673
0.000000 0.716091 0.818082
0.000000 0.716579 0.818021
0.162875 0.718318 0.817746
0.395056 0.721523 0.817533
0.552087 0.726131 0.817624
0.649531 0.706752 0.798703
0.738125 0.663294 0.763607
0.865263 0.704494 0.781552
0.000000 0.808286 0.793240
0.000000 0.808316 0.793515
0.000000 0.806729 0.793027
0.322820 0.804013 0.792355
0.494667 0.799496 0.790707
0.627283 0.793545 0.787930
0.736355 0.784421 0.781949
0.865293 0.815702 0.805570
0.000000 0.874846 0.747616
0.000000 0.874754 0.748318
0.234928 0.874784 0.752132
0.397009 0.873442 0.756497
0.543969 0.872953 0.769131
0.674434 0.874846 0.791409
0.800381 0.876921 0.833402
0.853513 0.876890 0.821134
0.000000 0.192996 0.939757
0.000000 0.196170 0.939330
0.000000 0.204807 0.936278
0.000000 0.220340 0.930938
0.432136 0.237858 0.922026
0.620050 0.252049 0.908659
0.760830 0.250156 0.890257
0.890898 0.325933 0.881376
0.000000 0.225498 0.938140
0.000000 0.228183 0.937682
0.000000 0.236851 0.934905
0.000000 0.250736 0.929412
0.440436 0.266331 0.920500
0.621515 0.277653 0.907164
0.759121 0.271489 0.888457
0.888060 0.338079 0.879271
0.000000 0.344732 0.934661
0.000000 0.346410 0.934081
0.000000 0.351751 0.931212
0.260685 0.363409 0.926482
0.477974 0.372107 0.917540
0.632013 0.373144 0.904417
0.758968 0.358007 0.886381
0.883024 0.401099 0.877317
0.000000 0.495796 0.929534
0.000000 0.501946 0.928710
0.228946 0.515343 0.925353
0.387671 0.516350 0.920775
0.524010 0.513909 0.913115
0.646387 0.502708 0.901488
0.758358 0.476661 0.884855
0.875059 0.495705 0.875883
0.000000 0.612940 0.926482
0.000000 0.615534 0.926055
0.264836 0.622858 0.923461
0.450782 0.645075 0.917296
0.564599 0.648188 0.909209
0.657557 0.628626 0.898802
0.753597 0.595575 0.883360
0.863523 0.595392 0.874144
0.000000 0.729763 0.916228
0.008576 0.730648 0.915953
0.295933 0.735134 0.915129
0.461982 0.745357 0.914366
0.586053 0.753170 0.910918
0.681086 0.751339 0.901152
0.755673 0.721462 0.887633
0.852628 0.704311 0.876493
0.000000 0.826261 0.903136
0.000000 0.826383 0.903014
0.239017 0.827146 0.902708
0.425544 0.829557 0.902739
0.574975 0.833860 0.903319
0.700496 0.841306 0.905455
0.776791 0.833921 0.898344
0.842496 0.800900 0.879271
0.000000 0.907469 0.892668
0.000000 0.907195 0.892699
0.208774 0.906249 0.893034
0.403082 0.904417 0.893614
0.549676 0.901884 0.894285
0.671199 0.899168 0.895201
0.770657 0.896513 0.896117
0.847868 0.888640 0.891417
