luts/旅拍胶片03.cube
# Created by Adobe Lightroom plugin Export LUT (1.24.0)
# www.johnrellis.com/lightroom/exportlut.htm
# Preset: 旅拍胶片-素材江湖03
# Color profile: E:\lut插件\exportlut.1.24\exportlut.lrplugin\color profiles\Rec709gamma2.4.icc
LUT_3D_SIZE 5
DOMAIN_MIN 0.000000 0.000000 0.000000
DOMAIN_MAX 0.903226 0.903226 0.903226
0.011414 0.006409 0.004547
0.119997 0.013458 0.001099
0.372107 0.000000 0.000000
0.736599 0.000000 0.000000
0.975860 0.000000 0.000000
0.046448 0.098634 0.020630
0.128969 0.105409 0.016297
0.384680 0.061677 0.000000
0.739132 0.000000 0.000000
0.974487 0.141421 0.000000
0.000000 0.324376 0.097383
0.144137 0.323888 0.104036
0.449042 0.387610 0.000000
0.753567 0.394324 0.000000
0.957824 0.431281 0.012024
0.224735 0.632532 0.298375
0.294347 0.632258 0.304784
0.472663 0.641199 0.326665
0.753597 0.693080 0.342351
0.932403 0.688991 0.384833
0.564843 0.842100 0.628565
0.582483 0.841855 0.632227
0.639063 0.837736 0.639094
0.758267 0.851469 0.668208
0.901488 0.869322 0.697749
0.013855 0.038575 0.092927
0.135470 0.016724 0.096193
0.360815 0.000000 0.100862
0.709957 0.000000 0.113527
0.954314 0.080598 0.138399
0.076387 0.121828 0.099489
0.145296 0.127108 0.104250
0.378424 0.127749 0.111940
0.715023 0.074525 0.117189
0.952941 0.224765 0.149264
0.073976 0.339483 0.162814
0.188540 0.342412 0.171633
0.439673 0.386450 0.170748
0.731197 0.400214 0.151827
0.946288 0.454139 0.212924
0.274632 0.637171 0.353765
0.331731 0.637507 0.360052
0.483650 0.640742 0.383368
0.747005 0.694575 0.408453
0.923827 0.696071 0.441596
0.574029 0.842863 0.648402
0.590661 0.842466 0.651453
0.652583 0.842161 0.666438
0.761318 0.853391 0.692226
0.899779 0.872160 0.722042
0.000000 0.140597 0.339300
0.024872 0.127596 0.339788
0.416815 0.000000 0.337072
0.739742 0.000000 0.319554
0.920684 0.321202 0.394049
0.000000 0.236728 0.341650
0.149996 0.215763 0.344854
0.427619 0.154726 0.345190
0.725582 0.168673 0.334630
0.917418 0.379370 0.411872
0.000000 0.408423 0.362921
0.188083 0.409674 0.364446
0.438727 0.418555 0.377874
0.699580 0.456031 0.404486
0.911742 0.523522 0.458595
0.295232 0.648829 0.476661
0.359869 0.648676 0.483986
0.524254 0.656001 0.521386
0.725490 0.700313 0.564477
0.897978 0.712123 0.576104
0.565393 0.844846 0.690425
0.594781 0.845060 0.700618
0.665858 0.845609 0.720211
0.757351 0.851255 0.743404
0.890440 0.874601 0.774289
0.000000 0.312902 0.675715
0.000000 0.286656 0.676478
0.402075 0.257664 0.670436
0.726894 0.159457 0.659419
0.954345 0.235966 0.620600
0.000000 0.404700 0.671138
0.084565 0.376989 0.671260
0.416571 0.329381 0.667109
0.720943 0.264622 0.657191
0.942473 0.329473 0.625330
0.226719 0.555444 0.663447
0.311345 0.556207 0.662104
0.470436 0.529961 0.665492
0.700862 0.479042 0.658534
0.904204 0.538598 0.654627
0.311040 0.697169 0.684077
0.363043 0.695827 0.683314
0.509697 0.694392 0.684749
0.684932 0.694850 0.690639
0.868040 0.728664 0.719783
0.512383 0.853117 0.760678
0.538750 0.853147 0.763302
0.631708 0.854215 0.776028
0.762112 0.857359 0.808682
0.881163 0.881163 0.839994
0.370550 0.574151 0.880735
0.385901 0.559533 0.881193
0.512322 0.538781 0.880735
0.707668 0.506004 0.878264
0.910796 0.482368 0.874144
0.426734 0.616602 0.876646
0.437507 0.603693 0.877317
0.525292 0.572747 0.877928
0.706355 0.539727 0.875822
0.905303 0.514061 0.872526
0.495247 0.708583 0.871031
0.522362 0.707515 0.870756
0.583062 0.684993 0.872160
0.703975 0.644709 0.871977
0.889372 0.616693 0.871611
0.534630 0.795590 0.872129
0.553704 0.795041 0.871824
0.626368 0.794797 0.871916
0.722957 0.779049 0.875425
0.870481 0.750515 0.877073
0.586816 0.879301 0.884031
0.601892 0.878965 0.884123
0.662043 0.878569 0.885466
0.754086 0.877867 0.887602
0.859068 0.876860 0.890043
