luts/旅拍胶片09.cube
# Created by Adobe Lightroom plugin Export LUT (1.24.0)
# www.johnrellis.com/lightroom/exportlut.htm
# Preset: 旅拍胶片-素材江湖09
# Color profile: E:\lut插件\exportlut.1.24\exportlut.lrplugin\color profiles\Rec709gamma2.4.icc
LUT_3D_SIZE 5
DOMAIN_MIN 0.000000 0.000000 0.000000
DOMAIN_MAX 0.903226 0.903226 0.903226
0.084230 0.084230 0.084230
0.088228 0.088228 0.088228
0.112581 0.112581 0.112581
0.207614 0.207614 0.207614
0.389258 0.389258 0.389258
0.133516 0.133516 0.133516
0.143252 0.143252 0.143252
0.158633 0.158633 0.158633
0.259922 0.259922 0.259922
0.436347 0.436347 0.436347
0.425849 0.425849 0.425849
0.438361 0.438361 0.438361
0.466285 0.466285 0.466285
0.490120 0.490120 0.490120
0.573327 0.573327 0.573327
0.698207 0.698207 0.698207
0.703090 0.703090 0.703090
0.714870 0.714870 0.714870
0.724361 0.724361 0.724361
0.768795 0.768795 0.768795
0.865537 0.865537 0.865537
0.867185 0.867185 0.867185
0.869566 0.869566 0.869566
0.877592 0.877592 0.877592
0.886809 0.886809 0.886809
0.088594 0.088594 0.088594
0.090791 0.090791 0.090791
0.127382 0.127382 0.127382
0.220584 0.220584 0.220584
0.383520 0.383520 0.383520
0.107546 0.107546 0.107546
0.119814 0.119814 0.119814
0.166079 0.166079 0.166079
0.264469 0.264469 0.264469
0.423407 0.423407 0.423407
0.382513 0.382513 0.382513
0.397925 0.397925 0.397925
0.426246 0.426246 0.426246
0.455024 0.455024 0.455024
0.569757 0.569757 0.569757
0.687160 0.687160 0.687160
0.692744 0.692744 0.692744
0.707942 0.707942 0.707942
0.717433 0.717433 0.717433
0.762936 0.762936 0.762936
0.863096 0.863096 0.863096
0.864622 0.864622 0.864622
0.871946 0.871946 0.871946
0.879179 0.879179 0.879179
0.888457 0.888457 0.888457
0.109560 0.109560 0.109560
0.120546 0.120546 0.120546
0.162905 0.162905 0.162905
0.276341 0.276341 0.276341
0.422278 0.422278 0.422278
0.155917 0.155917 0.155917
0.165286 0.165286 0.165286
0.205295 0.205295 0.205295
0.311467 0.311467 0.311467
0.452827 0.452827 0.452827
0.301610 0.301610 0.301610
0.313268 0.313268 0.313268
0.361181 0.361181 0.361181
0.443122 0.443122 0.443122
0.567956 0.567956 0.567956
0.648035 0.648035 0.648035
0.649348 0.649348 0.649348
0.674067 0.674067 0.674067
0.695369 0.695369 0.695369
0.738766 0.738766 0.738766
0.850858 0.850858 0.850858
0.853269 0.853269 0.853269
0.862058 0.862058 0.862058
0.873503 0.873503 0.873503
0.882994 0.882994 0.882994
0.198642 0.198642 0.198642
0.211582 0.211582 0.211582
0.262242 0.262242 0.262242
0.339513 0.339513 0.339513
0.482826 0.482826 0.482826
0.249302 0.249302 0.249302
0.259739 0.259739 0.259739
0.302770 0.302770 0.302770
0.371191 0.371191 0.371191
0.508659 0.508659 0.508659
0.345434 0.345434 0.345434
0.370794 0.370794 0.370794
0.436011 0.436011 0.436011
0.489082 0.489082 0.489082
0.602594 0.602594 0.602594
0.581598 0.581598 0.581598
0.585321 0.585321 0.585321
0.606531 0.606531 0.606531
0.647700 0.647700 0.647700
0.710018 0.710018 0.710018
0.831662 0.831662 0.831662
0.833555 0.833555 0.833555
0.842741 0.842741 0.842741
0.862211 0.862211 0.862211
0.875853 0.875853 0.875853
0.414466 0.414466 0.414466
0.424537 0.424537 0.424537
0.466041 0.466041 0.466041
0.535729 0.535729 0.535729
0.602197 0.602197 0.602197
0.449409 0.449409 0.449409
0.458320 0.458320 0.458320
0.494911 0.494911 0.494911
0.556023 0.556023 0.556023
0.616907 0.616907 0.616907
0.552453 0.552453 0.552453
0.557702 0.557702 0.557702
0.581018 0.581018 0.581018
0.622339 0.622339 0.622339
0.668086 0.668086 0.668086
0.637629 0.637629 0.637629
0.638849 0.638849 0.638849
0.651789 0.651789 0.651789
0.710750 0.710750 0.710750
0.748775 0.748775 0.748775
0.800107 0.800107 0.800107
0.801572 0.801572 0.801572
0.808927 0.808927 0.808927
0.823972 0.823972 0.823972
0.851743 0.851743 0.851743
