luts/旅拍胶片05.cube
# Created by Adobe Lightroom plugin Export LUT (1.24.0)
# www.johnrellis.com/lightroom/exportlut.htm
# Preset: 旅拍胶片-素材江湖05
# Color profile: E:\lut插件\exportlut.1.24\exportlut.lrplugin\color profiles\Rec709gamma2.4.icc
LUT_3D_SIZE 32
DOMAIN_MIN 0.0 0.0 0.0
DOMAIN_MAX 1.0 1.0 1.0
0.058839 0.056916 0.040772
0.058839 0.056916 0.040772
0.062837 0.056458 0.040742
0.069062 0.057954 0.041566
0.087221 0.060853 0.042969
0.101350 0.065339 0.043824
0.117952 0.069978 0.044343
0.137545 0.072694 0.045686
0.162081 0.073426 0.045258
0.191714 0.069734 0.044099
0.228275 0.059846 0.042664
0.272343 0.039704 0.038148
0.323308 0.006928 0.033082
0.379370 0.000000 0.025879
0.437842 0.000000 0.014679
0.496986 0.000000 0.000397
0.555169 0.000000 0.000000
0.610773 0.000000 0.000000
0.663355 0.000000 0.000000
0.712398 0.000000 0.000000
0.760647 0.000000 0.000000
0.803983 0.000000 0.000000
0.840574 0.000000 0.000000
0.873167 0.000000 0.000000
0.902342 0.000000 0.000000
0.928588 0.000000 0.000000
0.952636 0.007935 0.000000
0.974853 0.113863 0.000000
0.995514 0.157412 0.000000
1.000000 0.194583 0.000000
1.000000 0.229709 0.000000
1.000000 0.264836 0.000000
0.058839 0.056916 0.040772
0.058839 0.056916 0.040772
0.062837 0.056458 0.040742
0.071046 0.057740 0.041535
0.087953 0.061830 0.042786
0.101106 0.066529 0.043671
0.117952 0.069978 0.044343
0.137392 0.073884 0.045533
0.161074 0.074098 0.045289
0.190402 0.070863 0.044129
0.226627 0.061646 0.042725
0.269932 0.043061 0.038270
0.320439 0.010864 0.033417
0.376257 0.000000 0.026276
0.434638 0.000000 0.015167
0.493660 0.000000 0.001129
0.551843 0.000000 0.000000
0.607568 0.000000 0.000000
0.660487 0.000000 0.000000
0.709743 0.000000 0.000000
0.757443 0.000000 0.000000
0.800320 0.000000 0.000000
0.836698 0.000000 0.000000
0.869230 0.000000 0.000000
0.898497 0.000000 0.000000
0.925139 0.000000 0.000000
0.949340 0.000000 0.000000
0.971862 0.108614 0.000000
0.992859 0.153170 0.000000
1.000000 0.190555 0.000000
1.000000 0.225834 0.000000
1.000000 0.261051 0.000000
0.059113 0.059083 0.041596
0.061097 0.058869 0.041596
0.063081 0.058625 0.041566
0.070893 0.061128 0.041077
0.087892 0.065217 0.042329
0.101472 0.070893 0.043061
0.117647 0.074556 0.044862
0.136782 0.078492 0.044953
0.160830 0.079225 0.044526
0.190188 0.076661 0.043366
0.226047 0.067872 0.041993
0.269108 0.050935 0.037385
0.319097 0.021088 0.032441
0.374762 0.000000 0.025177
0.432898 0.000000 0.014130
0.491737 0.000000 0.000000
0.549920 0.000000 0.000000
0.605859 0.000000 0.000000
0.658686 0.000000 0.000000
0.707942 0.000000 0.000000
0.755947 0.000000 0.000000
0.798276 0.000000 0.000000
0.834531 0.000000 0.000000
0.867063 0.000000 0.000000
0.896391 0.000000 0.000000
0.923003 0.000000 0.000000
0.947509 0.011322 0.000000
0.970153 0.112978 0.000000
0.991363 0.155459 0.000000
1.000000 0.192020 0.000000
1.000000 0.226841 0.000000
1.000000 0.261234 0.000000
0.062196 0.065400 0.042939
0.063874 0.065187 0.044068
0.065156 0.066163 0.043885
0.073274 0.068635 0.042267
0.089113 0.074922 0.042084
0.102724 0.078920 0.042969
0.118563 0.081941 0.043458
0.137667 0.083803 0.043702
0.161410 0.085298 0.043153
0.190707 0.084627 0.042817
0.226413 0.079896 0.040131
0.269230 0.066438 0.036378
0.319249 0.038758 0.031128
0.374029 0.000000 0.023468
0.431891 0.000000 0.011994
0.490181 0.000000 0.000000
0.547814 0.000000 0.000000
0.603204 0.000000 0.000000
0.655848 0.000000 0.000000
0.704677 0.000000 0.000000
0.752438 0.000000 0.000000
0.794003 0.000000 0.000000
0.830259 0.000000 0.000000
0.863066 0.000000 0.000000
0.893126 0.000000 0.000000
0.920470 0.000000 0.000000
0.945708 0.061646 0.000000
0.968933 0.126101 0.000000
0.990356 0.164157 0.000000
1.000000 0.198703 0.000000
1.000000 0.231540 0.000000
1.000000 0.264744 0.000000
0.065797 0.082429 0.045838
0.065797 0.082429 0.045838
0.071443 0.082002 0.046937
0.079011 0.083558 0.045319
0.089357 0.086549 0.042054
0.102419 0.088838 0.041810
0.118471 0.090181 0.042481
0.138460 0.091127 0.042695
0.161898 0.092470 0.041993
0.191165 0.092897 0.041352
0.226535 0.091402 0.038209
0.269413 0.086091 0.034150
0.318669 0.068910 0.028321
0.373602 0.036408 0.018616
0.430762 0.000000 0.006317
0.489296 0.000000 0.000000
0.546288 0.000000 0.000000
0.601770 0.000000 0.000000
0.654108 0.000000 0.000000
0.703487 0.000000 0.000000
0.750881 0.000000 0.000000
0.791928 0.000000 0.000000
0.828061 0.000000 0.000000
0.861082 0.000000 0.000000
0.891295 0.000000 0.000000
0.918883 0.020905 0.000000
0.944305 0.107576 0.000000
0.967742 0.145388 0.000000
0.989227 0.177890 0.000000
1.000000 0.208988 0.000000
1.000000 0.239506 0.000000
1.000000 0.271061 0.000000
0.073182 0.093843 0.050233
0.072877 0.093843 0.051362
0.076844 0.093690 0.051331
0.083345 0.093263 0.052430
0.090455 0.095094 0.049195
0.100954 0.097414 0.044282
0.118349 0.100038 0.040925
0.138186 0.101228 0.040986
0.162631 0.102144 0.041382
0.192569 0.102296 0.039582
0.228397 0.102205 0.035828
0.270848 0.100038 0.032136
0.320287 0.095003 0.024079
0.374334 0.084627 0.014618
0.431312 0.053712 0.002228
0.489265 0.010071 0.000000
0.546441 0.000000 0.000000
0.601801 0.000000 0.000000
0.653864 0.000000 0.000000
0.704677 0.000000 0.000000
0.751186 0.000000 0.000000
0.791928 0.000000 0.000000
0.848692 0.000000 0.000000
0.880369 0.044709 0.000000
0.908721 0.106142 0.000000
0.934569 0.136995 0.000000
0.958068 0.164675 0.000000
0.979889 0.190494 0.000000
0.999969 0.216251 0.000000
1.000000 0.242252 0.000000
1.000000 0.269718 0.000000
1.000000 0.298344 0.000000
0.078981 0.105898 0.057465
0.078981 0.105898 0.057465
0.082704 0.105715 0.057435
0.088533 0.105013 0.059815
0.093507 0.105928 0.058015
0.101839 0.108797 0.052857
0.116518 0.111666 0.045960
0.139040 0.115145 0.038941
0.164797 0.116854 0.038697
0.196414 0.117647 0.037354
0.235142 0.117372 0.034089
0.279698 0.117220 0.028687
0.329870 0.115602 0.019776
0.384405 0.111421 0.008148
0.441230 0.104555 0.000000
0.498207 0.093965 0.000000
0.554833 0.075563 0.000000
0.609064 0.043091 0.000000
0.661036 0.019379 0.000000
0.714290 0.013733 0.000000
0.761227 0.026856 0.000000
0.802640 0.064668 0.000000
0.839719 0.099153 0.000000
0.873167 0.122621 0.000000
0.903258 0.145724 0.000000
0.930022 0.167910 0.000000
0.954101 0.189609 0.000000
0.976135 0.211032 0.000000
0.996612 0.232975 0.000000
1.000000 0.255680 0.000000
1.000000 0.280461 0.000000
1.000000 0.307164 0.000000
0.081941 0.120150 0.063874
0.082368 0.119844 0.064027
0.086091 0.119661 0.063996
0.091402 0.119020 0.065248
0.097749 0.118196 0.067597
0.104494 0.120790 0.062409
0.116091 0.124361 0.055116
0.134890 0.128145 0.045747
0.162356 0.132784 0.035584
0.193606 0.135317 0.033173
0.232364 0.137118 0.029877
0.278264 0.138186 0.023499
0.330938 0.137240 0.014801
0.384588 0.137392 0.002380
0.440803 0.135622 0.000000
0.497200 0.132296 0.000000
0.553094 0.127749 0.000000
0.607172 0.123323 0.000000
0.661921 0.121920 0.000000
0.712703 0.124483 0.000000
0.758328 0.130007 0.000000
0.799008 0.139895 0.000000
0.835660 0.152163 0.000000
0.869078 0.166781 0.000000
0.899229 0.183017 0.000000
0.926177 0.199802 0.000000
0.950469 0.217105 0.000000
0.972839 0.234775 0.000000
0.993439 0.253635 0.000000
1.000000 0.273442 0.000000
1.000000 0.295659 0.000000
1.000000 0.319860 0.000000
0.085115 0.137392 0.069337
0.085115 0.137392 0.069337
0.089448 0.136934 0.069459
0.093660 0.136660 0.071687
0.101534 0.135378 0.074311
0.108339 0.136049 0.073457
0.118532 0.139651 0.065858
0.134218 0.144015 0.054810
0.156985 0.149050 0.042176
0.190860 0.154849 0.027771
0.229801 0.159365 0.021057
0.275334 0.163058 0.013733
0.327886 0.165652 0.002502
0.385290 0.166079 0.000000
0.443000 0.165774 0.000000
0.498573 0.166079 0.000000
0.553948 0.165957 0.000000
0.610101 0.166873 0.000000
0.663325 0.168978 0.000000
0.712673 0.172549 0.000000
0.757046 0.178500 0.000000
0.796689 0.185672 0.000000
0.832975 0.195041 0.000000
0.866178 0.206088 0.000000
0.896147 0.218875 0.000000
0.923064 0.232212 0.000000
0.947509 0.246220 0.000000
0.969879 0.261509 0.000000
0.990692 0.277409 0.000000
1.000000 0.294896 0.000000
1.000000 0.313909 0.000000
1.000000 0.335882 0.000000
0.083711 0.159823 0.074556
0.084932 0.159792 0.074556
0.089601 0.159213 0.074800
0.094759 0.158755 0.077180
0.103151 0.157656 0.079164
0.112673 0.156039 0.081666
0.122560 0.158816 0.076387
0.136324 0.163729 0.064424
0.157076 0.168978 0.049928
0.185428 0.175113 0.031861
0.224369 0.182040 0.012238
0.271611 0.189029 0.000000
0.323278 0.194614 0.000000
0.379828 0.198581 0.000000
0.439643 0.200748 0.000000
0.500511 0.200565 0.000000
0.559167 0.203464 0.000000
0.614008 0.206638 0.000000
0.665736 0.210513 0.000000
0.713771 0.215213 0.000000
0.756527 0.220829 0.000000
0.794858 0.226627 0.000000
0.829892 0.233890 0.000000
0.862211 0.242557 0.000000
0.891691 0.252293 0.000000
0.918486 0.262791 0.000000
0.942962 0.274693 0.000000
0.965667 0.287572 0.000000
0.986725 0.301762 0.000000
1.000000 0.317113 0.000000
1.000000 0.333837 0.000000
1.000000 0.353735 0.000000
0.075441 0.187015 0.077363
0.078157 0.186801 0.077516
0.084596 0.186496 0.078523
0.093629 0.185855 0.080079
0.103395 0.184939 0.081697
0.115663 0.183291 0.084993
0.128237 0.182956 0.085969
0.141176 0.188083 0.075441
0.160525 0.194125 0.057008
0.187106 0.200992 0.034852
0.221256 0.207828 0.011414
0.264775 0.215396 0.000000
0.320104 0.225193 0.000000
0.376013 0.231937 0.000000
0.437140 0.237919 0.000000
0.498604 0.242039 0.000000
0.559472 0.243992 0.000000
0.617609 0.245090 0.000000
0.667414 0.249973 0.000000
0.713832 0.254856 0.000000
0.755276 0.259800 0.000000
0.792905 0.265019 0.000000
0.827543 0.271092 0.000000
0.859525 0.278447 0.000000
0.888792 0.286534 0.000000
0.915465 0.295537 0.000000
0.939940 0.305547 0.000000
0.962615 0.316533 0.000000
0.983734 0.328771 0.000000
1.000000 0.342473 0.000000
1.000000 0.357397 0.000000
1.000000 0.374121 0.000000
0.049378 0.221439 0.078279
0.051362 0.221439 0.078279
0.064118 0.221012 0.079835
0.084962 0.220462 0.080690
0.100069 0.219242 0.083284
0.116426 0.217929 0.086427
0.133333 0.216159 0.089815
0.148379 0.219089 0.085176
0.167056 0.225254 0.067048
0.192325 0.232364 0.040650
0.224765 0.240146 0.008637
0.265019 0.248356 0.000000
0.325689 0.266239 0.000000
0.391547 0.280186 0.000000
0.453620 0.288640 0.000000
0.515587 0.295048 0.000000
0.575921 0.299351 0.000000
0.633265 0.302098 0.000000
0.686763 0.303899 0.000000
0.733211 0.306065 0.000000
0.772061 0.310369 0.000000
0.807126 0.314641 0.000000
0.839536 0.319493 0.000000
0.869383 0.325170 0.000000
0.896666 0.331487 0.000000
0.921752 0.338231 0.000000
0.944701 0.346166 0.000000
0.966094 0.354925 0.000000
0.986084 0.364843 0.000000
1.000000 0.376257 0.000000
1.000000 0.388617 0.000000
1.000000 0.402869 0.000000
0.000000 0.267491 0.075502
0.004334 0.267247 0.075776
0.020081 0.266819 0.077302
0.053529 0.265965 0.079500
0.092500 0.264408 0.082551
0.115511 0.262577 0.087037
0.138247 0.260288 0.090974
0.159670 0.258366 0.094148
0.177707 0.264683 0.079530
0.203372 0.273136 0.045594
0.235935 0.283146 0.003082
0.276707 0.293614 0.000000
0.325292 0.304387 0.000000
0.377813 0.312108 0.000000
0.446784 0.327001 0.000000
0.507591 0.334630 0.000000
0.566705 0.340307 0.000000
0.622736 0.344305 0.000000
0.675319 0.346929 0.000000
0.723079 0.347997 0.000000
0.766079 0.347692 0.000000
0.801907 0.349981 0.000000
0.834195 0.354131 0.000000
0.863981 0.358679 0.000000
0.891447 0.363867 0.000000
0.916686 0.369512 0.000000
0.939879 0.376257 0.000000
0.961517 0.383795 0.000000
0.981750 0.392340 0.000000
1.000000 0.402350 0.000000
1.000000 0.413519 0.000000
1.000000 0.426276 0.000000
0.000000 0.312993 0.069154
0.000000 0.312963 0.069154
0.000000 0.312139 0.071565
0.007477 0.311437 0.074403
0.070558 0.310430 0.079835
0.111513 0.308629 0.085176
0.139834 0.306950 0.090425
0.167239 0.304906 0.095735
0.190127 0.307073 0.092287
0.214054 0.315160 0.061616
0.244694 0.324224 0.010620
0.282506 0.334295 0.000000
0.327367 0.344518 0.000000
0.378485 0.354772 0.000000
0.429694 0.359686 0.000000
0.498512 0.374151 0.000000
0.556695 0.380591 0.000000
0.611810 0.385138 0.000000
0.663752 0.388525 0.000000
0.711421 0.390021 0.000000
0.754299 0.390051 0.000000
0.793912 0.389776 0.000000
0.830106 0.389441 0.000000
0.859739 0.393133 0.000000
0.887083 0.397559 0.000000
0.912352 0.402167 0.000000
0.935637 0.407691 0.000000
0.957366 0.413916 0.000000
0.977630 0.421515 0.000000
0.996826 0.430060 0.000000
1.000000 0.439918 0.000000
1.000000 0.451240 0.000000
0.000000 0.365026 0.062593
0.000000 0.364874 0.062867
0.000000 0.364202 0.065278
0.000000 0.363104 0.070436
0.032166 0.361303 0.077852
0.105837 0.359319 0.083894
0.142031 0.357153 0.091035
0.174075 0.354589 0.097200
0.204074 0.352026 0.104067
0.226993 0.358434 0.087892
0.255100 0.366857 0.032898
0.290135 0.376287 0.000000
0.331151 0.385901 0.000000
0.378058 0.395605 0.000000
0.429816 0.404517 0.000000
0.480262 0.407843 0.000000
0.546044 0.420539 0.000000
0.600793 0.425666 0.000000
0.652277 0.429419 0.000000
0.699550 0.431159 0.000000
0.742672 0.431373 0.000000
0.782559 0.431281 0.000000
0.819425 0.430823 0.000000
0.853239 0.430518 0.000000
0.882872 0.431342 0.000000
0.907958 0.435157 0.000000
0.931395 0.439765 0.000000
0.953277 0.445075 0.000000
0.973846 0.451453 0.000000
0.993164 0.459236 0.000000
1.000000 0.468086 0.000000
1.000000 0.478370 0.000000
0.000000 0.415167 0.067750
0.000000 0.415259 0.067414
0.000000 0.414649 0.070924
0.000000 0.413764 0.076875
0.008972 0.412421 0.082246
0.104738 0.410773 0.089174
0.147005 0.408820 0.095399
0.182864 0.406775 0.102327
0.216312 0.404303 0.110384
0.244938 0.404852 0.110262
0.270024 0.412207 0.082856
0.300908 0.419989 0.003052
0.337865 0.428412 0.000000
0.379767 0.436500 0.000000
0.426398 0.444465 0.000000
0.476905 0.451667 0.000000
0.527337 0.455177 0.000000
0.587823 0.464576 0.000000
0.639124 0.468482 0.000000
0.686610 0.470497 0.000000
0.730343 0.471412 0.000000
0.770993 0.471595 0.000000
0.808438 0.471382 0.000000
0.842924 0.470954 0.000000
0.874357 0.470436 0.000000
0.903227 0.470222 0.000000
0.927642 0.472847 0.000000
0.949584 0.477211 0.000000
0.970123 0.482399 0.000000
0.989410 0.488777 0.000000
1.000000 0.496254 0.000000
1.000000 0.505089 0.000000
0.000000 0.463844 0.086976
0.000000 0.463691 0.086427
0.000000 0.463294 0.088563
0.000000 0.462379 0.090517
0.015198 0.461250 0.094179
0.112764 0.459602 0.099367
0.155642 0.457801 0.105806
0.193698 0.455634 0.113039
0.228122 0.453315 0.121309
0.261143 0.450446 0.130495
0.286381 0.454566 0.117128
0.313268 0.461799 0.083986
0.345953 0.469368 0.000000
0.383673 0.476844 0.000000
0.425605 0.484108 0.000000
0.471778 0.490974 0.000000
0.520989 0.497292 0.000000
0.570916 0.501762 0.000000
0.625360 0.507286 0.000000
0.673823 0.509819 0.000000
0.718013 0.510948 0.000000
0.759121 0.511101 0.000000
0.797086 0.510918 0.000000
0.832212 0.510216 0.000000
0.864286 0.509422 0.000000
0.893614 0.508934 0.000000
0.920684 0.508751 0.000000
0.945464 0.509483 0.000000
0.966094 0.513695 0.000000
0.985412 0.518975 0.000000
1.000000 0.525292 0.000000
1.000000 0.532830 0.000000
0.000000 0.511833 0.106935
0.000000 0.511864 0.106844
0.000000 0.524346 0.115389
0.001831 0.523583 0.117617
0.099519 0.522515 0.120760
0.143069 0.520897 0.125154
0.181888 0.518822 0.130526
0.218112 0.516472 0.137270
0.252293 0.513878 0.145113
0.285740 0.511040 0.154177
0.315953 0.509392 0.158419
0.339239 0.515496 0.135012
0.367254 0.521721 0.100313
0.400214 0.527825 0.000000
0.437140 0.533806 0.000000
0.478218 0.539483 0.000000
0.522393 0.544610 0.000000
0.569207 0.549432 0.000000
0.617578 0.553521 0.000000
0.664851 0.553735 0.000000
0.710292 0.554528 0.000000
0.751095 0.554131 0.000000
0.789120 0.553094 0.000000
0.823941 0.551720 0.000000
0.855863 0.549950 0.000000
0.885161 0.548302 0.000000
0.912200 0.546960 0.000000
0.937163 0.546380 0.000000
0.960266 0.546868 0.000000
0.981201 0.549035 0.000000
0.999451 0.554253 0.000000
1.000000 0.560510 0.000000
0.000000 0.561608 0.135592
0.000000 0.562737 0.136782
0.035859 0.563592 0.138369
0.097322 0.564080 0.140780
0.134554 0.563775 0.144137
0.167697 0.562799 0.148226
0.201633 0.560906 0.152895
0.234806 0.558679 0.158450
0.267247 0.556176 0.165560
0.299321 0.553460 0.173587
0.330846 0.550378 0.182650
0.355566 0.552270 0.174807
0.379522 0.557733 0.149325
0.407782 0.563348 0.113710
0.440223 0.568780 0.006348
0.476692 0.574151 0.000000
0.516167 0.579034 0.000000
0.558984 0.583642 0.000000
0.603815 0.588159 0.000000
0.650599 0.592279 0.000000
0.694087 0.590295 0.000000
0.738003 0.590875 0.000000
0.776425 0.589807 0.000000
0.811948 0.588159 0.000000
0.844358 0.586206 0.000000
0.874357 0.584039 0.000000
0.901854 0.582208 0.000000
0.927428 0.580957 0.000000
0.951080 0.580591 0.000000
0.973175 0.581231 0.000000
0.993744 0.582971 0.000000
1.000000 0.587091 0.000000
0.113832 0.602655 0.164797
0.118868 0.603723 0.166049
0.131624 0.604456 0.167605
0.149966 0.605127 0.170169
0.173678 0.605005 0.173617
0.199863 0.604028 0.176852
0.227939 0.602533 0.181003
0.257359 0.600549 0.185977
0.286961 0.598352 0.192111
0.317266 0.595758 0.199466
0.347265 0.592828 0.207034
0.376532 0.589746 0.215610
0.396704 0.594507 0.195865
0.420508 0.599420 0.169375
0.448493 0.604273 0.134951
0.480049 0.608942 0.065034
0.515129 0.613397 0.000000
0.553277 0.617670 0.000000
0.594141 0.621729 0.000000
0.637171 0.625635 0.000000
0.681819 0.629175 0.000000
0.721889 0.625483 0.000000
0.763699 0.625483 0.000000
0.799802 0.623560 0.000000
0.832883 0.621149 0.000000
0.863340 0.618708 0.000000
0.891478 0.616327 0.000000
0.917540 0.614405 0.000000
0.941741 0.613336 0.000000
0.964385 0.613184 0.000000
0.985473 0.614008 0.000000
1.000000 0.615991 0.000000
0.175448 0.641382 0.199344
0.178378 0.642298 0.200626
0.186069 0.642969 0.202243
0.198734 0.643336 0.204501
0.215457 0.643183 0.206943
0.235264 0.642451 0.210178
0.258244 0.641199 0.213504
0.283635 0.639460 0.218173
0.310430 0.637537 0.223758
0.337591 0.635096 0.229435
0.365698 0.632593 0.236820
0.393744 0.629725 0.245151
0.416968 0.629725 0.242313
0.436896 0.633967 0.220890
0.460487 0.638239 0.195682
0.487739 0.642542 0.162814
0.518578 0.646876 0.115572
0.552636 0.651118 0.000000
0.589563 0.655238 0.000000
0.628992 0.659419 0.000000
0.670771 0.663264 0.000000
0.713985 0.666835 0.000000
0.750851 0.662013 0.000000
0.790829 0.661219 0.000000
0.824552 0.658808 0.000000
0.855619 0.656062 0.000000
0.884123 0.653407 0.000000
0.910552 0.651148 0.000000
0.935119 0.649500 0.000000
0.958038 0.648646 0.000000
0.979431 0.648707 0.000000
0.999359 0.649775 0.000000
0.237736 0.682643 0.244419
0.239414 0.682948 0.245060
0.243839 0.682979 0.246006
0.251713 0.682734 0.247105
0.263645 0.682185 0.249027
0.279088 0.681117 0.251347
0.297124 0.679774 0.254154
0.317571 0.678248 0.257725
0.340551 0.676387 0.262425
0.365026 0.674434 0.268132
0.390112 0.672267 0.274784
0.415900 0.669734 0.282231
0.441321 0.666957 0.290043
0.459236 0.669551 0.275914
0.478645 0.673243 0.254612
0.501427 0.676875 0.229557
0.527672 0.680476 0.199435
0.557183 0.684016 0.159182
0.589441 0.687404 0.093477
0.624598 0.690730 0.000000
0.661738 0.693812 0.000000
0.700984 0.696651 0.000000
0.741543 0.699153 0.000000
0.775326 0.692744 0.000000
0.812863 0.690761 0.000000
0.844358 0.687678 0.000000
0.873533 0.684657 0.000000
0.900572 0.682002 0.000000
0.925719 0.679866 0.000000
0.949157 0.678431 0.000000
0.971069 0.677699 0.000000
0.991485 0.677790 0.000000
0.286564 0.714900 0.285740
0.287602 0.715145 0.286015
0.290959 0.715175 0.286961
0.297459 0.714900 0.288304
0.306340 0.714412 0.289769
0.318639 0.713588 0.291722
0.333623 0.712490 0.294438
0.351141 0.711116 0.297642
0.370275 0.709590 0.301732
0.391943 0.707790 0.306920
0.414130 0.705928 0.312993
0.437140 0.703822 0.319432
0.460609 0.701350 0.327001
0.481605 0.700404 0.328161
0.497688 0.703670 0.310002
0.516838 0.706874 0.289281
0.539086 0.710109 0.264622
0.564233 0.713344 0.236301
0.592340 0.716426 0.200656
0.623285 0.719326 0.152682
0.656703 0.722133 0.028901
0.692195 0.724697 0.000000
0.729366 0.726925 0.000000
0.767819 0.728817 0.000000
0.797055 0.719814 0.000000
0.832670 0.716915 0.000000
0.862394 0.713741 0.000000
0.890074 0.710689 0.000000
0.915770 0.708156 0.000000
0.939879 0.706111 0.000000
0.962402 0.704799 0.000000
0.983490 0.704311 0.000000
0.338201 0.746548 0.334508
0.339483 0.746883 0.335241
0.342168 0.746853 0.335882
0.346654 0.746517 0.336675
0.353216 0.745785 0.337530
0.362219 0.744808 0.338598
0.373541 0.743465 0.340154
0.387121 0.741939 0.342504
0.403082 0.740200 0.345586
0.420813 0.738369 0.349340
0.439673 0.736324 0.353948
0.460029 0.734096 0.359442
0.480873 0.731716 0.365576
0.501976 0.729091 0.372625
0.517296 0.729976 0.362676
0.532677 0.732479 0.343816
0.550896 0.735042 0.322210
0.572076 0.737728 0.298375
0.596277 0.740444 0.270268
0.623346 0.743160 0.237858
0.653010 0.745815 0.196841
0.684779 0.748165 0.138094
0.718471 0.750179 0.000000
0.753536 0.751736 0.000000
0.789731 0.752834 0.000000
0.818723 0.745571 0.000000
0.851896 0.741848 0.000000
0.880125 0.738399 0.000000
0.906371 0.735164 0.000000
0.930877 0.732631 0.000000
0.953918 0.730709 0.000000
0.975525 0.729549 0.000000
0.379828 0.770993 0.377417
0.381018 0.771267 0.378210
0.383307 0.771359 0.378820
0.387091 0.771115 0.379950
0.392798 0.770626 0.380896
0.400610 0.769986 0.382574
0.410346 0.769100 0.384497
0.422370 0.768093 0.387121
0.436103 0.766903 0.390265
0.451667 0.765530 0.394324
0.468513 0.764004 0.399023
0.486458 0.762295 0.404700
0.505028 0.760311 0.410651
0.524010 0.758083 0.417151
0.542107 0.756191 0.420874
0.554376 0.758297 0.404028
0.569207 0.760494 0.384894
0.586633 0.762722 0.363317
0.606867 0.765133 0.339635
0.629847 0.767514 0.312902
0.655634 0.769741 0.282353
0.683619 0.771908 0.245426
0.713588 0.773831 0.199313
0.745388 0.775387 0.129946
0.778744 0.776577 0.000000
0.813169 0.777432 0.000000
0.840513 0.770413 0.000000
0.871336 0.766262 0.000000
0.898741 0.762783 0.000000
0.923613 0.759792 0.000000
0.946960 0.757351 0.000000
0.968933 0.755581 0.000000
0.424231 0.794705 0.426398
0.424994 0.794797 0.426886
0.426490 0.794766 0.427466
0.429389 0.794522 0.428016
0.433997 0.794095 0.429053
0.440253 0.793454 0.430243
0.448402 0.792721 0.432074
0.458137 0.791775 0.434272
0.469612 0.790707 0.437171
0.482887 0.789517 0.440833
0.497383 0.788083 0.445106
0.512932 0.786587 0.450111
0.529168 0.784878 0.455756
0.546197 0.782986 0.461585
0.563348 0.780850 0.468269
0.576776 0.780850 0.462654
0.588586 0.782803 0.445228
0.602838 0.784756 0.425605
0.619623 0.786862 0.404913
0.639063 0.789029 0.381537
0.661006 0.791165 0.355352
0.685267 0.793118 0.325933
0.711635 0.794858 0.291173
0.739986 0.796323 0.249851
0.769986 0.797543 0.195804
0.801450 0.798428 0.102815
0.834195 0.799008 0.000000
0.860105 0.792325 0.000000
0.888914 0.787716 0.000000
0.915679 0.784298 0.000000
0.939483 0.781460 0.000000
0.961944 0.779232 0.000000
0.464546 0.815335 0.474311
0.465126 0.815396 0.474891
0.466468 0.815396 0.475257
0.469032 0.815274 0.476020
0.472999 0.814969 0.477333
0.478553 0.814664 0.478950
0.486091 0.814328 0.481575
0.495277 0.813931 0.484993
0.506004 0.813443 0.488991
0.518120 0.812924 0.493904
0.531609 0.812253 0.499397
0.545708 0.811429 0.505272
0.560571 0.810422 0.511254
0.575769 0.809140 0.517784
0.591180 0.807614 0.524254
0.606653 0.805814 0.530907
0.616388 0.807462 0.517235
0.627863 0.809293 0.500725
0.641474 0.811185 0.482765
0.657343 0.813138 0.462318
0.675441 0.815091 0.439673
0.695857 0.816892 0.414282
0.718318 0.818509 0.385412
0.742916 0.819944 0.352636
0.769345 0.821073 0.314549
0.797482 0.821988 0.268040
0.827146 0.822629 0.207919
0.858122 0.822995 0.105806
0.882902 0.816800 0.000000
0.909514 0.811582 0.000000
0.935363 0.808194 0.000000
0.957977 0.805600 0.000000
0.510460 0.837430 0.532006
0.510735 0.837400 0.532189
0.511650 0.837308 0.532280
0.513359 0.837095 0.532586
0.516411 0.836759 0.533471
0.520653 0.836362 0.534539
0.526268 0.835843 0.536126
0.533135 0.835233 0.537957
0.541466 0.834531 0.540734
0.551080 0.833738 0.543999
0.561639 0.832883 0.547723
0.573236 0.831846 0.552087
0.585657 0.830747 0.556725
0.598627 0.829465 0.561852
