luts/旅拍胶片09.cube
# Created by Adobe Lightroom plugin Export LUT (1.24.0)
# www.johnrellis.com/lightroom/exportlut.htm
# Preset: 旅拍胶片-素材江湖09
# Color profile: E:\lut插件\exportlut.1.24\exportlut.lrplugin\color profiles\Rec709gamma2.4.icc
LUT_3D_SIZE 32
DOMAIN_MIN 0.0 0.0 0.0
DOMAIN_MAX 1.0 1.0 1.0
0.084230 0.084230 0.084230
0.084230 0.084230 0.084230
0.084230 0.084230 0.084230
0.084230 0.084230 0.084230
0.084230 0.084230 0.084230
0.084810 0.084810 0.084810
0.086641 0.086641 0.086641
0.088228 0.088228 0.088228
0.089326 0.089326 0.089326
0.090425 0.090425 0.090425
0.092226 0.092226 0.092226
0.095033 0.095033 0.095033
0.099062 0.099062 0.099062
0.104921 0.104921 0.104921
0.112581 0.112581 0.112581
0.122011 0.122011 0.122011
0.132479 0.132479 0.132479
0.144198 0.144198 0.144198
0.157137 0.157137 0.157137
0.171603 0.171603 0.171603
0.187869 0.187869 0.187869
0.207614 0.207614 0.207614
0.230076 0.230076 0.230076
0.253696 0.253696 0.253696
0.278019 0.278019 0.278019
0.303502 0.303502 0.303502
0.330236 0.330236 0.330236
0.358740 0.358740 0.358740
0.389258 0.389258 0.389258
0.422431 0.422431 0.422431
0.458289 0.458289 0.458289
0.496864 0.496864 0.496864
0.084230 0.084230 0.084230
0.084230 0.084230 0.084230
0.084230 0.084230 0.084230
0.084230 0.084230 0.084230
0.084230 0.084230 0.084230
0.084810 0.084810 0.084810
0.086641 0.086641 0.086641
0.088228 0.088228 0.088228
0.088960 0.088960 0.088960
0.090425 0.090425 0.090425
0.092226 0.092226 0.092226
0.095033 0.095033 0.095033
0.099062 0.099062 0.099062
0.104646 0.104646 0.104646
0.112306 0.112306 0.112306
0.121523 0.121523 0.121523
0.132052 0.132052 0.132052
0.143618 0.143618 0.143618
0.156619 0.156619 0.156619
0.170993 0.170993 0.170993
0.186679 0.186679 0.186679
0.205997 0.205997 0.205997
0.227787 0.227787 0.227787
0.250462 0.250462 0.250462
0.274113 0.274113 0.274113
0.299016 0.299016 0.299016
0.325322 0.325322 0.325322
0.353521 0.353521 0.353521
0.383856 0.383856 0.383856
0.416724 0.416724 0.416724
0.452430 0.452430 0.452430
0.491005 0.491005 0.491005
0.084230 0.084230 0.084230
0.084230 0.084230 0.084230
0.084230 0.084230 0.084230
0.084230 0.084230 0.084230
0.084230 0.084230 0.084230
0.085420 0.085420 0.085420
0.086641 0.086641 0.086641
0.088228 0.088228 0.088228
0.089326 0.089326 0.089326
0.090425 0.090425 0.090425
0.092592 0.092592 0.092592
0.095705 0.095705 0.095705
0.100008 0.100008 0.100008
0.105806 0.105806 0.105806
0.113649 0.113649 0.113649
0.122713 0.122713 0.122713
0.133303 0.133303 0.133303
0.144778 0.144778 0.144778
0.157626 0.157626 0.157626
0.172030 0.172030 0.172030
0.187869 0.187869 0.187869
0.207156 0.207156 0.207156
0.228397 0.228397 0.228397
0.250736 0.250736 0.250736
0.274022 0.274022 0.274022
0.298405 0.298405 0.298405
0.324285 0.324285 0.324285
0.352209 0.352209 0.352209
0.382422 0.382422 0.382422
0.415167 0.415167 0.415167
0.450660 0.450660 0.450660
0.488960 0.488960 0.488960
0.084230 0.084230 0.084230
0.084230 0.084230 0.084230
0.084230 0.084230 0.084230
0.084230 0.084230 0.084230
0.084230 0.084230 0.084230
0.085420 0.085420 0.085420
0.087251 0.087251 0.087251
0.088960 0.088960 0.088960
0.090059 0.090059 0.090059
0.092226 0.092226 0.092226
0.094362 0.094362 0.094362
0.097719 0.097719 0.097719
0.102480 0.102480 0.102480
0.108705 0.108705 0.108705
0.116793 0.116793 0.116793
0.126009 0.126009 0.126009
0.136049 0.136049 0.136049
0.147585 0.147585 0.147585
0.160281 0.160281 0.160281
0.174411 0.174411 0.174411
0.189944 0.189944 0.189944
0.209232 0.209232 0.209232
0.229679 0.229679 0.229679
0.251530 0.251530 0.251530
0.274662 0.274662 0.274662
0.299351 0.299351 0.299351
0.325750 0.325750 0.325750
0.353948 0.353948 0.353948
0.384344 0.384344 0.384344
0.417090 0.417090 0.417090
0.452094 0.452094 0.452094
0.489662 0.489662 0.489662
0.088228 0.088228 0.088228
0.088228 0.088228 0.088228
0.088594 0.088594 0.088594
0.088960 0.088960 0.088960
0.089693 0.089693 0.089693
0.090059 0.090059 0.090059
0.090059 0.090059 0.090059
0.091157 0.091157 0.091157
0.092958 0.092958 0.092958
0.095033 0.095033 0.095033
0.097719 0.097719 0.097719
0.101564 0.101564 0.101564
0.106691 0.106691 0.106691
0.113924 0.113924 0.113924
0.122011 0.122011 0.122011
0.131167 0.131167 0.131167
0.141482 0.141482 0.141482
0.152987 0.152987 0.152987
0.165591 0.165591 0.165591
0.179843 0.179843 0.179843
0.195926 0.195926 0.195926
0.215000 0.215000 0.215000
0.235080 0.235080 0.235080
0.256535 0.256535 0.256535
0.279637 0.279637 0.279637
0.304112 0.304112 0.304112
0.330236 0.330236 0.330236
0.358160 0.358160 0.358160
0.388190 0.388190 0.388190
0.420569 0.420569 0.420569
0.455177 0.455177 0.455177
0.492134 0.492134 0.492134
0.094362 0.094362 0.094362
0.094697 0.094697 0.094697
0.094697 0.094697 0.094697
0.096040 0.096040 0.096040
0.097719 0.097719 0.097719
0.098390 0.098390 0.098390
0.099672 0.099672 0.099672
0.098054 0.098054 0.098054
0.098054 0.098054 0.098054
0.100618 0.100618 0.100618
0.104067 0.104067 0.104067
0.108705 0.108705 0.108705
0.114961 0.114961 0.114961
0.122011 0.122011 0.122011
0.130282 0.130282 0.130282
0.139498 0.139498 0.139498
0.149966 0.149966 0.149966
0.161593 0.161593 0.161593
0.174563 0.174563 0.174563
0.188785 0.188785 0.188785
0.206119 0.206119 0.206119
0.224826 0.224826 0.224826
0.263310 0.263310 0.263310
0.287266 0.287266 0.287266
0.311986 0.311986 0.311986
0.337652 0.337652 0.337652
0.364599 0.364599 0.364599
0.393042 0.393042 0.393042
0.423377 0.423377 0.423377
0.455512 0.455512 0.455512
0.489693 0.489693 0.489693
0.524468 0.524468 0.524468
0.110384 0.110384 0.110384
0.110658 0.110658 0.110658
0.111757 0.111757 0.111757
0.113649 0.113649 0.113649
0.116793 0.116793 0.116793
0.117800 0.117800 0.117800
0.118563 0.118563 0.118563
0.123445 0.123445 0.123445
0.120058 0.120058 0.120058
0.117800 0.117800 0.117800
0.117037 0.117037 0.117037
0.122469 0.122469 0.122469
0.128756 0.128756 0.128756
0.136049 0.136049 0.136049
0.144381 0.144381 0.144381
0.153872 0.153872 0.153872
0.164340 0.164340 0.164340
0.176303 0.176303 0.176303
0.189578 0.189578 0.189578
0.205417 0.205417 0.205417
0.225040 0.225040 0.225040
0.246098 0.246098 0.246098
0.268650 0.268650 0.268650
0.292943 0.292943 0.292943
0.318120 0.318120 0.318120
0.344030 0.344030 0.344030
0.370581 0.370581 0.370581
0.398383 0.398383 0.398383
0.427893 0.427893 0.427893
0.459144 0.459144 0.459144
0.492439 0.492439 0.492439
0.526482 0.526482 0.526482
0.133516 0.133516 0.133516
0.133730 0.133730 0.133730
0.134798 0.134798 0.134798
0.136660 0.136660 0.136660
0.139895 0.139895 0.139895
0.141299 0.141299 0.141299
0.142092 0.142092 0.142092
0.143252 0.143252 0.143252
0.149233 0.149233 0.149233
0.148501 0.148501 0.148501
0.145724 0.145724 0.145724
0.143801 0.143801 0.143801
0.143252 0.143252 0.143252
0.150484 0.150484 0.150484
0.158633 0.158633 0.158633
0.167941 0.167941 0.167941
0.178439 0.178439 0.178439
0.190463 0.190463 0.190463
0.204013 0.204013 0.204013
0.221317 0.221317 0.221317
0.239841 0.239841 0.239841
0.259922 0.259922 0.259922
0.281590 0.281590 0.281590
0.304784 0.304784 0.304784
0.329198 0.329198 0.329198
0.354345 0.354345 0.354345
0.380346 0.380346 0.380346
0.407446 0.407446 0.407446
0.436347 0.436347 0.436347
0.466987 0.466987 0.466987
0.499428 0.499428 0.499428
0.532494 0.532494 0.532494
0.161776 0.161776 0.161776
0.161929 0.161929 0.161929
0.162905 0.162905 0.162905
0.164828 0.164828 0.164828
0.167788 0.167788 0.167788
0.169619 0.169619 0.169619
0.170382 0.170382 0.170382
0.171450 0.171450 0.171450
0.172793 0.172793 0.172793
0.178012 0.178012 0.178012
0.181796 0.181796 0.181796
0.178866 0.178866 0.178866
0.176425 0.176425 0.176425
0.175143 0.175143 0.175143
0.177005 0.177005 0.177005
0.186252 0.186252 0.186252
0.196780 0.196780 0.196780
0.209232 0.209232 0.209232
0.224338 0.224338 0.224338
0.240757 0.240757 0.240757
0.258579 0.258579 0.258579
0.277653 0.277653 0.277653
0.298405 0.298405 0.298405
0.320745 0.320745 0.320745
0.344244 0.344244 0.344244
0.368536 0.368536 0.368536
0.393927 0.393927 0.393927
0.420417 0.420417 0.420417
0.448676 0.448676 0.448676
0.478553 0.478553 0.478553
0.510002 0.510002 0.510002
0.541741 0.541741 0.541741
0.193301 0.193301 0.193301
0.193423 0.193423 0.193423
0.194308 0.194308 0.194308
0.196048 0.196048 0.196048
0.198764 0.198764 0.198764
0.202365 0.202365 0.202365
0.202945 0.202945 0.202945
0.203891 0.203891 0.203891
0.205295 0.205295 0.205295
0.207034 0.207034 0.207034
0.211124 0.211124 0.211124
0.220798 0.220798 0.220798
0.217807 0.217807 0.217807
0.215335 0.215335 0.215335
0.213809 0.213809 0.213809
0.212802 0.212802 0.212802
0.220371 0.220371 0.220371
0.233829 0.233829 0.233829
0.248417 0.248417 0.248417
0.264042 0.264042 0.264042
0.280827 0.280827 0.280827
0.298405 0.298405 0.298405
0.317418 0.317418 0.317418
0.337957 0.337957 0.337957
0.359808 0.359808 0.359808
0.382788 0.382788 0.382788
0.407202 0.407202 0.407202
0.433112 0.433112 0.433112
0.460914 0.460914 0.460914
0.490578 0.490578 0.490578
0.521233 0.521233 0.521233
0.552026 0.552026 0.552026
0.228580 0.228580 0.228580
0.228794 0.228794 0.228794
0.229679 0.229679 0.229679
0.231388 0.231388 0.231388
0.234318 0.234318 0.234318
0.238407 0.238407 0.238407
0.240848 0.240848 0.240848
0.241978 0.241978 0.241978
0.243442 0.243442 0.243442
0.245274 0.245274 0.245274
0.247532 0.247532 0.247532
0.250004 0.250004 0.250004
0.266087 0.266087 0.266087
0.263157 0.263157 0.263157
0.262577 0.262577 0.262577
0.262394 0.262394 0.262394
0.262669 0.262669 0.262669
0.263493 0.263493 0.263493
0.274876 0.274876 0.274876
0.289525 0.289525 0.289525
0.304936 0.304936 0.304936
0.321447 0.321447 0.321447
0.339635 0.339635 0.339635
0.359228 0.359228 0.359228
0.380255 0.380255 0.380255
0.402502 0.402502 0.402502
0.426154 0.426154 0.426154
0.451362 0.451362 0.451362
0.478431 0.478431 0.478431
0.507012 0.507012 0.507012
0.536187 0.536187 0.536187
0.565515 0.565515 0.565515
0.270024 0.270024 0.270024
0.270176 0.270176 0.270176
0.271061 0.271061 0.271061
0.272770 0.272770 0.272770
0.275486 0.275486 0.275486
0.279393 0.279393 0.279393
0.284337 0.284337 0.284337
0.285435 0.285435 0.285435
0.286900 0.286900 0.286900
0.288792 0.288792 0.288792
0.290959 0.290959 0.290959
0.295262 0.295262 0.295262
0.315648 0.315648 0.315648
0.338994 0.338994 0.338994
0.337591 0.337591 0.337591
0.336553 0.336553 0.336553
0.335668 0.335668 0.335668
0.335210 0.335210 0.335210
0.335332 0.335332 0.335332
0.337072 0.337072 0.337072
0.351934 0.351934 0.351934
0.367620 0.367620 0.367620
0.384802 0.384802 0.384802
0.403357 0.403357 0.403357
0.423072 0.423072 0.423072
0.443915 0.443915 0.443915
0.465949 0.465949 0.465949
0.489235 0.489235 0.489235
0.513542 0.513542 0.513542
0.538689 0.538689 0.538689
0.564385 0.564385 0.564385
0.590997 0.590997 0.590997
0.322179 0.322179 0.322179
0.322301 0.322301 0.322301
0.322942 0.322942 0.322942
0.324102 0.324102 0.324102
0.326177 0.326177 0.326177
0.329259 0.329259 0.329259
0.333928 0.333928 0.333928
0.338140 0.338140 0.338140
0.341009 0.341009 0.341009
0.344701 0.344701 0.344701
0.349523 0.349523 0.349523
0.354986 0.354986 0.354986
0.361089 0.361089 0.361089
0.367346 0.367346 0.367346
0.394171 0.394171 0.394171
0.392432 0.392432 0.392432
0.390539 0.390539 0.390539
0.388769 0.388769 0.388769
0.387518 0.387518 0.387518
0.386633 0.386633 0.386633
0.386419 0.386419 0.386419
0.392340 0.392340 0.392340
0.408362 0.408362 0.408362
0.425849 0.425849 0.425849
0.444678 0.444678 0.444678
0.464698 0.464698 0.464698
0.486122 0.486122 0.486122
0.508476 0.508476 0.508476
0.531548 0.531548 0.531548
0.555474 0.555474 0.555474
0.579950 0.579950 0.579950
0.605463 0.605463 0.605463
0.373693 0.373693 0.373693
0.373632 0.373632 0.373632
0.373968 0.373968 0.373968
0.375128 0.375128 0.375128
0.376989 0.376989 0.376989
0.380041 0.380041 0.380041
0.384405 0.384405 0.384405
0.390051 0.390051 0.390051
0.391943 0.391943 0.391943
0.394965 0.394965 0.394965
0.399023 0.399023 0.399023
0.403876 0.403876 0.403876
0.409186 0.409186 0.409186
0.414649 0.414649 0.414649
0.419776 0.419776 0.419776
0.443030 0.443030 0.443030
0.445441 0.445441 0.445441
0.442908 0.442908 0.442908
0.440681 0.440681 0.440681
0.438911 0.438911 0.438911
0.437995 0.437995 0.437995
0.438392 0.438392 0.438392
0.440162 0.440162 0.440162
0.451850 0.451850 0.451850
0.469856 0.469856 0.469856
0.489143 0.489143 0.489143
0.509239 0.509239 0.509239
0.529992 0.529992 0.529992
0.551568 0.551568 0.551568
0.573999 0.573999 0.573999
0.597345 0.597345 0.597345
0.621576 0.621576 0.621576
0.425849 0.425849 0.425849
0.425849 0.425849 0.425849
0.426093 0.426093 0.426093
0.426581 0.426581 0.426581
0.427863 0.427863 0.427863
0.429938 0.429938 0.429938
0.433387 0.433387 0.433387
0.438361 0.438361 0.438361
0.442054 0.442054 0.442054
0.444556 0.444556 0.444556
0.448005 0.448005 0.448005
0.452308 0.452308 0.452308
0.456916 0.456916 0.456916
0.461799 0.461799 0.461799
0.466285 0.466285 0.466285
0.470039 0.470039 0.470039
0.489082 0.489082 0.489082
0.496559 0.496559 0.496559
0.493874 0.493874 0.493874
0.491463 0.491463 0.491463
0.490059 0.490059 0.490059
0.490120 0.490120 0.490120
0.491524 0.491524 0.491524
0.494179 0.494179 0.494179
0.498054 0.498054 0.498054
0.514611 0.514611 0.514611
0.533349 0.533349 0.533349
0.552880 0.552880 0.552880
0.573327 0.573327 0.573327
0.594965 0.594965 0.594965
0.617700 0.617700 0.617700
0.640558 0.640558 0.640558
0.474556 0.474556 0.474556
0.474830 0.474830 0.474830
0.475105 0.475105 0.475105
0.476020 0.476020 0.476020
0.477424 0.477424 0.477424
0.479744 0.479744 0.479744
0.483253 0.483253 0.483253
0.488197 0.488197 0.488197
0.494118 0.494118 0.494118
0.496254 0.496254 0.496254
0.498756 0.498756 0.498756
0.501549 0.501549 0.501549
0.504692 0.504692 0.504692
0.507591 0.507591 0.507591
0.510430 0.510430 0.510430
0.512993 0.512993 0.512993
0.515648 0.515648 0.515648
0.529992 0.529992 0.529992
0.541375 0.541375 0.541375
0.539300 0.539300 0.539300
0.538231 0.538231 0.538231
0.538415 0.538415 0.538415
0.539879 0.539879 0.539879
0.542443 0.542443 0.542443
0.546227 0.546227 0.546227
0.551049 0.551049 0.551049
0.558984 0.558984 0.558984
0.577203 0.577203 0.577203
0.596338 0.596338 0.596338
0.616480 0.616480 0.616480
0.636896 0.636896 0.636896
0.657771 0.657771 0.657771
0.519829 0.519829 0.519829
0.519860 0.519860 0.519860
0.520287 0.520287 0.520287
0.521080 0.521080 0.521080
0.522362 0.522362 0.522362
0.524376 0.524376 0.524376
0.527276 0.527276 0.527276
0.531182 0.531182 0.531182
0.536095 0.536095 0.536095
0.539788 0.539788 0.539788
0.541619 0.541619 0.541619
0.543847 0.543847 0.543847
0.546288 0.546288 0.546288
0.548577 0.548577 0.548577
0.550866 0.550866 0.550866
0.552972 0.552972 0.552972
0.554894 0.554894 0.554894
0.557092 0.557092 0.557092
0.567681 0.567681 0.567681
0.582361 0.582361 0.582361
0.581598 0.581598 0.581598
0.581842 0.581842 0.581842
0.583337 0.583337 0.583337
0.585870 0.585870 0.585870
0.589471 0.589471 0.589471
0.594141 0.594141 0.594141
0.600031 0.600031 0.600031
0.606958 0.606958 0.606958
0.619379 0.619379 0.619379
0.637781 0.637781 0.637781
0.656611 0.656611 0.656611
0.676051 0.676051 0.676051
0.561730 0.561730 0.561730
0.562097 0.562097 0.562097
0.577447 0.577447 0.577447
0.578058 0.578058 0.578058
0.579126 0.579126 0.579126
0.580621 0.580621 0.580621
0.582757 0.582757 0.582757
0.585565 0.585565 0.585565
0.589319 0.589319 0.589319
0.593835 0.593835 0.593835
0.595209 0.595209 0.595209
0.596704 0.596704 0.596704
0.598047 0.598047 0.598047
0.599237 0.599237 0.599237
0.600244 0.600244 0.600244
0.601160 0.601160 0.601160
0.601740 0.601740 0.601740
0.602533 0.602533 0.602533
0.603479 0.603479 0.603479
0.610346 0.610346 0.610346
0.627253 0.627253 0.627253
0.627283 0.627283 0.627283
0.628138 0.628138 0.628138
0.629938 0.629938 0.629938
0.632410 0.632410 0.632410
0.635859 0.635859 0.635859
0.640253 0.640253 0.640253
0.645747 0.645747 0.645747
0.652644 0.652644 0.652644
0.660761 0.660761 0.660761
0.675776 0.675776 0.675776
0.693965 0.693965 0.693965
0.603662 0.603662 0.603662
0.605035 0.605035 0.605035
0.606683 0.606683 0.606683
0.608453 0.608453 0.608453
0.610346 0.610346 0.610346
0.611963 0.611963 0.611963
0.613855 0.613855 0.613855
0.616083 0.616083 0.616083
0.619074 0.619074 0.619074
0.622675 0.622675 0.622675
0.625422 0.625422 0.625422
0.626612 0.626612 0.626612
0.627680 0.627680 0.627680
0.628809 0.628809 0.628809
0.629755 0.629755 0.629755
0.630701 0.630701 0.630701
0.631586 0.631586 0.631586
0.632563 0.632563 0.632563
0.633783 0.633783 0.633783
0.635370 0.635370 0.635370
0.640314 0.640314 0.640314
0.659602 0.659602 0.659602
0.660700 0.660700 0.660700
0.662531 0.662531 0.662531
0.665034 0.665034 0.665034
0.668177 0.668177 0.668177
0.672267 0.672267 0.672267
0.677363 0.677363 0.677363
0.683711 0.683711 0.683711
0.691371 0.691371 0.691371
0.700374 0.700374 0.700374
0.710597 0.710597 0.710597
0.635035 0.635035 0.635035
0.636286 0.636286 0.636286
0.637812 0.637812 0.637812
0.639460 0.639460 0.639460
0.641047 0.641016 0.641016
0.642481 0.642481 0.642481
0.644068 0.644068 0.644068
0.645899 0.645899 0.645899
0.648219 0.648219 0.648219
0.651026 0.651026 0.651026
0.654505 0.654505 0.654505
0.655573 0.655573 0.655573
0.656580 0.656580 0.656580
0.657527 0.657496 0.657496
0.658503 0.658503 0.658503
0.659419 0.659419 0.659419
0.660304 0.660304 0.660304
0.661280 0.661280 0.661280
0.662440 0.662440 0.662440
0.663905 0.663905 0.663905
0.665553 0.665553 0.665553
0.668757 0.668757 0.668757
0.687343 0.687343 0.687343
0.691676 0.691676 0.691676
0.694179 0.694179 0.694179
0.697292 0.697292 0.697292
0.701198 0.701198 0.701198
0.706081 0.706081 0.706081
0.712154 0.712154 0.712154
0.719478 0.719478 0.719478
0.728084 0.728084 0.728084
0.737850 0.737850 0.737850
0.664424 0.664424 0.664424
0.665461 0.665461 0.665461
0.666712 0.666712 0.666712
0.668086 0.668086 0.668086
0.669429 0.669429 0.669429
0.670619 0.670619 0.670619
0.671992 0.671992 0.671992
0.673518 0.673518 0.673518
0.675502 0.675502 0.675502
0.677852 0.677852 0.677852
0.680751 0.680751 0.680751
0.682979 0.682979 0.682979
0.683833 0.683833 0.683833
0.684718 0.684718 0.684718
0.685695 0.685695 0.685695
0.686702 0.686702 0.686702
0.687984 0.687984 0.687984
0.689418 0.689418 0.689418
0.691127 0.691127 0.691127
0.693141 0.693141 0.693141
0.695521 0.695521 0.695521
0.698054 0.698054 0.698054
0.700710 0.700710 0.700710
0.718349 0.718349 0.718349
0.726101 0.726101 0.726101
0.729641 0.729641 0.729641
0.733852 0.733852 0.733852
0.738918 0.738918 0.738918
0.745022 0.745022 0.745022
0.752193 0.752193 0.752193
0.760464 0.760464 0.760464
0.769741 0.769741 0.769741
0.698207 0.698207 0.698207
0.698665 0.698665 0.698665
0.699092 0.699092 0.699092
0.699641 0.699641 0.699641
0.700252 0.700252 0.700252
0.700923 0.700923 0.700923
0.701808 0.701808 0.701808
0.703090 0.703090 0.703090
0.704738 0.704738 0.704738
0.706813 0.706813 0.706813
0.709316 0.709316 0.709316
0.712154 0.712154 0.712154
0.713191 0.713191 0.713191
0.714015 0.714015 0.714015
0.714870 0.714870 0.714870
0.715755 0.715755 0.715755
0.716732 0.716732 0.716732
0.717891 0.717891 0.717891
0.719142 0.719142 0.719142
0.720699 0.720699 0.720699
0.722438 0.722438 0.722438
0.724361 0.724361 0.724361
0.726436 0.726436 0.726436
0.728511 0.728511 0.728511
0.743557 0.743557 0.743557
0.753536 0.753536 0.753536
0.757809 0.757809 0.757809
0.762844 0.762844 0.762844
0.768795 0.768795 0.768795
0.775662 0.775662 0.775662
0.783474 0.783474 0.783474
0.792081 0.792081 0.792081
0.724422 0.724422 0.724422
0.724758 0.724758 0.724758
0.725185 0.725185 0.725185
0.725673 0.725673 0.725673
0.726223 0.726223 0.726223
0.726864 0.726864 0.726864
0.727687 0.727687 0.727687
0.728817 0.728817 0.728817
0.730282 0.730282 0.730282
0.732082 0.732082 0.732082
0.734249 0.734249 0.734249
0.736751 0.736751 0.736751
0.738796 0.738796 0.738796
0.739651 0.739651 0.739651
0.740536 0.740536 0.740536
0.741512 0.741512 0.741512
0.742611 0.742611 0.742611
0.743832 0.743832 0.743832
0.745174 0.745174 0.745174
0.746700 0.746700 0.746700
0.748379 0.748379 0.748379
0.750271 0.750271 0.750271
0.752285 0.752285 0.752285
0.754452 0.754452 0.754452
0.753628 0.753628 0.753628
0.766537 0.766537 0.766537
0.778500 0.778500 0.778500
0.783444 0.783444 0.783444
0.789242 0.789242 0.789242
0.795804 0.795804 0.795804
0.803311 0.803311 0.803311
0.811612 0.811612 0.811612
0.753017 0.753017 0.753017
0.753536 0.753536 0.753536
0.753872 0.753872 0.753872
0.754086 0.754086 0.754086
0.754208 0.754208 0.754208
0.754360 0.754360 0.754360
0.754574 0.754574 0.754574
0.755062 0.755062 0.755062
0.755856 0.755856 0.755856
0.756985 0.756985 0.756985
0.758389 0.758389 0.758389
0.760220 0.760220 0.760220
0.762295 0.762295 0.762295
0.763058 0.763058 0.763058
0.763455 0.763455 0.763455
0.763973 0.763973 0.763973
0.764645 0.764645 0.764645
0.765621 0.765621 0.765621
0.766842 0.766842 0.766842
0.768429 0.768429 0.768429
0.770199 0.770199 0.770199
0.772061 0.772061 0.772061
0.773892 0.773892 0.773892
0.775631 0.775631 0.775631
0.777310 0.777310 0.777310
0.778927 0.778927 0.778927
0.789639 0.789639 0.789639
0.802701 0.802701 0.802701
0.808011 0.808011 0.808011
0.814145 0.814145 0.814145
0.821134 0.821134 0.821134
0.828946 0.828946 0.828946
0.775418 0.775418 0.775418
0.775875 0.775875 0.775875
0.776272 0.776272 0.776272
0.776577 0.776577 0.776577
0.776883 0.776883 0.776883
0.777310 0.777310 0.777310
0.777859 0.777859 0.777859
0.778653 0.778653 0.778653
0.779721 0.779721 0.779721
0.781033 0.781033 0.781033
0.782528 0.782528 0.782528
0.784298 0.784298 0.784298
0.786160 0.786160 0.786160
0.787716 0.787716 0.787716
0.788144 0.788144 0.788144
0.788602 0.788602 0.788602
0.789181 0.789181 0.789181
0.790005 0.790005 0.790005
0.791104 0.791104 0.791104
0.792477 0.792477 0.792477
0.794064 0.794064 0.794064
0.795804 0.795804 0.795804
0.797574 0.797574 0.797574
0.799374 0.799374 0.799374
0.801114 0.801114 0.801114
0.802853 0.802853 0.802853
0.804654 0.804654 0.804654
0.813626 0.813626 0.813626
0.827695 0.827695 0.827695
0.833494 0.833494 0.833494
0.839994 0.839994 0.839994
0.847349 0.847349 0.847349
0.799283 0.799283 0.799283
0.799527 0.799527 0.799527
0.799710 0.799710 0.799710
0.799924 0.799924 0.799924
0.800137 0.800137 0.800137
0.800443 0.800443 0.800443
0.800900 0.800900 0.800900
0.801511 0.801511 0.801511
0.802335 0.802335 0.802335
0.803403 0.803403 0.803403
0.804654 0.804654 0.804654
0.806180 0.806180 0.806180
0.807828 0.807828 0.807828
0.809628 0.809628 0.809628
0.810361 0.810361 0.810361
0.810819 0.810819 0.810819
0.811337 0.811337 0.811337
0.812070 0.812070 0.812070
0.813046 0.813046 0.813046
0.814298 0.814298 0.814298
0.815763 0.815763 0.815763
0.817350 0.817350 0.817350
0.818906 0.818906 0.818906
0.820523 0.820523 0.820523
0.822110 0.822110 0.822110
0.823667 0.823667 0.823667
0.825315 0.825315 0.825315
0.826993 0.826993 0.826993
0.834318 0.834318 0.834318
0.847959 0.847959 0.847959
0.855314 0.855314 0.855314
0.862242 0.862242 0.862242
0.820798 0.820798 0.820798
0.820951 0.820951 0.820951
0.821164 0.821164 0.821164
0.821408 0.821408 0.821408
0.821775 0.821775 0.821775
0.822354 0.822354 0.822354
0.823239 0.823239 0.823239
0.824369 0.824369 0.824369
0.825803 0.825803 0.825803
0.827481 0.827481 0.827481
0.829343 0.829343 0.829343
0.831327 0.831327 0.831327
0.833371 0.833371 0.833371
0.835416 0.835416 0.835416
0.837095 0.837095 0.837095
0.837766 0.837766 0.837766
0.838407 0.838407 0.838407
0.839139 0.839139 0.839139
0.840085 0.840085 0.840085
0.841215 0.841215 0.841215
0.842527 0.842527 0.842527
0.843900 0.843900 0.843900
0.845274 0.845274 0.845274
0.846677 0.846677 0.846677
0.848051 0.848051 0.848051
0.849424 0.849424 0.849424
0.850828 0.850828 0.850828
0.852323 0.852323 0.852323
0.854002 0.854002 0.854002
0.859739 0.859739 0.859739
0.872221 0.872221 0.872221
0.880369 0.880369 0.880369
0.846159 0.846159 0.846159
0.846189 0.846189 0.846189
0.846220 0.846220 0.846220
0.846281 0.846281 0.846281
0.846433 0.846433 0.846433
0.846677 0.846677 0.846677
0.847105 0.847105 0.847105
0.847684 0.847684 0.847684
0.848447 0.848447 0.848447
0.849393 0.849393 0.849393
0.850492 0.850492 0.850492
0.851774 0.851774 0.851774
0.853178 0.853178 0.853178
0.854643 0.854643 0.854643
