luts/旅拍胶片01.cube
# Created by Adobe Lightroom plugin Export LUT (1.24.0)
# www.johnrellis.com/lightroom/exportlut.htm
# Preset: 旅拍胶片-素材江湖01
# Color profile: E:\lut插件\exportlut.1.24\exportlut.lrplugin\color profiles\Rec709gamma2.4.icc
LUT_3D_SIZE 5
DOMAIN_MIN 0.000000 0.000000 0.000000
DOMAIN_MAX 0.903226 0.903226 0.903226
0.093599 0.091157 0.077577
0.132753 0.088869 0.080079
0.308293 0.000000 0.084504
0.636500 0.000000 0.082124
0.920562 0.000000 0.105165
0.103182 0.116915 0.087251
0.147066 0.123690 0.070832
0.362676 0.115084 0.059663
0.671931 0.000000 0.035615
0.937316 0.000000 0.094514
0.149081 0.243626 0.118379
0.181003 0.250401 0.102968
0.396735 0.291966 0.000000
0.795499 0.395392 0.000000
0.966888 0.344213 0.000000
0.261784 0.501274 0.190860
0.290776 0.506035 0.168826
0.433021 0.521263 0.000000
0.713497 0.549859 0.000000
0.964599 0.638239 0.000000
0.488685 0.761898 0.426368
0.501457 0.763882 0.410254
0.559350 0.764584 0.319890
0.724819 0.774136 0.152193
0.925475 0.768856 0.004089
0.091585 0.111727 0.124880
0.138674 0.102388 0.128267
0.298680 0.077272 0.124086
0.615412 0.000000 0.123384
0.915831 0.000000 0.095613
0.109285 0.143832 0.127352
0.153689 0.144625 0.129183
0.330510 0.140261 0.130465
0.651362 0.000000 0.120607
0.928008 0.000000 0.084291
0.171511 0.276829 0.159426
0.206912 0.270268 0.163058
0.387854 0.297398 0.103334
0.757412 0.387823 0.033356
0.962615 0.376379 0.000000
0.295171 0.518822 0.248081
0.327367 0.515740 0.251743
0.441138 0.530449 0.167727
0.707820 0.555077 0.000000
0.960479 0.644312 0.005432
0.503227 0.765743 0.468727
0.518975 0.764248 0.468910
0.576318 0.771878 0.403174
0.727504 0.779995 0.223026
0.927276 0.773770 0.089448
0.000000 0.218784 0.338415
0.056397 0.210422 0.339818
0.342168 0.145846 0.341314
0.635889 0.000000 0.320378
0.866758 0.000000 0.320317
0.000000 0.261845 0.334905
0.154696 0.258335 0.333867
0.355810 0.201877 0.339117
0.632013 0.147066 0.320073
0.862821 0.178988 0.331273
0.073487 0.381994 0.339971
0.199893 0.380133 0.338903
0.409552 0.380041 0.345159
0.657099 0.397406 0.358770
0.895537 0.435401 0.386816
0.350896 0.583124 0.412177
0.394812 0.578759 0.418677
0.488319 0.565209 0.427955
0.688716 0.587579 0.344305
0.921538 0.700160 0.509056
0.529656 0.782010 0.582879
0.546807 0.780575 0.586419
0.604761 0.774380 0.597650
0.709926 0.784390 0.484169
0.910887 0.782071 0.346258
0.000000 0.423194 0.674922
0.000000 0.421912 0.676081
0.300084 0.380652 0.674647
0.597925 0.290867 0.665644
0.861540 0.280858 0.643214
0.000000 0.457008 0.667720
0.003143 0.455024 0.666621
0.336522 0.417670 0.666468
0.600549 0.334783 0.657954
0.857633 0.331884 0.640742
0.138613 0.539330 0.658412
0.246952 0.538384 0.655360
0.438575 0.537560 0.650843
0.615351 0.470314 0.647028
0.848386 0.482399 0.642145
0.272007 0.667414 0.665583
0.322942 0.664820 0.663203
0.467567 0.659754 0.660792
0.649287 0.654658 0.662348
0.842710 0.683711 0.690700
0.513512 0.817319 0.729305
0.536156 0.816159 0.731350
0.618830 0.811948 0.742489
0.709957 0.800870 0.752590
0.864347 0.807736 0.675776
0.396124 0.668269 0.878782
0.428443 0.669215 0.878416
0.530816 0.671992 0.877928
0.620844 0.632074 0.879362
0.786099 0.562432 0.880156
0.420050 0.681788 0.876188
0.448280 0.682490 0.876036
0.540124 0.683650 0.875822
0.627039 0.647425 0.877226
0.786099 0.580835 0.878416
0.447456 0.719173 0.874968
0.477058 0.720546 0.874113
0.569970 0.725460 0.872465
0.651362 0.701961 0.873808
0.790188 0.646662 0.876402
0.499336 0.783230 0.876646
0.516655 0.782498 0.876280
0.584558 0.781216 0.875914
0.696895 0.782803 0.875883
0.801999 0.741512 0.877531
0.560906 0.859617 0.881682
0.573907 0.859037 0.881559
0.627558 0.857664 0.881926
0.714717 0.854337 0.881804
0.825528 0.848478 0.880674
