luts/旅拍胶片03.cube
# Created by Adobe Lightroom plugin Export LUT (1.24.0)
# www.johnrellis.com/lightroom/exportlut.htm
# Preset: 旅拍胶片-素材江湖03
# Color profile: E:\lut插件\exportlut.1.24\exportlut.lrplugin\color profiles\Rec709gamma2.4.icc
LUT_3D_SIZE 32
DOMAIN_MIN 0.0 0.0 0.0
DOMAIN_MAX 1.0 1.0 1.0
0.011414 0.006409 0.004547
0.011414 0.006409 0.004547
0.011414 0.006409 0.004547
0.012696 0.007385 0.004395
0.025879 0.007019 0.004181
0.068727 0.006683 0.003388
0.100740 0.008698 0.003052
0.119997 0.013458 0.001099
0.141543 0.016022 0.001129
0.167239 0.015442 0.000000
0.197269 0.008209 0.000000
0.232700 0.000000 0.000000
0.273899 0.000000 0.000000
0.320958 0.000000 0.000000
0.372107 0.000000 0.000000
0.425635 0.000000 0.000000
0.480201 0.000000 0.000000
0.534478 0.000000 0.000000
0.588006 0.000000 0.000000
0.639979 0.000000 0.000000
0.688228 0.000000 0.000000
0.736599 0.000000 0.000000
0.780453 0.000000 0.000000
0.820401 0.000000 0.000000
0.856718 0.000000 0.000000
0.889921 0.000000 0.000000
0.920623 0.000000 0.000000
0.949218 0.000000 0.000000
0.975860 0.000000 0.000000
1.000000 0.000000 0.000000
1.000000 0.000000 0.000000
1.000000 0.141878 0.000000
0.011414 0.006409 0.004547
0.011414 0.006409 0.004547
0.011414 0.006409 0.004547
0.012696 0.007385 0.004395
0.025879 0.007019 0.004181
0.070008 0.007660 0.003235
0.100526 0.009918 0.002899
0.119814 0.014649 0.000946
0.140597 0.017670 0.000977
0.165835 0.017517 0.000000
0.195926 0.010529 0.000000
0.231296 0.000000 0.000000
0.272007 0.000000 0.000000
0.318547 0.000000 0.000000
0.369512 0.000000 0.000000
0.422797 0.000000 0.000000
0.477394 0.000000 0.000000
0.531640 0.000000 0.000000
0.585229 0.000000 0.000000
0.637324 0.000000 0.000000
0.685451 0.000000 0.000000
0.733364 0.000000 0.000000
0.776638 0.000000 0.000000
0.816251 0.000000 0.000000
0.852628 0.000000 0.000000
0.885924 0.000000 0.000000
0.916869 0.000000 0.000000
0.945800 0.000000 0.000000
0.972808 0.000000 0.000000
0.998047 0.000000 0.000000
1.000000 0.000000 0.000000
1.000000 0.133852 0.000000
0.010712 0.007599 0.004395
0.010712 0.007599 0.004395
0.010712 0.007599 0.004395
0.014679 0.007141 0.004395
0.028443 0.008972 0.003876
0.071839 0.010834 0.002777
0.100649 0.015473 0.002136
0.119844 0.020203 0.001312
0.140658 0.023255 0.000214
0.166018 0.021881 0.000000
0.195804 0.015137 0.000000
0.230747 0.000000 0.000000
0.271550 0.000000 0.000000
0.317876 0.000000 0.000000
0.368475 0.000000 0.000000
0.421759 0.000000 0.000000
0.475898 0.000000 0.000000
0.530205 0.000000 0.000000
0.583429 0.000000 0.000000
0.635492 0.000000 0.000000
0.683986 0.000000 0.000000
0.731716 0.000000 0.000000
0.774777 0.000000 0.000000
0.814298 0.000000 0.000000
0.850462 0.000000 0.000000
0.883757 0.000000 0.000000
0.914824 0.000000 0.000000
0.943877 0.000000 0.000000
0.971069 0.000000 0.000000
0.996460 0.000000 0.000000
1.000000 0.000000 0.000000
1.000000 0.134707 0.000000
0.011261 0.009766 0.004089
0.011261 0.009766 0.004089
0.011261 0.009766 0.004089
0.016510 0.010315 0.003906
0.033539 0.012879 0.003235
0.077790 0.019104 0.002655
0.101778 0.025177 0.000732
0.120058 0.031342 0.000000
0.141634 0.033936 0.000000
0.167117 0.032349 0.000000
0.196658 0.025605 0.000000
0.231785 0.009369 0.000000
0.272190 0.000000 0.000000
0.318364 0.000000 0.000000
0.368170 0.000000 0.000000
0.420661 0.000000 0.000000
0.474311 0.000000 0.000000
0.527855 0.000000 0.000000
0.581018 0.000000 0.000000
0.632715 0.000000 0.000000
0.681025 0.000000 0.000000
0.728542 0.000000 0.000000
0.771023 0.000000 0.000000
0.810513 0.000000 0.000000
0.847257 0.000000 0.000000
0.881224 0.000000 0.000000
0.912840 0.000000 0.000000
0.942412 0.000000 0.000000
0.970001 0.000000 0.000000
0.995544 0.000000 0.000000
1.000000 0.000000 0.000000
1.000000 0.144137 0.000000
0.011505 0.020905 0.004822
0.011505 0.020905 0.004822
0.015473 0.020478 0.004822
0.022004 0.021973 0.004486
0.042298 0.025299 0.003632
0.082338 0.031739 0.001923
0.103090 0.039246 0.001007
0.121645 0.045197 0.000000
0.142855 0.047791 0.000000
0.168032 0.046204 0.000000
0.197635 0.039216 0.000000
0.232517 0.024201 0.000000
0.272465 0.000000 0.000000
0.318090 0.000000 0.000000
0.367742 0.000000 0.000000
0.420386 0.000000 0.000000
0.473823 0.000000 0.000000
0.527337 0.000000 0.000000
0.580255 0.000000 0.000000
0.631861 0.000000 0.000000
0.681086 0.000000 0.000000
0.727657 0.000000 0.000000
0.769650 0.000000 0.000000
0.809049 0.000000 0.000000
0.845853 0.000000 0.000000
0.879973 0.000000 0.000000
0.911650 0.000000 0.000000
0.941131 0.000000 0.000000
0.968688 0.000000 0.000000
0.994232 0.000000 0.000000
1.000000 0.057679 0.000000
1.000000 0.159670 0.000000
0.013123 0.047547 0.005707
0.015106 0.047303 0.005676
0.020356 0.047852 0.005524
0.029999 0.046723 0.006592
0.053529 0.050813 0.005585
0.086336 0.053346 0.003388
0.104707 0.059876 0.002625
0.123812 0.065339 0.001617
0.145327 0.068696 0.000000
0.170932 0.066438 0.000000
0.200748 0.060975 0.000000
0.235355 0.047700 0.000061
0.275364 0.025544 0.000000
0.321019 0.000000 0.000000
0.370581 0.000000 0.000000
0.422431 0.000000 0.000000
0.475837 0.000000 0.000000
0.529259 0.000000 0.000000
0.581994 0.000000 0.000000
0.633143 0.000000 0.000000
0.683070 0.000000 0.000000
0.728878 0.000000 0.000000
0.791745 0.000000 0.000000
0.830503 0.000000 0.000000
0.865751 0.000000 0.000000
0.898192 0.000000 0.000000
0.928069 0.000000 0.000000
0.955627 0.000000 0.000000
0.981231 0.000000 0.000000
1.000000 0.095583 0.000000
1.000000 0.163149 0.000000
1.000000 0.211276 0.000000
0.028382 0.080873 0.011933
0.030396 0.080720 0.011933
0.035645 0.081056 0.011749
0.047242 0.080201 0.012818
0.066682 0.080934 0.013428
0.090578 0.084138 0.010925
0.107515 0.086854 0.009339
0.128389 0.088899 0.008301
0.151644 0.090364 0.006653
0.178164 0.091035 0.004364
0.208896 0.089418 0.002564
0.244816 0.083558 0.001831
0.285863 0.065980 0.001831
0.331975 0.030243 0.000122
0.381659 0.000000 0.000000
0.432959 0.000000 0.000000
0.485786 0.000000 0.000000
0.538231 0.000000 0.000000
0.590173 0.000000 0.000000
0.642054 0.000000 0.000000
0.693965 0.000000 0.000000
0.740749 0.000000 0.000000
0.783719 0.000000 0.000000
0.823880 0.000000 0.000000
0.860685 0.000000 0.000000
0.893828 0.000000 0.000000
0.924102 0.000000 0.000000
0.951873 0.000000 0.000000
0.977630 0.049256 0.000000
1.000000 0.140871 0.000000
1.000000 0.188907 0.000000
1.000000 0.229648 0.000000
0.046448 0.098634 0.020630
0.048432 0.098573 0.020630
0.053681 0.098756 0.020447
0.065309 0.098299 0.021546
0.080018 0.098421 0.023438
0.093904 0.099947 0.022248
0.109194 0.103243 0.018769
0.128969 0.105409 0.016297
0.155001 0.106691 0.015412
0.182406 0.108186 0.012482
0.213718 0.108156 0.009857
0.249363 0.106325 0.006073
0.290227 0.100954 0.003143
0.335668 0.091646 0.000183
0.384680 0.061677 0.000000
0.435279 0.007660 0.000000
0.487160 0.000000 0.000000
0.539208 0.000000 0.000000
0.590753 0.000000 0.000000
0.644190 0.000000 0.000000
0.693751 0.000000 0.000000
0.739132 0.000000 0.000000
0.781277 0.000000 0.000000
0.820829 0.000000 0.000000
0.857359 0.000000 0.000000
0.890501 0.000000 0.000000
0.920745 0.000000 0.000000
0.948638 0.085176 0.000000
0.974487 0.141421 0.000000
0.998413 0.182589 0.000000
1.000000 0.219059 0.000000
1.000000 0.253178 0.000000
0.059052 0.117433 0.030823
0.061036 0.117372 0.030823
0.066987 0.117220 0.030793
0.075898 0.117220 0.031739
0.088258 0.116945 0.032654
0.097047 0.117403 0.034211
0.111086 0.120974 0.031403
0.130465 0.125154 0.026459
0.155520 0.127840 0.022400
0.187625 0.128878 0.022248
0.219852 0.130678 0.017060
0.256596 0.130648 0.011933
0.297459 0.128298 0.005432
0.342138 0.122988 0.000000
0.390112 0.114717 0.000000
0.439979 0.102174 0.000000
0.491005 0.081239 0.000000
0.542046 0.025666 0.000000
0.595270 0.000000 0.000000
0.647059 0.000000 0.000000
0.694820 0.000000 0.000000
0.738766 0.000000 0.000000
0.780148 0.000000 0.000000
0.819028 0.000000 0.000000
0.855100 0.000702 0.000000
0.888029 0.089967 0.000000
0.918212 0.128511 0.000000
0.946044 0.161227 0.000000
0.971893 0.191867 0.000000
0.995789 0.221439 0.000000
1.000000 0.250919 0.000000
1.000000 0.280003 0.000000
0.065003 0.139986 0.041016
0.066682 0.139925 0.042145
0.070649 0.139864 0.042145
0.081514 0.139773 0.043061
0.091218 0.139559 0.042817
0.100832 0.139376 0.044678
0.113680 0.141573 0.043488
0.132326 0.146242 0.039887
0.156832 0.151583 0.033539
0.187289 0.155215 0.026917
0.226200 0.155947 0.025544
0.263676 0.158022 0.017182
0.305577 0.158297 0.008423
0.350408 0.156222 0.000000
0.397436 0.152132 0.000000
0.445258 0.146273 0.000000
0.495918 0.139376 0.000000
0.548852 0.132052 0.000000
0.601007 0.124453 0.000000
0.650843 0.118441 0.000000
0.696773 0.114595 0.000000
0.739040 0.116030 0.000000
0.778775 0.122774 0.000000
0.816403 0.134615 0.000000
0.851469 0.150210 0.000000
0.883970 0.168124 0.000000
0.913939 0.188785 0.000000
0.941924 0.210269 0.000000
0.968017 0.233402 0.000000
0.992248 0.257328 0.000000
1.000000 0.282048 0.000000
1.000000 0.307469 0.000000
0.064179 0.166079 0.050660
0.066163 0.166049 0.050629
0.073396 0.166079 0.050446
0.084443 0.165988 0.051392
0.093812 0.166140 0.051972
0.105074 0.166232 0.053468
0.117433 0.166140 0.056092
0.134890 0.170993 0.051545
0.158541 0.177157 0.043549
0.189822 0.184085 0.034058
0.226139 0.188663 0.023438
0.272770 0.189761 0.022461
0.315404 0.192233 0.010651
0.360662 0.193179 0.000000
0.407538 0.192203 0.000000
0.456153 0.190341 0.000000
0.505638 0.187503 0.000000
0.555566 0.184787 0.000000
0.605890 0.183444 0.000000
0.653803 0.182742 0.000000
0.698085 0.183291 0.000000
0.739010 0.186374 0.000000
0.778042 0.191989 0.000000
0.815061 0.200381 0.000000
0.849638 0.211063 0.000000
0.881712 0.224369 0.000000
0.911559 0.239322 0.000000
0.939391 0.255894 0.000000
0.965362 0.274174 0.000000
0.989532 0.294133 0.000000
1.000000 0.315221 0.000000
1.000000 0.337316 0.027955
0.055329 0.197604 0.059968
0.055329 0.197604 0.059968
0.066224 0.197574 0.060914
0.079103 0.197818 0.061524
0.093568 0.197818 0.062074
0.106355 0.197940 0.064546
0.120516 0.198184 0.066682
0.137514 0.200198 0.067536
0.161166 0.207156 0.058350
0.191073 0.214969 0.046265
0.228885 0.223880 0.030976
0.272648 0.229404 0.015442
0.335485 0.237430 0.013764
0.385473 0.242344 0.000000
0.435950 0.245396 0.000000
0.486275 0.246921 0.000000
0.535576 0.247166 0.000000
0.584009 0.246677 0.000000
0.630091 0.245792 0.000000
0.674830 0.247471 0.000000
0.716701 0.249851 0.000000
0.755550 0.253513 0.000000
0.792630 0.259007 0.000000
0.827481 0.266148 0.000000
0.859983 0.274907 0.000000
0.890196 0.284855 0.000000
0.918212 0.296391 0.000000
0.944457 0.309056 0.000000
0.968933 0.323369 0.000000
0.991821 0.339147 0.000000
1.000000 0.356207 0.011872
1.000000 0.375097 0.093599
0.022858 0.238590 0.074037
0.026825 0.238560 0.074006
0.034791 0.238468 0.073976
0.056886 0.238437 0.074708
0.086366 0.238163 0.076692
0.104250 0.238041 0.078828
0.122133 0.238071 0.080812
0.141115 0.238102 0.083284
0.164279 0.243595 0.078981
0.194491 0.252323 0.065827
0.232639 0.262181 0.047181
0.280766 0.274662 0.022522
0.333623 0.283085 0.001587
0.393622 0.286137 0.004761
0.448463 0.292424 0.000000
0.497383 0.295109 0.000000
0.545464 0.296544 0.000000
0.591730 0.297215 0.000000
0.635554 0.296849 0.000000
0.676112 0.296300 0.000000
0.714229 0.296056 0.000000
0.752438 0.299535 0.000000
0.788815 0.304204 0.000000
0.823331 0.310307 0.000000
0.855558 0.317662 0.000000
0.885740 0.326024 0.000000
0.913939 0.335882 0.000000
0.940185 0.346929 0.000000
0.964843 0.359228 0.000000
0.987915 0.372930 0.000000
1.000000 0.387976 0.057435
1.000000 0.404608 0.112032
0.000000 0.279026 0.086366
0.000000 0.278904 0.085756
0.000000 0.278721 0.086519
0.017731 0.278477 0.087160
0.055451 0.278294 0.088106
0.095277 0.278050 0.089113
0.119203 0.277928 0.090700
0.142306 0.278508 0.092531
0.165988 0.280369 0.094484
0.197391 0.290135 0.088899
0.235691 0.301152 0.077852
0.281834 0.313725 0.052369
0.336065 0.327153 0.019409
0.392065 0.335576 0.000000
0.451423 0.337133 0.003174
0.507805 0.343877 0.000000
0.554528 0.346014 0.000000
0.599084 0.346929 0.000000
0.641016 0.346960 0.000000
0.679957 0.346380 0.000000
0.716518 0.345525 0.000000
0.751553 0.345586 0.000000
0.786252 0.348119 0.000000
0.820371 0.353460 0.000000
0.852293 0.359777 0.000000
0.882322 0.366735 0.000000
0.910369 0.375158 0.000000
0.936553 0.384497 0.000000
0.961151 0.395148 0.000000
0.984161 0.407050 0.026551
1.000000 0.420325 0.098634
1.000000 0.435248 0.132326
0.000000 0.324376 0.097383
0.000000 0.324285 0.097414
0.000000 0.324193 0.097780
0.000000 0.323888 0.098207
0.013886 0.323735 0.099123
0.083864 0.323491 0.100282
0.116121 0.323583 0.101778
0.144137 0.323888 0.104036
0.171481 0.324559 0.106722
0.201816 0.329839 0.106050
0.239750 0.340642 0.099763
0.284337 0.352941 0.091127
0.335515 0.366094 0.070588
0.392462 0.379675 0.031067
0.449042 0.387610 0.000000
0.506493 0.387945 0.023713
0.563561 0.395331 0.000000
0.606561 0.396612 0.000000
0.646418 0.396368 0.000000
0.683986 0.395605 0.000000
0.719417 0.394568 0.000000
0.753567 0.394324 0.000000
0.786526 0.394751 0.000000
0.817960 0.395697 0.000000
0.849332 0.400397 0.000000
0.878996 0.406409 0.000000
0.906920 0.413550 0.000000
0.933196 0.421820 0.000000
0.957824 0.431281 0.012024
0.980926 0.441932 0.090944
1.000000 0.454231 0.125734
1.000000 0.467750 0.155825
0.000000 0.371008 0.113313
0.000000 0.371038 0.113252
0.000000 0.370886 0.113283
0.000000 0.370886 0.113985
0.000000 0.370642 0.114748
0.068482 0.370764 0.116030
0.116915 0.370825 0.117769
0.149630 0.371344 0.120119
0.180575 0.371984 0.123537
0.209964 0.372839 0.126772
0.246403 0.382025 0.123018
0.289311 0.393286 0.117159
0.336858 0.405402 0.108949
0.389685 0.418036 0.097383
0.447364 0.430945 0.073091
0.502495 0.437598 0.039246
0.556909 0.436683 0.078553
0.612360 0.443732 0.070405
0.650721 0.443671 0.033600
0.686946 0.442756 0.000214
0.721859 0.441993 0.000000
0.755642 0.441444 0.000000
0.787930 0.441688 0.000000
0.818784 0.442206 0.000000
0.848142 0.443397 0.000000
0.876524 0.445869 0.000000
0.904265 0.452125 0.000000
0.930358 0.459144 0.013733
0.954772 0.467262 0.089418
0.977539 0.476631 0.121492
0.998657 0.487190 0.150881
1.000000 0.499184 0.178805
0.000000 0.416571 0.133059
0.000000 0.416388 0.132906
0.000000 0.416388 0.133303
0.000000 0.416480 0.134066
0.000000 0.416266 0.134859
0.080842 0.416083 0.136263
0.124331 0.416144 0.138277
0.158694 0.416480 0.140597
0.190494 0.417060 0.143465
0.221164 0.417548 0.146792
0.253635 0.420874 0.148745
0.294408 0.431342 0.144594
0.339544 0.443030 0.139437
0.389319 0.455024 0.132662
0.442634 0.467414 0.123384
0.500084 0.480049 0.109499
0.553002 0.485878 0.100923
0.602014 0.482826 0.118959
0.655726 0.489754 0.125246
0.690730 0.488685 0.114321
0.724788 0.487922 0.103456
0.757748 0.487343 0.093416
0.789242 0.487190 0.084688
0.819486 0.487160 0.070100
0.848234 0.487831 0.060121
0.875700 0.489204 0.056458
0.901915 0.491188 0.059602
0.927306 0.495705 0.093538
0.951476 0.502953 0.124269
0.974029 0.511040 0.150790
0.994934 0.520500 0.177493
1.000000 0.531182 0.204318
0.000000 0.462196 0.157870
0.000000 0.462379 0.158145
0.000000 0.473304 0.165316
0.000000 0.473213 0.166140
0.051728 0.473091 0.167025
0.112001 0.472908 0.168032
0.148409 0.472755 0.169924
0.181491 0.472755 0.172244
0.213077 0.472908 0.174990
0.243778 0.473304 0.178592
0.274357 0.473701 0.182528
0.311437 0.480629 0.182437
0.354162 0.491066 0.179171
0.400793 0.501732 0.175051
0.450477 0.512474 0.169650
0.503014 0.523430 0.163149
0.557275 0.533989 0.155123
0.606134 0.538079 0.150607
0.649531 0.532647 0.166812
0.700374 0.538994 0.178073
0.732631 0.537346 0.170047
0.764004 0.536095 0.163210
0.793973 0.535088 0.158236
0.822782 0.534417 0.154757
0.850156 0.533837 0.151705
0.876402 0.533837 0.150393
0.901396 0.534447 0.150942
0.925353 0.535943 0.153445
0.948241 0.538659 0.158724
0.970336 0.545006 0.180240
0.990845 0.553277 0.205447
1.000000 0.562676 0.230472
0.000000 0.509941 0.188937
0.000000 0.510979 0.189548
0.000000 0.512047 0.190677
0.055451 0.512902 0.191714
0.107149 0.513542 0.193332
0.139162 0.513542 0.194736
0.169711 0.513512 0.196506
0.199710 0.513329 0.198611
0.229068 0.513237 0.201083
0.259281 0.513420 0.204623
0.288762 0.513603 0.208347
0.319188 0.514611 0.212467
0.359350 0.523827 0.210819
0.402655 0.533440 0.208560
0.448981 0.543389 0.205722
0.497505 0.553552 0.202304
0.547662 0.563714 0.198062
0.599237 0.574060 0.193332
0.645472 0.577783 0.192233
0.685084 0.571984 0.207980
0.734524 0.578790 0.223941
0.764981 0.577539 0.218173
0.794247 0.576379 0.213718
0.822263 0.575433 0.210208
0.848936 0.574578 0.207858
0.874479 0.574029 0.206882
0.898802 0.574212 0.207156
0.922210 0.574945 0.209476
0.944488 0.576837 0.213748
0.965820 0.579675 0.220127
0.986084 0.584466 0.232029
1.000000 0.592950 0.257328
0.097993 0.550256 0.219394
0.104158 0.551232 0.220462
0.114809 0.552239 0.221592
0.130159 0.553155 0.222934
0.150973 0.553796 0.224430
0.174228 0.553857 0.226017
0.198886 0.553826 0.227543
0.225254 0.553643 0.229618
0.252049 0.553491 0.231998
0.280156 0.553368 0.235080
0.308049 0.553460 0.238712
0.336461 0.553491 0.242832
0.369390 0.557549 0.245090
0.409583 0.566247 0.244327
0.452125 0.575372 0.243595
0.496773 0.584710 0.242191
0.543236 0.594232 0.240391
0.591119 0.603906 0.237949
0.640192 0.613764 0.235904
0.683314 0.617121 0.236912
0.718837 0.610468 0.252354
0.765927 0.616907 0.272557
0.794217 0.615961 0.268070
0.821408 0.614801 0.265141
0.847379 0.613794 0.262669
0.872190 0.612909 0.261479
0.895872 0.612604 0.261204
0.918578 0.612818 0.262791
0.940246 0.614008 0.266697
0.960967 0.616297 0.272465
0.980713 0.619593 0.280400
0.999329 0.623835 0.290776
0.161929 0.589410 0.254124
0.164767 0.590265 0.255192
0.170871 0.591119 0.256138
0.181186 0.591943 0.257847
0.195682 0.592462 0.259190
0.213657 0.592493 0.260472
0.233677 0.592432 0.261906
0.255650 0.592218 0.263706
0.280003 0.592126 0.266392
0.304814 0.592004 0.269047
0.330785 0.591882 0.272374
0.357702 0.591913 0.276677
0.384222 0.591913 0.281163
0.420020 0.598779 0.282200
0.459174 0.607111 0.282506
0.500237 0.615839 0.282750
0.543114 0.624933 0.283177
0.587854 0.634272 0.283268
0.633509 0.643854 0.283726
0.680232 0.653651 0.284764
0.720699 0.657038 0.288884
0.753017 0.650385 0.304723
0.796994 0.656641 0.329778
0.823301 0.656062 0.327214
0.848508 0.655299 0.325444
0.872526 0.654475 0.324193
0.895384 0.654078 0.324376
0.917235 0.654078 0.326268
0.938109 0.654902 0.329595
0.957885 0.656672 0.335546
0.976715 0.659358 0.343297
0.994476 0.662959 0.353277
0.224735 0.632532 0.298375
0.226261 0.632868 0.299107
0.229923 0.633082 0.299626
0.236973 0.633173 0.300206
0.246921 0.633082 0.300786
0.260227 0.632837 0.301946
0.275944 0.632593 0.303197
0.294347 0.632258 0.304784
0.314794 0.632074 0.307073
0.337377 0.631983 0.310063
0.360754 0.631952 0.313359
0.385138 0.631861 0.317357
0.409674 0.631922 0.321630
0.437201 0.633661 0.325505
0.472663 0.641199 0.326665
0.510002 0.649012 0.328161
0.549035 0.657038 0.329473
0.589502 0.665309 0.331121
0.631098 0.673671 0.333043
0.673793 0.682155 0.335058
0.716793 0.690669 0.337102
0.753597 0.693080 0.342351
0.781765 0.685512 0.356481
0.821958 0.690761 0.384192
0.845884 0.689784 0.381689
0.868956 0.689052 0.380529
0.891081 0.688472 0.380438
0.912291 0.688411 0.381476
0.932403 0.688991 0.384833
0.951659 0.690181 0.389624
0.969818 0.692256 0.396490
0.987060 0.695216 0.405646
0.276066 0.668238 0.339971
0.277165 0.668482 0.340337
0.280125 0.668727 0.341009
0.285771 0.668727 0.341711
0.293736 0.668757 0.342657
0.304234 0.668574 0.343450
0.317174 0.668330 0.344823
0.332738 0.668055 0.346258
0.350317 0.667872 0.348516
0.369909 0.667750 0.351476
0.390661 0.667689 0.354498
0.412634 0.667689 0.358373
0.435157 0.667628 0.362615
0.458167 0.667659 0.367346
0.487251 0.672084 0.370672
0.520989 0.679133 0.373053
0.556634 0.686397 0.375677
0.593500 0.693904 0.378576
0.631403 0.701503 0.381445
0.670466 0.709194 0.384680
0.710018 0.716976 0.388190
0.749844 0.724697 0.391913
0.783169 0.726497 0.398047
0.808103 0.718807 0.410986
0.842039 0.720638 0.433265
0.864927 0.719997 0.433570
0.886229 0.719509 0.433112
0.906676 0.719326 0.434058
0.926146 0.719692 0.436744
0.944762 0.720577 0.440711
0.962432 0.722255 0.447395
0.979278 0.724788 0.455573
0.332433 0.704555 0.389349
0.333623 0.704952 0.389868
0.336217 0.705165 0.390753
0.339971 0.705013 0.390784
0.345556 0.704646 0.391089
0.353552 0.704158 0.391608
0.363256 0.703548 0.392035
0.375189 0.702876 0.393072
0.389624 0.702266 0.394446
0.405402 0.701747 0.396277
0.422766 0.701320 0.398657
0.441810 0.700923 0.401770
0.461494 0.700587 0.405219
0.482002 0.700252 0.409094
0.503044 0.700069 0.413275
0.532921 0.705959 0.415442
0.564691 0.712184 0.418067
0.597711 0.718685 0.421118
0.632349 0.725521 0.424598
0.667994 0.732540 0.428656
0.704341 0.739651 0.432959
0.740993 0.746670 0.437110
0.777584 0.753506 0.441566
0.807797 0.754513 0.447303
0.829374 0.746487 0.458259
0.860685 0.749142 0.482918
0.882048 0.748531 0.485817
0.901427 0.748104 0.486000
0.920104 0.748074 0.487404
0.937987 0.748623 0.490761
0.955047 0.749935 0.496376
0.971374 0.752041 0.503899
0.377752 0.734310 0.433021
0.378820 0.734676 0.433631
0.380804 0.734890 0.434272
0.384314 0.734920 0.434760
0.389258 0.734768 0.435370
0.395789 0.734554 0.435889
0.404547 0.734340 0.437018
0.415137 0.734066 0.438392
0.427466 0.733883 0.440192
0.441505 0.733700 0.442420
0.457008 0.733547 0.445197
0.473762 0.733364 0.448310
0.491310 0.733120 0.451728
0.509606 0.732876 0.455360
0.528222 0.732509 0.459327
0.550774 0.734585 0.462776
0.578973 0.739956 0.465522
0.608545 0.745602 0.468696
0.639673 0.751522 0.472419
0.671687 0.757656 0.476570
0.704646 0.763882 0.481025
0.738064 0.770077 0.485817
0.771542 0.776181 0.490639
0.804746 0.782071 0.495552
0.831785 0.782559 0.501640
0.850584 0.774807 0.511681
0.877745 0.776577 0.534783
0.897368 0.776150 0.540551
0.915099 0.776120 0.541711
0.932128 0.776455 0.544396
0.948486 0.777432 0.549126
0.964202 0.779171 0.555688
0.424750 0.764309 0.480690
0.425360 0.764431 0.480934
0.426886 0.764462 0.481392
0.429664 0.764431 0.481788
0.433539 0.764279 0.482246
0.438941 0.764065 0.482643
0.446113 0.763790 0.483497
0.454871 0.763546 0.484718
0.465400 0.763272 0.486397
0.477241 0.763088 0.488411
0.490700 0.762875 0.490791
0.505211 0.762692 0.493599
0.520745 0.762509 0.496803
0.536919 0.762264 0.500145
0.553643 0.761959 0.503899
0.570886 0.761654 0.507713
0.594751 0.765499 0.510948
0.621180 0.770352 0.514183
0.648981 0.775479 0.517876
0.677882 0.780789 0.522271
0.707393 0.786221 0.526879
0.737606 0.791623 0.531792
0.768002 0.796872 0.536706
0.798276 0.801999 0.541680
0.828305 0.806943 0.546319
0.852171 0.806851 0.552300
0.868437 0.799405 0.560906
0.891783 0.800229 0.582238
0.909819 0.799741 0.589380
0.926055 0.800076 0.591821
0.941802 0.800961 0.595789
0.956939 0.802487 0.601892
0.468788 0.791043 0.526665
0.469368 0.791135 0.527062
0.470466 0.791287 0.527398
0.472908 0.791257 0.527825
0.476417 0.791287 0.528527
0.481514 0.791318 0.529686
0.488319 0.791531 0.531334
0.496712 0.791775 0.533532
0.506584 0.792142 0.536126
0.517937 0.792569 0.539300
0.530541 0.793027 0.543023
0.543969 0.793454 0.546838
0.558282 0.793790 0.550805
0.573205 0.793973 0.554925
0.588373 0.794064 0.559075
0.603845 0.793942 0.563256
0.620935 0.794766 0.567193
0.644190 0.798886 0.570581
0.668299 0.803159 0.574609
0.693629 0.807614 0.578851
0.719539 0.812131 0.583490
0.746029 0.816648 0.588434
0.772763 0.821012 0.593194
0.799527 0.825284 0.597772
0.826047 0.829404 0.602625
0.852323 0.833371 0.606897
0.872892 0.832944 0.612696
0.886656 0.825864 0.619715
0.906371 0.825895 0.638178
0.922332 0.825254 0.646204
0.937133 0.825925 0.649317
0.951476 0.827176 0.654139
0.521202 0.819547 0.582025
0.521508 0.819547 0.582238
0.522332 0.819516 0.582269
0.523857 0.819425 0.582452
0.526543 0.819303 0.582696
0.530358 0.819181 0.583337
0.535393 0.819028 0.584253
0.541680 0.818967 0.585504
0.549310 0.818906 0.587060
0.558099 0.818845 0.589014
0.568139 0.818845 0.591485
0.579126 0.818845 0.594232
0.591028 0.818814 0.597223
0.603388 0.818753 0.600336
