luts/旅拍胶片08.cube
# Created by Adobe Lightroom plugin Export LUT (1.24.0)
# www.johnrellis.com/lightroom/exportlut.htm
# Preset: 旅拍胶片-素材江湖08
# Color profile: E:\lut插件\exportlut.1.24\exportlut.lrplugin\color profiles\Rec709gamma2.4.icc
LUT_3D_SIZE 8
DOMAIN_MIN 0.000000 0.000000 0.000000
DOMAIN_MAX 0.903226 0.903226 0.903226
0.118441 0.110048 0.100343
0.118441 0.110048 0.100343
0.120577 0.112245 0.102113
0.130068 0.121126 0.110292
0.163973 0.152712 0.139376
0.229831 0.214664 0.197482
0.322423 0.304051 0.283604
0.431586 0.412482 0.392004
0.118441 0.110048 0.100343
0.119020 0.110597 0.100587
0.123873 0.115114 0.104768
0.138705 0.129183 0.117739
0.173739 0.161898 0.147921
0.237491 0.222080 0.204623
0.324315 0.305760 0.285344
0.431830 0.412757 0.392279
0.124819 0.116152 0.105928
0.124331 0.115633 0.105348
0.130739 0.121340 0.110567
0.189487 0.176486 0.161654
0.235111 0.219791 0.202426
0.300938 0.283024 0.263188
0.386999 0.367651 0.346807
0.483223 0.465064 0.445838
0.164767 0.153201 0.139956
0.163272 0.151980 0.138796
0.164920 0.153353 0.140169
0.192844 0.179721 0.164614
0.307195 0.289128 0.269169
0.413794 0.394598 0.373846
0.475441 0.457160 0.437659
0.550134 0.534112 0.517327
0.246342 0.230503 0.212589
0.244846 0.229160 0.211307
0.240238 0.224735 0.207095
0.258122 0.241703 0.223362
0.297765 0.280003 0.260197
0.423713 0.404608 0.383978
0.547326 0.531212 0.514336
0.627588 0.614984 0.601892
0.357061 0.338079 0.317235
0.359442 0.340429 0.319524
0.355138 0.336034 0.315221
0.353094 0.334142 0.313268
0.384649 0.365393 0.344457
0.430915 0.411780 0.391333
0.553674 0.537804 0.521141
0.673213 0.662837 0.652064
0.490455 0.472450 0.453437
0.490639 0.472633 0.453620
0.486946 0.468879 0.449775
0.480659 0.462470 0.443122
0.492195 0.474281 0.455299
0.525078 0.508141 0.490333
0.568872 0.553582 0.537621
0.678920 0.668818 0.658350
0.634882 0.622614 0.609888
0.634394 0.622095 0.609339
0.632959 0.620630 0.607782
0.630701 0.618250 0.605341
0.616785 0.603662 0.589990
0.645991 0.634302 0.622156
0.680964 0.670985 0.660639
0.720089 0.712001 0.703670
0.118776 0.110323 0.100282
0.118441 0.110048 0.100343
0.120333 0.111971 0.101778
0.134371 0.125124 0.113985
0.169528 0.157778 0.144106
0.230533 0.215427 0.198184
0.313939 0.295598 0.275456
0.418952 0.399786 0.379126
0.119203 0.110262 0.100649
0.119753 0.111421 0.101534
0.125521 0.116365 0.106203
0.143862 0.133639 0.121798
0.180331 0.167788 0.153475
0.241520 0.225834 0.208103
0.321111 0.302708 0.282383
0.422797 0.403662 0.383001
0.131258 0.122347 0.111360
0.132784 0.122927 0.112184
0.138460 0.128450 0.117281
0.193759 0.180392 0.165408
0.234318 0.219150 0.201724
0.295476 0.277714 0.257969
0.372869 0.353582 0.332708
0.468910 0.450416 0.430762
0.174044 0.162203 0.148287
0.172946 0.161074 0.147219
0.172335 0.160403 0.146670
0.196536 0.183291 0.167941
0.299840 0.281987 0.262150
0.394354 0.375036 0.354192
0.456031 0.437293 0.417334
0.533684 0.517052 0.499611
0.256382 0.240024 0.221744
0.254520 0.238254 0.219974
0.248814 0.232853 0.214725
0.261601 0.244968 0.226444
0.297765 0.280003 0.260197
0.419196 0.399969 0.379339
0.541131 0.524743 0.507591
0.617762 0.604669 0.591058
0.361456 0.342412 0.321477
0.360754 0.341680 0.320745
0.356970 0.337957 0.317113
0.353582 0.334539 0.313695
0.385290 0.365942 0.345068
0.432013 0.412909 0.392462
0.552117 0.536187 0.519463
0.669612 0.659022 0.648096
0.489937 0.471931 0.452888
0.488197 0.470161 0.451057
0.484321 0.466224 0.446967
0.479072 0.460822 0.441474
0.490791 0.472816 0.453803
0.523156 0.506126 0.488258
0.564752 0.549310 0.533165
0.673152 0.662776 0.652003
0.632258 0.619898 0.607019
0.632898 0.620569 0.607752
0.631281 0.618891 0.605982
0.629236 0.616724 0.603693
0.624384 0.611627 0.598383
0.650019 0.638483 0.626551
0.681941 0.671992 0.661707
0.720485 0.712398 0.704097
0.124269 0.115053 0.105104
0.124269 0.115053 0.105104
0.127016 0.117891 0.107271
0.147555 0.137118 0.125277
0.177066 0.164706 0.150546
0.246708 0.230686 0.212833
0.333074 0.314427 0.293828
0.435157 0.416144 0.395697
0.123873 0.115114 0.104768
0.127718 0.118654 0.108156
0.135012 0.125307 0.114229
0.155276 0.144350 0.131746
0.188785 0.175753 0.161044
0.257084 0.240787 0.222446
0.339361 0.320500 0.299840
0.439277 0.420356 0.399969
0.139315 0.129335 0.117983
0.144839 0.134676 0.122988
0.169680 0.157961 0.144289
0.197543 0.184085 0.168704
0.245060 0.229343 0.211398
0.308782 0.290623 0.270542
0.385626 0.366308 0.345403
0.477241 0.458961 0.439551
0.195956 0.182437 0.167391
0.202945 0.189212 0.173678
0.220829 0.206210 0.189639
0.238285 0.222904 0.205295
0.340551 0.321752 0.301061
0.403113 0.383948 0.363104
0.466255 0.447730 0.427985
0.541711 0.525414 0.508232
0.294530 0.276890 0.257115
0.300114 0.282292 0.262364
0.301244 0.283330 0.263432
0.303227 0.285405 0.265354
0.338415 0.319646 0.298985
0.449287 0.430488 0.410346
0.557610 0.541894 0.525444
0.621057 0.608148 0.594720
0.402869 0.383642 0.362799
0.402533 0.383185 0.362402
0.398749 0.379431 0.358556
0.391516 0.372168 0.351263
0.413977 0.394720 0.374060
0.456428 0.437690 0.417700
0.568353 0.553063 0.537102
0.681544 0.671565 0.661250
0.519768 0.502708 0.484688
0.518395 0.501183 0.483162
0.514031 0.496773 0.478553
0.508171 0.490761 0.472297
0.511284 0.493935 0.475593
0.542046 0.525780 0.508629
0.583124 0.568475 0.553155
0.688136 0.678492 0.668513
0.649378 0.637781 0.625818
0.648310 0.636744 0.624689
0.646632 0.634974 0.622858
0.646082 0.634363 0.622217
0.641108 0.629145 0.616754
0.661738 0.650813 0.639460
0.692805 0.683406 0.673671
0.729580 0.721920 0.714076
0.142611 0.132357 0.120912
0.143435 0.133211 0.121584
0.154696 0.143771 0.131319
0.171878 0.159915 0.146120
0.221195 0.206546 0.189883
0.268620 0.251774 0.232975
0.329808 0.311131 0.290623
0.432380 0.413306 0.392889
0.147372 0.136934 0.125032
0.154177 0.143191 0.130678
0.166445 0.154940 0.141482
0.183322 0.170657 0.156374
0.232059 0.216800 0.199649
0.277714 0.260594 0.241428
0.341375 0.322606 0.301946
0.441291 0.422278 0.402014
0.167391 0.155581 0.142275
0.173709 0.161532 0.147768
0.204929 0.190982 0.175204
0.224186 0.209262 0.192508
0.271031 0.254093 0.235142
0.317510 0.299199 0.278904
0.397955 0.378698 0.357824
0.485084 0.467018 0.447822
0.213565 0.199283 0.183017
0.220432 0.205753 0.189120
0.250034 0.234012 0.216037
0.308110 0.290074 0.269993
0.351659 0.332647 0.311864
0.404913 0.385595 0.364813
0.468910 0.450416 0.430762
0.543053 0.526818 0.509728
0.320287 0.301823 0.281498
0.325750 0.307164 0.286717
0.350134 0.331182 0.310399
0.384253 0.364965 0.344060
0.404120 0.384833 0.363989
0.498268 0.480476 0.461707
0.562860 0.547356 0.531121
0.624170 0.611444 0.598169
0.434302 0.415320 0.394873
0.441321 0.422339 0.402045
0.457404 0.438697 0.418738
0.467811 0.449287 0.429603
0.470771 0.452308 0.432715
0.503349 0.485725 0.467140
0.601160 0.587304 0.572900
0.703548 0.694667 0.685481
0.550469 0.534447 0.517693
0.553857 0.537987 0.521324
0.565454 0.550042 0.533928
0.561364 0.545800 0.529503
0.553765 0.537896 0.521294
0.577752 0.562921 0.547356
0.613062 0.599756 0.585931
0.709957 0.701381 0.692561
0.682887 0.672999 0.662776
0.682429 0.672511 0.662226
0.680720 0.670710 0.660334
0.678004 0.667872 0.657374
0.672969 0.662593 0.651820
0.681544 0.671565 0.661250
0.710597 0.702052 0.693263
0.745541 0.738705 0.731624
0.184756 0.172152 0.157656
0.192020 0.178897 0.164034
0.205997 0.192142 0.176333
0.233524 0.218326 0.200900
0.260319 0.243992 0.225467
0.330816 0.312169 0.291600
0.391302 0.372045 0.351110
0.458747 0.440101 0.420172
0.195621 0.182345 0.167056
0.204410 0.190494 0.174807
0.220615 0.205966 0.189364
0.245609 0.229709 0.211826
0.271855 0.254948 0.235966
0.340856 0.322057 0.301335
0.398505 0.379187 0.358343
0.464240 0.445686 0.425910
0.220310 0.205631 0.188998
0.228153 0.213138 0.196048
0.261875 0.245243 0.226749
0.288396 0.270787 0.251316
0.312291 0.294011 0.273869
0.374731 0.355535 0.334600
0.423438 0.404242 0.383642
0.482673 0.464546 0.445258
0.265965 0.249149 0.230472
0.272648 0.255619 0.236637
0.301366 0.283482 0.263584
0.360266 0.341161 0.320256
0.385077 0.365850 0.344945
0.430701 0.411566 0.391119
0.472389 0.453986 0.434424
0.534569 0.517967 0.500542
0.335637 0.316869 0.296330
0.341894 0.323033 0.302342
0.366461 0.347356 0.326482
0.411475 0.392248 0.371496
0.470069 0.451637 0.432013
0.506432 0.488838 0.470344
0.553460 0.537591 0.520928
0.612909 0.599603 0.585809
0.445289 0.426368 0.406134
0.449958 0.431098 0.410986
0.465064 0.446479 0.426703
0.494942 0.477150 0.458228
0.527062 0.510216 0.492470
0.548943 0.532891 0.516045
0.636774 0.624628 0.611994
0.705257 0.696468 0.687373
0.558129 0.542443 0.525994
0.559838 0.544244 0.527855
0.569268 0.554040 0.538109
0.593408 0.579217 0.564416
0.609583 0.596155 0.582147
0.613519 0.600275 0.586450
0.643793 0.631983 0.619715
0.731350 0.723812 0.716060
0.673579 0.663203 0.652491
0.675746 0.665522 0.654902
0.685481 0.675685 0.665583
0.707881 0.699214 0.690272
0.708522 0.699886 0.690974
0.702388 0.693477 0.684199
0.728603 0.720912 0.713008
0.759854 0.753628 0.747250
0.267735 0.251011 0.232181
0.276677 0.259678 0.240513
0.290684 0.273045 0.253544
0.316075 0.297673 0.277409
0.356664 0.337682 0.316869
0.381872 0.362585 0.341650
0.450996 0.432166 0.412024
0.528771 0.511986 0.494331
0.274022 0.257084 0.238010
0.281987 0.264744 0.245457
0.299962 0.282139 0.262303
0.324559 0.306035 0.285649
0.361395 0.342351 0.321416
0.386114 0.366949 0.346014
0.454170 0.435340 0.415351
0.529625 0.512840 0.495216
0.301518 0.283635 0.263767
0.309331 0.291203 0.271092
0.342290 0.323461 0.302800
0.366674 0.347448 0.326604
0.397345 0.378058 0.357183
0.419928 0.400763 0.380102
0.482795 0.464698 0.445411
0.547997 0.531884 0.515007
0.343938 0.325048 0.304326
0.349584 0.330571 0.309819
0.375860 0.356725 0.335760
0.432959 0.413916 0.393439
0.461280 0.442603 0.422766
0.480781 0.462562 0.443244
0.534936 0.518364 0.500938
0.583642 0.568994 0.553765
0.399634 0.380377 0.359503
0.404547 0.385321 0.364508
0.425238 0.406134 0.385504
0.463264 0.444678 0.424872
0.518456 0.501335 0.483284
0.538170 0.521721 0.504417
0.578790 0.563958 0.548455
0.617731 0.604639 0.591028
0.466346 0.447791 0.428077
0.471534 0.453071 0.433448
0.486915 0.468849 0.449744
0.515496 0.498238 0.480049
0.556176 0.540429 0.523919
0.612512 0.599145 0.585321
0.650416 0.638941 0.627008
0.697139 0.687953 0.678431
0.571893 0.556817 0.540978
0.575830 0.560906 0.545251
0.588647 0.574212 0.559197
0.612360 0.599054 0.585168
0.642725 0.630884 0.618555
0.674952 0.664668 0.654017
0.691188 0.681727 0.671901
0.768490 0.762661 0.756680
0.684108 0.674250 0.664057
0.685115 0.675288 0.665187
0.691615 0.682124 0.672358
0.706538 0.697780 0.688746
0.731197 0.723659 0.715877
0.750027 0.743374 0.736507
0.756130 0.749752 0.743160
0.783261 0.778134 0.772763
0.384039 0.364752 0.343908
0.391608 0.372381 0.351507
0.406775 0.387457 0.366735
0.427741 0.408545 0.388037
0.456428 0.437690 0.417700
0.491646 0.473701 0.454688
0.508537 0.491127 0.472694
0.563592 0.548119 0.531914
0.389929 0.370733 0.349798
0.397406 0.378119 0.357244
0.415686 0.396490 0.375769
0.434852 0.415778 0.395331
0.462257 0.443641 0.423804
0.496101 0.478279 0.459419
0.512505 0.495186 0.476875
0.566766 0.551415 0.535332
0.409613 0.390417 0.369635
0.416175 0.396887 0.376226
0.442390 0.423438 0.403174
0.465156 0.446601 0.426886
0.488594 0.470588 0.451484
0.518425 0.501213 0.483192
0.534478 0.517876 0.500481
0.587243 0.572778 0.557702
0.434241 0.415167 0.394720
0.439673 0.420691 0.400336
0.463569 0.444984 0.425147
0.507561 0.490059 0.471626
0.531334 0.514611 0.497047
0.556634 0.540887 0.524407
0.572107 0.557061 0.541222
0.622431 0.609552 0.596185
0.476295 0.457984 0.438544
0.479866 0.461646 0.442298
0.495064 0.477211 0.458350
0.523033 0.506096 0.488197
0.578546 0.563714 0.548180
0.602686 0.588891 0.574548
0.618677 0.605615 0.592065
0.668025 0.657343 0.646357
0.530266 0.513512 0.495949
0.533257 0.516625 0.499184
0.545464 0.529320 0.512322
0.568841 0.553552 0.537591
0.604150 0.590448 0.576165
0.658106 0.646937 0.635401
0.677668 0.667506 0.656977
0.717403 0.709224 0.700740
0.589532 0.575158 0.560204
0.592157 0.577935 0.563073
0.602564 0.588769 0.574426
0.623194 0.610376 0.597070
0.654322 0.643000 0.631281
0.695735 0.686458 0.676875
0.746120 0.739284 0.732235
0.778744 0.773404 0.767880
0.687129 0.677455 0.667445
0.689418 0.679805 0.669917
0.699062 0.689967 0.680537
0.717372 0.709133 0.700649
0.744686 0.737758 0.730617
0.772854 0.767208 0.761410
0.801724 0.797330 0.792813
0.816159 0.812345 0.808408
0.539971 0.523613 0.506401
0.545037 0.528832 0.511833
0.556939 0.541222 0.524712
0.570092 0.554864 0.538994
0.589441 0.575036 0.560052
0.614191 0.601007 0.587213
0.643488 0.631617 0.619318
0.652430 0.641016 0.629175
0.542046 0.525780 0.508629
0.547021 0.530938 0.514000
0.561883 0.546349 0.530053
0.574426 0.559442 0.543725
0.593194 0.579004 0.564172
0.617426 0.604334 0.590723
0.645960 0.634211 0.622065
0.654780 0.643549 0.631830
0.550103 0.534081 0.517296
0.554711 0.538903 0.522332
0.573785 0.558709 0.542992
0.592981 0.578790 0.563958
0.609888 0.596399 0.582422
0.631861 0.619409 0.606531
0.658350 0.647242 0.635737
0.667170 0.656519 0.645441
0.558679 0.543023 0.526574
0.563317 0.547814 0.531609
0.581933 0.567163 0.551873
0.616938 0.603815 0.590204
0.637751 0.625635 0.613062
0.657130 0.645960 0.634394
0.680781 0.670771 0.660426
0.689906 0.680385 0.670497
0.571832 0.556695 0.540887
0.574426 0.559380 0.543664
0.584558 0.569970 0.554772
0.618433 0.605402 0.591821
0.667201 0.656519 0.645472
0.688472 0.678828 0.668879
0.709468 0.700893 0.692012
0.720211 0.712154 0.703822
0.613519 0.600305 0.586450
0.615473 0.602319 0.588617
0.623896 0.611139 0.597864
0.641077 0.629114 0.616724
0.667811 0.657130 0.646143
0.724544 0.716670 0.708583
0.746944 0.740169 0.733150
0.760006 0.753841 0.747433
0.662501 0.651545 0.640253
0.664240 0.653407 0.642176
0.671748 0.661280 0.650477
0.686976 0.677302 0.667262
0.710597 0.702083 0.693263
0.742794 0.735775 0.728573
0.790158 0.785275 0.780209
0.806119 0.801907 0.797543
0.716762 0.708553 0.700038
0.718288 0.710109 0.701686
0.724880 0.717006 0.708888
0.738186 0.730953 0.723507
0.758633 0.752377 0.745937
0.786130 0.781094 0.775875
0.820005 0.816342 0.812558
0.859403 0.857115 0.854704
