luts/旅拍胶片01.cube
# Created by Adobe Lightroom plugin Export LUT (1.24.0)
# www.johnrellis.com/lightroom/exportlut.htm
# Preset: 旅拍胶片-素材江湖01
# Color profile: E:\lut插件\exportlut.1.24\exportlut.lrplugin\color profiles\Rec709gamma2.4.icc
LUT_3D_SIZE 8
DOMAIN_MIN 0.000000 0.000000 0.000000
DOMAIN_MAX 0.903226 0.903226 0.903226
0.093599 0.091157 0.077577
0.099397 0.090883 0.078340
0.148226 0.086976 0.080201
0.237522 0.046906 0.082704
0.395178 0.000000 0.085786
0.589654 0.000000 0.083497
0.769223 0.000000 0.083833
0.920562 0.000000 0.105165
0.094850 0.095033 0.079652
0.104219 0.097047 0.078096
0.154513 0.097658 0.078767
0.244236 0.079591 0.080415
0.400702 0.000000 0.080842
0.590143 0.000000 0.076204
0.766262 0.000000 0.075013
0.914794 0.000000 0.100008
0.108034 0.127169 0.090730
0.114809 0.129183 0.088014
0.166537 0.136019 0.070283
0.306340 0.154940 0.045808
0.467170 0.125612 0.031952
0.642908 0.000000 0.014435
0.812772 0.000000 0.011505
0.939757 0.000000 0.087984
0.133913 0.193576 0.109041
0.140383 0.195041 0.105715
0.179202 0.202457 0.090547
0.298100 0.223209 0.021454
0.543572 0.288945 0.000000
0.736660 0.295201 0.000000
0.861387 0.259648 0.000000
0.960479 0.230442 0.000000
0.169467 0.309209 0.129885
0.177523 0.310826 0.124971
0.218204 0.318914 0.103456
0.315740 0.333165 0.000000
0.492195 0.362036 0.000000
0.722744 0.435218 0.000000
0.889403 0.472145 0.000000
0.972900 0.445533 0.000000
0.235050 0.456062 0.170504
0.245212 0.461524 0.167178
0.280705 0.467170 0.140780
0.360784 0.476753 0.032502
0.492103 0.486641 0.000000
0.672511 0.512047 0.000000
0.855711 0.576806 0.000000
0.973510 0.619348 0.000000
0.344182 0.617548 0.262303
0.350683 0.619440 0.258244
0.374548 0.622431 0.234409
0.431281 0.628565 0.180880
0.528252 0.634791 0.000000
0.666438 0.641810 0.000000
0.817441 0.651301 0.000000
0.938964 0.690242 0.000000
0.488685 0.761898 0.426368
0.491768 0.762356 0.422065
0.506889 0.764736 0.404303
0.542535 0.769467 0.367132
0.595880 0.767483 0.279118
0.695430 0.772946 0.186923
0.820829 0.776120 0.000000
0.925475 0.768856 0.004089
0.093172 0.095033 0.089723
0.103517 0.092531 0.091127
0.147402 0.091463 0.089906
0.231510 0.086213 0.092653
0.393133 0.000000 0.088411
0.589380 0.000000 0.071626
0.761685 0.000000 0.069642
0.907561 0.000000 0.097230
0.094301 0.102663 0.091066
0.106661 0.102693 0.091615
0.151827 0.104402 0.092836
0.241123 0.098207 0.092897
0.403021 0.000000 0.087678
0.597528 0.000000 0.061006
0.763790 0.000000 0.058442
0.905303 0.000000 0.092042
0.116732 0.135836 0.102266
0.123629 0.134432 0.103090
0.166812 0.140597 0.093538
0.291173 0.156558 0.089174
0.454597 0.139132 0.066072
0.640528 0.024903 0.006867
0.798093 0.000000 0.000000
0.926543 0.000000 0.065309
0.140352 0.198795 0.119265
0.147890 0.197269 0.119783
0.181064 0.205081 0.106050
0.291264 0.221927 0.066682
0.519707 0.280491 0.000000
0.707698 0.287663 0.000000
0.842344 0.263249 0.000000
0.947417 0.232212 0.000000
0.177188 0.314214 0.143008
0.186587 0.312383 0.143282
0.221164 0.318853 0.123384
0.310796 0.330144 0.057893
0.478553 0.354467 0.000000
0.706905 0.426764 0.000000
0.880186 0.470192 0.000000
0.966552 0.444129 0.000000
0.240757 0.454139 0.184482
0.250156 0.453834 0.184207
0.281712 0.459846 0.161990
0.356847 0.470527 0.104585
0.485084 0.481544 0.000000
0.665431 0.508141 0.000000
0.849546 0.574243 0.000000
0.969757 0.615900 0.000000
0.345098 0.612085 0.272099
0.350439 0.610742 0.269322
0.372473 0.613489 0.247074
0.427008 0.620874 0.199130
0.523095 0.629633 0.049683
0.659754 0.636835 0.000000
0.810513 0.645777 0.000000
0.934356 0.685145 0.000000
0.486061 0.757626 0.430640
0.490944 0.758572 0.430030
0.505089 0.760861 0.412085
0.539788 0.765805 0.376623
0.601709 0.771145 0.309117
0.696407 0.774624 0.194278
0.819547 0.775937 0.000000
0.924651 0.768429 0.000000
0.089693 0.120363 0.142550
0.102052 0.118715 0.143709
0.156039 0.107301 0.145663
0.250919 0.094392 0.141024
0.382086 0.005280 0.141695
0.557580 0.000000 0.143771
0.753841 0.000000 0.143008
0.914153 0.000000 0.133303
0.102052 0.131106 0.141634
0.114748 0.130739 0.141512
0.159670 0.120394 0.144778
0.249851 0.111238 0.141207
0.379309 0.071778 0.142367
0.564904 0.000000 0.145235
0.754360 0.000000 0.141421
0.912566 0.000000 0.130739
0.113100 0.163851 0.144656
0.126925 0.163943 0.144869
0.176944 0.165164 0.147311
0.270817 0.165713 0.147799
0.424018 0.156680 0.149050
0.612238 0.118196 0.147219
0.783597 0.000000 0.140627
0.926329 0.000000 0.128420
0.151522 0.237308 0.159945
0.168246 0.237583 0.162783
0.206516 0.231724 0.165957
0.305119 0.246311 0.141390
0.525597 0.304417 0.148684
0.683711 0.297856 0.143801
0.827787 0.291386 0.135409
0.946319 0.288518 0.123262
0.205081 0.350591 0.193149
0.216526 0.348730 0.194064
0.255467 0.342443 0.198428
0.326055 0.354650 0.162417
0.486549 0.373693 0.106233
0.705470 0.446662 0.108156
0.862760 0.481636 0.129732
0.961151 0.471077 0.126070
0.274662 0.479774 0.241154
0.284733 0.479011 0.242802
0.318975 0.474098 0.246250
0.373846 0.483436 0.208011
0.487312 0.493263 0.132265
0.660670 0.516228 0.000000
0.842405 0.587243 0.027405
0.963745 0.631617 0.177279
0.376410 0.629694 0.330419
0.382452 0.627802 0.330419
0.407477 0.622827 0.330816
0.447181 0.628840 0.291997
0.529168 0.636744 0.223056
0.658259 0.644282 0.000000
0.808682 0.654475 0.000000
0.933989 0.694972 0.019287
0.501518 0.763943 0.474098
0.505547 0.762936 0.474189
0.523095 0.761410 0.475257
0.553033 0.767453 0.446082
0.607141 0.772854 0.388495
0.696223 0.777829 0.290288
0.818906 0.780179 0.000000
0.924895 0.771664 0.017273
0.000000 0.175479 0.254490
0.006043 0.174228 0.256352
0.135531 0.157229 0.257755
0.265141 0.130037 0.257786
0.419715 0.043183 0.251194
0.580560 0.000000 0.244755
0.724636 0.000000 0.243717
0.864317 0.000000 0.256931
0.019287 0.190372 0.253971
0.082460 0.189059 0.254368
0.148959 0.172366 0.257145
0.270481 0.144839 0.258305
0.425788 0.095338 0.252720
0.580591 0.000000 0.245548
0.722713 0.000000 0.245426
0.867491 0.000000 0.259861
0.091066 0.226627 0.252689
0.118532 0.226291 0.252262
0.190066 0.223880 0.251438
0.285130 0.196597 0.256962
0.438697 0.178836 0.253452
0.584619 0.168765 0.252842
0.734127 0.173861 0.264836
0.889128 0.187808 0.278202
0.096040 0.297673 0.260319
0.127687 0.297002 0.260044
0.210361 0.296147 0.260166
0.323827 0.298314 0.265843
0.464759 0.302586 0.268406
0.621668 0.311040 0.277287
0.776699 0.323827 0.287938
0.909728 0.341588 0.297154
0.192111 0.409308 0.279576
0.215244 0.408209 0.280766
0.290654 0.406714 0.290288
0.369574 0.398810 0.301610
0.495918 0.413062 0.262303
0.699397 0.491615 0.321874
0.826383 0.501457 0.334264
0.930968 0.506310 0.338872
0.325628 0.530999 0.343297
0.335393 0.533013 0.345342
0.371618 0.526665 0.347997
0.426307 0.517357 0.354894
0.503044 0.526848 0.302678
0.658320 0.542229 0.256016
0.829496 0.619135 0.340093
0.940215 0.664240 0.412268
0.415106 0.657923 0.422461
0.422309 0.657435 0.423804
0.448646 0.654078 0.427649
0.492134 0.648066 0.433661
0.547295 0.655756 0.381628
0.656580 0.661646 0.299138
0.800778 0.670039 0.245304
0.921752 0.717861 0.356420
0.528222 0.778347 0.551873
0.532280 0.777768 0.552453
0.549615 0.775509 0.555505
0.580652 0.772274 0.560479
0.618463 0.777768 0.512718
0.693080 0.782956 0.436500
0.808255 0.786007 0.312352
0.920531 0.779629 0.247807
0.000000 0.270176 0.433265
0.000000 0.269383 0.434699
0.000000 0.260868 0.435676
0.240909 0.227665 0.437751
0.423377 0.171908 0.435187
0.596948 0.096407 0.416358
0.750423 0.000000 0.401373
0.872160 0.056092 0.399023
0.000000 0.286259 0.432837
0.000000 0.285985 0.435126
0.099672 0.277684 0.437018
0.251621 0.242741 0.437079
0.426856 0.189059 0.434241
0.598993 0.131624 0.416571
0.749386 0.040070 0.401617
0.870573 0.134371 0.400610
0.000000 0.328344 0.432441
0.000000 0.328008 0.432013
0.182925 0.323796 0.429358
0.282292 0.293706 0.430823
0.435859 0.247379 0.427466
0.600092 0.217746 0.411292
0.741451 0.213962 0.401007
0.861662 0.243656 0.404730
0.000000 0.386267 0.429419
0.099153 0.385779 0.428504
0.225589 0.384741 0.426825
0.345129 0.383032 0.425422
0.459663 0.344060 0.427863
0.612207 0.334234 0.415747
0.734859 0.346136 0.412573
0.852384 0.367620 0.423041
0.109895 0.469093 0.429969
0.152346 0.468818 0.429999
0.252140 0.467201 0.429419
0.367803 0.464515 0.429328
0.490547 0.463203 0.432959
0.620783 0.471778 0.439094
0.758419 0.490425 0.455146
0.880125 0.513542 0.473762
0.261173 0.567163 0.435370
0.279911 0.566857 0.436622
0.343053 0.563653 0.440345
0.437018 0.560204 0.453071
0.517815 0.551385 0.466285
0.639246 0.569177 0.428321
0.803861 0.655665 0.535363
0.900603 0.671412 0.559960
0.423560 0.687922 0.524620
0.431861 0.686732 0.525109
0.467079 0.683406 0.530236
0.509911 0.678889 0.531151
0.567681 0.670039 0.540368
0.642298 0.677028 0.476081
0.779873 0.685512 0.432654
0.898009 0.742123 0.549157
0.533257 0.790463 0.622858
0.537499 0.789792 0.623041
0.555413 0.787411 0.624842
0.591699 0.785458 0.634485
0.633783 0.780301 0.641993
0.684169 0.786862 0.586175
0.784848 0.790677 0.493935
0.901061 0.788540 0.446754
0.000000 0.399359 0.642298
0.000000 0.399481 0.643702
0.000000 0.393713 0.640681
0.228397 0.370306 0.639612
0.391760 0.329656 0.634150
0.569574 0.264683 0.626490
0.735439 0.234165 0.609491
0.875364 0.246860 0.599634
0.000000 0.404120 0.629816
0.000000 0.403021 0.629328
0.000000 0.397650 0.628138
0.247440 0.378363 0.627741
0.392615 0.336309 0.624720
0.567010 0.275151 0.619471
0.731777 0.247929 0.603967
0.872282 0.260044 0.595972
0.000000 0.444221 0.631006
0.000000 0.443793 0.629847
0.169375 0.441321 0.627863
0.308110 0.426154 0.623438
0.416022 0.383246 0.621332
0.575219 0.329564 0.617060
0.734127 0.313359 0.604608
0.868193 0.329870 0.598260
0.002502 0.495399 0.628260
0.127443 0.494697 0.626734
0.254246 0.495155 0.624048
0.373938 0.496529 0.624689
0.459785 0.466682 0.626184
0.593500 0.420905 0.621485
0.741238 0.414038 0.612207
0.860563 0.432227 0.606134
0.174533 0.553857 0.619135
0.203799 0.553460 0.618402
0.289982 0.552636 0.616815
0.396307 0.551995 0.615167
0.503136 0.549859 0.613153
0.602136 0.510735 0.612268
0.741482 0.507774 0.605798
0.844022 0.523827 0.602350
0.236698 0.628046 0.617060
0.257755 0.628901 0.618372
0.320226 0.627070 0.617212
0.409094 0.623896 0.615412
0.509209 0.619776 0.613794
0.621851 0.619776 0.619074
0.741939 0.635981 0.635096
0.851164 0.657191 0.655940
0.351781 0.725673 0.635798
0.364843 0.725978 0.637293
0.410163 0.724300 0.639124
0.484962 0.720974 0.644068
0.575830 0.716030 0.655116
0.649805 0.706325 0.665797
0.753597 0.714382 0.622614
0.872587 0.780148 0.730556
0.524163 0.811490 0.709560
0.529259 0.810727 0.709438
0.552483 0.808927 0.711604
0.597223 0.806455 0.719051
0.641993 0.801816 0.720882
0.692561 0.794675 0.728817
0.757809 0.800656 0.672541
0.872221 0.803342 0.634394
0.000000 0.526726 0.785977
0.000000 0.527489 0.786618
0.180545 0.526757 0.785916
0.331151 0.524132 0.785641
0.415686 0.489723 0.785611
0.541222 0.454994 0.782925
0.685939 0.396948 0.779171
0.825071 0.384436 0.768429
0.000000 0.531456 0.781674
0.000000 0.532341 0.782498
0.200443 0.531365 0.782132
0.335302 0.527398 0.781399
0.417975 0.493690 0.781125
0.539788 0.458412 0.778042
0.682704 0.400214 0.773770
0.821286 0.386358 0.762814
0.155001 0.560845 0.780697
0.190860 0.561486 0.780362
0.272770 0.560174 0.779324
0.370611 0.555596 0.778622
0.443977 0.526238 0.778347
0.551873 0.493202 0.775998
0.687861 0.441382 0.773922
0.823819 0.433417 0.766567
0.246738 0.600763 0.780606
0.264775 0.600397 0.779751
0.330632 0.601038 0.777707
0.419348 0.601953 0.776272
0.502281 0.592462 0.775662
0.573693 0.553368 0.775601
0.695796 0.507500 0.774166
0.824063 0.502586 0.767849
0.293584 0.644770 0.776394
0.306706 0.644038 0.775509
0.358221 0.643336 0.773953
0.437507 0.643824 0.772732
0.530327 0.644587 0.770474
0.594324 0.618250 0.770993
0.700404 0.577386 0.769253
0.824277 0.580499 0.767636
0.338445 0.699092 0.774838
0.349920 0.699092 0.774807
0.391333 0.698543 0.774472
0.459205 0.697597 0.773983
0.541741 0.696010 0.772915
0.631678 0.695644 0.772732
0.712215 0.663050 0.772091
0.827329 0.665278 0.770169
0.383734 0.761776 0.778439
0.393194 0.761868 0.778714
0.426307 0.760800 0.778286
0.483742 0.758907 0.777798
0.556268 0.755581 0.776333
0.638361 0.751308 0.774899
0.726589 0.747616 0.774716
0.827359 0.762387 0.788968
0.486427 0.832883 0.792020
0.491951 0.832914 0.792142
0.515496 0.833280 0.793149
0.559319 0.832242 0.794491
0.622950 0.829160 0.797787
0.696376 0.824704 0.804135
0.757595 0.817380 0.811307
0.842710 0.823148 0.782010
0.396124 0.668269 0.878782
0.406134 0.669001 0.878874
0.439521 0.669490 0.878264
0.497261 0.671504 0.878050
0.561547 0.669062 0.877928
0.602899 0.638209 0.879210
0.682856 0.609033 0.879759
0.786099 0.562432 0.880156
0.400336 0.670619 0.877226
0.410010 0.671382 0.877409
0.443153 0.672145 0.877104
0.498909 0.673518 0.876829
0.564752 0.672633 0.876616
0.603723 0.640986 0.878050
0.682246 0.611414 0.878386
0.784970 0.564630 0.878752
0.426703 0.686275 0.875456
0.434516 0.686610 0.875456
0.462959 0.686702 0.875090
0.514794 0.688746 0.875700
0.575647 0.687251 0.875273
0.613031 0.658686 0.876432
0.686610 0.630640 0.876982
0.785763 0.586328 0.877531
0.443275 0.706783 0.874815
0.452491 0.707668 0.874815
0.485695 0.710048 0.874022
0.536004 0.712703 0.873747
0.590906 0.711360 0.873930
0.630945 0.690669 0.875303
0.695766 0.665309 0.876097
0.788693 0.625147 0.876982
0.456947 0.734371 0.874693
0.463935 0.734707 0.874784
0.488655 0.734737 0.874388
0.541772 0.737545 0.873625
0.605615 0.740505 0.872709
0.661341 0.735286 0.873228
0.706081 0.706325 0.875120
0.792844 0.671778 0.876555
0.487221 0.771633 0.875242
0.491798 0.771298 0.875029
0.511650 0.770443 0.874540
0.550408 0.769863 0.874296
0.605127 0.769772 0.874479
0.677913 0.773495 0.874815
0.725216 0.757839 0.877470
0.800504 0.728206 0.877897
0.527489 0.815610 0.878965
0.531518 0.815427 0.878874
0.548516 0.814725 0.878660
0.581445 0.813718 0.878477
0.627985 0.812192 0.878264
0.685328 0.810483 0.878172
0.750851 0.809476 0.877928
0.808957 0.784360 0.877531
0.560906 0.859617 0.881682
0.564111 0.859403 0.881621
0.578851 0.858915 0.881529
0.608179 0.858213 0.881804
0.649531 0.856931 0.881926
0.700618 0.854917 0.881834
0.759731 0.852323 0.881590
0.825528 0.848478 0.880674
