luts/旅拍胶片07.cube
# Created by Adobe Lightroom plugin Export LUT (1.24.0)
# www.johnrellis.com/lightroom/exportlut.htm
# Preset: 旅拍胶片-素材江湖07
# Color profile: E:\lut插件\exportlut.1.24\exportlut.lrplugin\color profiles\Rec709gamma2.4.icc
LUT_3D_SIZE 5
DOMAIN_MIN 0.000000 0.000000 0.000000
DOMAIN_MAX 0.903226 0.903226 0.903226
0.087770 0.102663 0.099489
0.143191 0.105653 0.102815
0.326970 0.088075 0.102296
0.647486 0.000000 0.068940
0.957855 0.000000 0.000000
0.109957 0.132448 0.117556
0.143038 0.132937 0.115236
0.365789 0.139651 0.095338
0.681331 0.020844 0.004822
0.982147 0.000000 0.000000
0.144930 0.298131 0.146059
0.193942 0.301884 0.140963
0.397711 0.331701 0.114595
0.786038 0.358160 0.000000
1.000000 0.357153 0.000000
0.271855 0.613031 0.257908
0.317754 0.616968 0.254917
0.479164 0.631006 0.239506
0.746334 0.647242 0.210849
1.000000 0.671351 0.186709
0.604089 0.861112 0.530175
0.623865 0.858457 0.538933
0.680079 0.853452 0.534844
0.807645 0.862303 0.541466
0.955291 0.869108 0.553826
0.040284 0.118807 0.189059
0.147463 0.109712 0.191165
0.330480 0.018128 0.176059
0.656062 0.000000 0.142672
0.953918 0.000000 0.120607
0.104677 0.157992 0.163851
0.164584 0.155856 0.169039
0.350347 0.156191 0.165530
0.648920 0.113375 0.156802
0.942779 0.000000 0.135897
0.180850 0.315923 0.182345
0.221744 0.320409 0.178958
0.401251 0.339483 0.165469
0.766415 0.364477 0.109957
1.000000 0.378027 0.000000
0.302403 0.620630 0.260288
0.344549 0.625147 0.257633
0.496132 0.638300 0.242954
0.750790 0.652522 0.214969
1.000000 0.677302 0.195773
0.608453 0.861936 0.533074
0.627314 0.859037 0.541253
0.695277 0.860441 0.549310
0.814817 0.866758 0.551690
0.958038 0.873136 0.564172
0.000000 0.178317 0.495338
0.000000 0.152804 0.496681
0.370031 0.090303 0.503929
0.680964 0.000000 0.460853
0.963012 0.000000 0.424811
0.000000 0.241672 0.468544
0.000000 0.229587 0.471656
0.391852 0.190280 0.483040
0.685939 0.100710 0.449134
0.970275 0.000000 0.408087
0.000000 0.443519 0.403326
0.149203 0.440467 0.406348
0.466377 0.434516 0.427253
0.703609 0.435218 0.409094
0.941253 0.460060 0.401556
0.431891 0.668391 0.436683
0.461219 0.659876 0.442298
0.562707 0.657191 0.460578
0.752010 0.679835 0.462745
0.987915 0.710231 0.442145
0.608057 0.865782 0.535851
0.628534 0.863615 0.545281
0.696803 0.863737 0.556909
0.814633 0.869261 0.558038
0.958160 0.874479 0.566979
0.000000 0.311589 0.766323
0.000000 0.300114 0.768429
0.212314 0.275151 0.771237
0.646998 0.242100 0.775265
0.952514 0.149447 0.778195
0.000000 0.364050 0.752743
0.000000 0.363470 0.752895
0.273533 0.330449 0.757168
0.657557 0.311803 0.761868
0.943694 0.269474 0.762234
0.000000 0.514885 0.713802
0.000000 0.511223 0.711788
0.409888 0.510704 0.715633
0.693782 0.496407 0.724117
0.932494 0.498848 0.723445
0.256748 0.739498 0.657679
0.331640 0.735927 0.657496
0.524498 0.727138 0.662898
0.747799 0.716670 0.679805
0.926543 0.714321 0.654780
0.691005 0.891386 0.696407
0.702266 0.889799 0.697322
0.745724 0.883207 0.701839
0.825162 0.876463 0.714443
0.944213 0.885161 0.715175
0.000000 0.537560 0.926421
0.184970 0.541192 0.925841
0.371923 0.506035 0.928374
0.643915 0.504540 0.928099
0.872709 0.501335 0.928557
0.000000 0.562036 0.922057
0.226596 0.567376 0.921477
0.399573 0.536767 0.923919
0.653986 0.534234 0.924071
0.875334 0.532067 0.925200
0.000000 0.641993 0.910796
0.212100 0.643915 0.910246
0.499489 0.656428 0.908843
0.681758 0.630579 0.912230
0.885649 0.631525 0.915892
0.245090 0.791409 0.891264
0.306554 0.788266 0.891173
0.471687 0.775998 0.891814
0.716335 0.770047 0.895171
0.899687 0.766720 0.901732
0.553552 0.921965 0.857694
0.574945 0.920653 0.857908
0.658808 0.915923 0.860197
0.785458 0.906554 0.864286
0.919463 0.896361 0.873594
