luts/旅拍胶片01.cube
# Created by Adobe Lightroom plugin Export LUT (1.24.0)
# www.johnrellis.com/lightroom/exportlut.htm
# Preset: 旅拍胶片-素材江湖01
# Color profile: E:\lut插件\exportlut.1.24\exportlut.lrplugin\color profiles\Rec709gamma2.4.icc
LUT_3D_SIZE 32
DOMAIN_MIN 0.0 0.0 0.0
DOMAIN_MAX 1.0 1.0 1.0
0.093599 0.091157 0.077577
0.093599 0.091157 0.077577
0.094301 0.091096 0.077577
0.095552 0.090913 0.078492
0.099397 0.090883 0.078340
0.107485 0.090608 0.078798
0.119509 0.089570 0.079194
0.132753 0.088869 0.080079
0.148226 0.086976 0.080201
0.165560 0.082704 0.080995
0.185672 0.078035 0.081392
0.209567 0.065522 0.082246
0.237522 0.046906 0.082704
0.270542 0.019409 0.083314
0.308293 0.000000 0.084504
0.350103 0.000000 0.084962
0.395178 0.000000 0.085786
0.442634 0.000000 0.084749
0.491463 0.000000 0.084932
0.540795 0.000000 0.083772
0.589654 0.000000 0.083497
0.636500 0.000000 0.082124
0.679835 0.000000 0.081788
0.721981 0.000000 0.081605
0.769223 0.000000 0.083833
0.812680 0.000000 0.087343
0.852018 0.000000 0.091341
0.887724 0.000000 0.097353
0.920562 0.000000 0.105165
0.951263 0.000000 0.115602
0.980102 0.000000 0.128634
1.000000 0.000000 0.145022
0.093599 0.091157 0.077577
0.093599 0.091157 0.077577
0.094301 0.091096 0.077577
0.095552 0.090913 0.078492
0.099397 0.090883 0.078340
0.107485 0.090608 0.078798
0.119326 0.090028 0.079103
0.132601 0.089326 0.079988
0.147707 0.087861 0.080140
0.164797 0.083742 0.080903
0.184848 0.078492 0.081392
0.208438 0.066651 0.081544
0.236210 0.048493 0.082033
0.269017 0.022614 0.083284
0.306279 0.000000 0.084596
0.347570 0.000000 0.084993
0.392523 0.000000 0.085206
0.439826 0.000000 0.085023
0.488502 0.000000 0.084443
0.537804 0.000000 0.084016
0.586481 0.000000 0.083192
0.632868 0.000000 0.082185
0.676448 0.000000 0.081666
0.718441 0.000000 0.081636
0.764858 0.000000 0.082979
0.807919 0.000000 0.086061
0.847135 0.000000 0.090394
0.882902 0.000000 0.096254
0.916045 0.000000 0.104036
0.947112 0.000000 0.114199
0.976379 0.000000 0.126955
1.000000 0.000000 0.142580
0.094179 0.091096 0.078492
0.093935 0.091524 0.078401
0.094728 0.091463 0.077424
0.096437 0.091646 0.078279
0.100191 0.091585 0.078157
0.109194 0.091615 0.078492
0.120546 0.091493 0.079408
0.133852 0.090333 0.079683
0.148440 0.088960 0.079835
0.165835 0.086793 0.080415
0.185458 0.081666 0.080903
0.209171 0.071534 0.081758
0.236790 0.053376 0.082246
0.269230 0.027985 0.082795
0.306798 0.000000 0.083986
0.348028 0.000000 0.084413
0.392828 0.000000 0.084443
0.439826 0.000000 0.084169
0.488502 0.000000 0.083589
0.537560 0.000000 0.083101
0.586175 0.000000 0.082063
0.632776 0.000000 0.080873
0.675898 0.000000 0.080568
0.717952 0.000000 0.080629
0.764034 0.000000 0.081758
0.806394 0.000000 0.084657
0.845243 0.000000 0.089631
0.880980 0.000000 0.095247
0.914275 0.000000 0.102663
0.945434 0.000000 0.112764
0.974670 0.000000 0.125490
1.000000 0.000000 0.141482
0.094026 0.092348 0.078920
0.094820 0.092256 0.078187
0.095277 0.092622 0.078096
0.097078 0.092836 0.077913
0.101686 0.094270 0.078187
0.111421 0.094545 0.078431
0.123049 0.094362 0.078645
0.136324 0.093629 0.078798
0.150881 0.092164 0.079652
0.168276 0.090333 0.079500
0.188479 0.087098 0.080598
0.212131 0.079896 0.080659
0.239963 0.063111 0.081727
0.272465 0.038025 0.082155
0.309606 0.002075 0.082551
0.350835 0.000000 0.083467
0.394903 0.000000 0.083406
0.441474 0.000000 0.083070
0.489540 0.000000 0.082307
0.538018 0.000000 0.081056
0.585931 0.000000 0.080110
0.631952 0.000000 0.079561
0.675227 0.000000 0.078279
0.718074 0.000000 0.078584
0.763149 0.000000 0.080018
0.805783 0.000000 0.082490
0.844846 0.000000 0.088197
0.880827 0.000000 0.093812
0.914153 0.000000 0.101656
0.945342 0.000000 0.111910
0.974334 0.000000 0.124758
1.000000 0.000000 0.140475
0.094850 0.095033 0.079652
0.095308 0.095369 0.079561
0.095827 0.095705 0.078737
0.098085 0.096223 0.078553
0.104219 0.097047 0.078096
0.114473 0.098726 0.077852
0.126619 0.099519 0.077729
0.139406 0.098817 0.078004
0.154513 0.097658 0.078767
0.172030 0.095827 0.078645
0.192111 0.093355 0.079622
0.216129 0.088716 0.079652
0.244236 0.079591 0.080415
0.277165 0.055970 0.081331
0.314458 0.021881 0.081392
0.356146 0.000000 0.081239
0.400702 0.000000 0.080842
0.447150 0.000000 0.080873
0.494667 0.000000 0.079805
0.542687 0.000000 0.078187
0.590143 0.000000 0.076204
0.635737 0.000000 0.074739
0.678645 0.000000 0.072511
0.722011 0.000000 0.073335
0.766262 0.000000 0.075013
0.808042 0.000000 0.079469
0.846494 0.000000 0.084596
0.881926 0.000000 0.091615
0.914794 0.000000 0.100008
0.945525 0.000000 0.110506
0.974151 0.000000 0.123659
1.000000 0.000000 0.139315
0.096590 0.100130 0.080415
0.096345 0.100496 0.080323
0.097566 0.100740 0.079530
0.100160 0.101534 0.079225
0.105592 0.102358 0.078065
0.115785 0.103944 0.076692
0.129244 0.106111 0.075746
0.145022 0.107271 0.074891
0.160403 0.106050 0.076051
0.178439 0.104494 0.076753
0.199069 0.102205 0.076997
0.224338 0.098512 0.077638
0.253239 0.092988 0.078340
0.286931 0.081941 0.078798
0.325231 0.050019 0.079072
0.366522 0.002747 0.078584
0.411261 0.000000 0.078309
0.457801 0.000000 0.076265
0.505364 0.000000 0.073304
0.552636 0.000000 0.071138
0.599268 0.000000 0.068299
0.643610 0.000000 0.066590
0.705104 0.000000 0.064363
0.752010 0.000000 0.063569
0.797299 0.000000 0.067384
0.837980 0.000000 0.074952
0.874235 0.000000 0.084260
0.907225 0.000000 0.093568
0.937621 0.000000 0.103914
0.965637 0.000000 0.116426
0.991669 0.000000 0.131075
1.000000 0.000000 0.148836
0.099397 0.108431 0.082277
0.099397 0.108431 0.082277
0.100221 0.108980 0.082063
0.103029 0.109346 0.081147
0.107546 0.110475 0.079225
0.117006 0.111330 0.076539
0.130861 0.113313 0.073335
0.148379 0.116121 0.073640
0.168643 0.117617 0.072816
0.191318 0.117922 0.071809
0.214267 0.115846 0.072602
0.241398 0.112978 0.072297
0.272679 0.108156 0.073243
0.308049 0.100771 0.072755
0.347082 0.088441 0.070893
0.389136 0.046784 0.069856
0.433448 0.000000 0.068055
0.479469 0.000000 0.065675
0.526085 0.000000 0.062562
0.573083 0.000000 0.058564
0.619348 0.000000 0.055360
0.663416 0.000000 0.052979
0.707424 0.000000 0.051575
0.754940 0.000000 0.051331
0.799496 0.000000 0.053223
0.839231 0.000000 0.060548
0.874784 0.000000 0.074861
0.906920 0.000000 0.088808
0.936584 0.000000 0.099672
0.964202 0.000000 0.112642
0.989776 0.000000 0.128084
1.000000 0.000000 0.145907
0.103182 0.116915 0.087251
0.103273 0.116945 0.086549
0.104189 0.117433 0.085634
0.106233 0.117830 0.084718
0.110567 0.118868 0.082795
0.118074 0.120089 0.079927
0.130159 0.121248 0.076051
0.147066 0.123690 0.070832
0.168948 0.127474 0.068452
0.193484 0.130434 0.067811
0.225315 0.133516 0.065095
0.255192 0.132204 0.063203
0.287297 0.128664 0.063233
0.323369 0.123354 0.061646
0.362676 0.115084 0.059663
0.404303 0.102358 0.057221
0.448035 0.076600 0.054383
0.493080 0.004791 0.050813
0.539117 0.000000 0.046174
0.584619 0.000000 0.042847
0.629297 0.000000 0.038666
0.671931 0.000000 0.035615
0.717952 0.000000 0.033509
0.762753 0.000000 0.033204
0.804929 0.000000 0.036042
0.842924 0.000000 0.043885
0.877195 0.000000 0.057984
0.908354 0.000000 0.079286
0.937316 0.000000 0.094514
0.964324 0.000000 0.108827
0.989532 0.000000 0.125124
1.000000 0.000000 0.143526
0.108034 0.127169 0.090730
0.108644 0.127108 0.090730
0.109438 0.127565 0.090211
0.111269 0.128206 0.089174
0.114809 0.129183 0.088014
0.121645 0.130037 0.085359
0.131441 0.131533 0.081483
0.145846 0.133089 0.075563
0.166537 0.136019 0.070283
0.193393 0.141634 0.065187
0.224155 0.146548 0.059998
0.263035 0.151858 0.052552
0.306340 0.154940 0.045808
0.343145 0.151522 0.043732
0.382666 0.146090 0.040131
0.423926 0.137484 0.036530
0.467170 0.125612 0.031952
0.511406 0.107362 0.028260
0.555749 0.070985 0.022980
0.600214 0.000000 0.018006
0.642908 0.000000 0.014435
0.686915 0.000000 0.010559
0.730587 0.000000 0.007752
0.773068 0.000000 0.006836
0.812772 0.000000 0.011505
0.848753 0.000000 0.020569
0.881621 0.000000 0.036286
0.911681 0.000000 0.060639
0.939757 0.000000 0.087984
0.965942 0.000000 0.104189
0.990478 0.000000 0.121675
1.000000 0.000000 0.141695
0.114107 0.139254 0.094850
0.114107 0.139254 0.094850
0.115053 0.139406 0.094392
0.117098 0.140169 0.093355
0.120424 0.141024 0.092226
0.125795 0.142153 0.090089
0.134401 0.143557 0.087007
0.147097 0.145266 0.082673
0.164370 0.146426 0.075929
0.189517 0.151034 0.068116
0.222324 0.158999 0.059968
0.259770 0.165957 0.051118
0.305119 0.173709 0.037263
0.358434 0.181582 0.019623
0.404395 0.180941 0.010285
0.446082 0.175021 0.005982
0.488991 0.167391 0.000702
0.532586 0.156283 0.000000
0.575952 0.142184 0.000000
0.618280 0.123018 0.000000
0.661646 0.097414 0.000000
0.703365 0.024170 0.000000
0.743496 0.000000 0.000000
0.782650 0.000000 0.000000
0.819364 0.000000 0.000000
0.853056 0.000000 0.000000
0.884489 0.000000 0.007965
0.913695 0.000000 0.033936
0.941161 0.000000 0.069642
0.966888 0.000000 0.097322
0.991058 0.000000 0.117464
1.000000 0.000000 0.139132
0.120333 0.153017 0.099062
0.120150 0.153262 0.099031
0.120882 0.153597 0.098512
0.122866 0.154055 0.097963
0.125978 0.155001 0.096071
0.131075 0.156374 0.094392
0.139101 0.157809 0.091676
0.150729 0.159762 0.088136
0.166720 0.161624 0.082002
0.187808 0.163424 0.072145
0.217929 0.169558 0.060975
0.257420 0.180301 0.048890
0.301854 0.190097 0.033692
0.353491 0.200076 0.013642
0.411994 0.210056 0.000000
0.471199 0.216953 0.000000
0.513268 0.211215 0.000000
0.555444 0.203799 0.000000
0.597559 0.194522 0.000000
0.640406 0.184024 0.000000
0.681147 0.171084 0.000000
0.719722 0.156008 0.000000
0.757656 0.137911 0.000000
0.794461 0.115785 0.000000
0.828855 0.084932 0.000000
0.860777 0.002716 0.000000
0.890532 0.000000 0.000000
0.918456 0.000000 0.003754
0.944823 0.000000 0.044862
0.969726 0.000000 0.089906
0.993103 0.000000 0.113497
1.000000 0.000000 0.137423
0.126345 0.170016 0.103883
0.126192 0.170199 0.103822
0.127321 0.170474 0.103365
0.129183 0.171054 0.102052
0.132113 0.172213 0.100557
0.137240 0.173526 0.098573
0.145205 0.175235 0.095430
0.155978 0.177279 0.091951
0.171206 0.179568 0.087282
0.191012 0.181857 0.078614
0.216342 0.184085 0.063630
0.252811 0.192721 0.046571
0.309545 0.212436 0.022522
0.362371 0.225467 0.000000
0.420691 0.238102 0.000000
0.483558 0.250431 0.000000
0.548577 0.262242 0.000000
0.600916 0.262821 0.000000
0.643397 0.256687 0.000000
0.683619 0.248875 0.000000
0.721614 0.240085 0.000000
0.757504 0.230137 0.000000
0.792294 0.219638 0.000000
0.824979 0.208560 0.000000
0.855253 0.197055 0.000000
0.883604 0.184360 0.000000
0.909972 0.173556 0.000000
0.934813 0.163607 0.000000
0.958251 0.156161 0.027222
0.980529 0.153994 0.088380
1.000000 0.158022 0.116335
1.000000 0.170230 0.142519
0.133913 0.193576 0.109041
0.133913 0.193576 0.109041
0.134951 0.193790 0.108614
0.137148 0.194247 0.107057
0.140383 0.195041 0.105715
0.145815 0.196262 0.103456
0.153445 0.197818 0.100130
0.164523 0.199893 0.095888
0.179202 0.202457 0.090547
0.198734 0.205142 0.081636
0.223117 0.208042 0.066102
0.254093 0.211582 0.044404
0.298100 0.223209 0.021454
0.352300 0.240299 0.000000
0.412238 0.257023 0.000000
0.476814 0.273320 0.000000
0.543572 0.288945 0.000000
0.609155 0.303380 0.000000
0.665736 0.311345 0.000000
0.702052 0.303685 0.000000
0.736660 0.295201 0.000000
0.770199 0.286717 0.000000
0.802213 0.277623 0.000000
0.832761 0.268833 0.000000
0.861387 0.259648 0.000000
0.888365 0.250187 0.000000
0.913756 0.242252 0.000000
0.937713 0.235386 0.000000
0.960479 0.230442 0.000000
0.982208 0.229129 0.066590
1.000000 0.231357 0.110658
1.000000 0.238590 0.140841
0.141421 0.216892 0.113710
0.141665 0.217014 0.113680
0.142458 0.217105 0.113008
0.144656 0.217594 0.111818
0.147738 0.218265 0.110231
0.153140 0.219394 0.107362
0.160769 0.220951 0.103822
0.171725 0.223178 0.099245
0.186160 0.225681 0.093996
0.204868 0.228580 0.086275
0.228367 0.231876 0.069062
0.257755 0.235813 0.044068
0.294957 0.240909 0.016419
0.346075 0.256168 0.000000
0.407111 0.276799 0.000000
0.470710 0.295476 0.000000
0.534783 0.312261 0.000000
0.597925 0.327825 0.000000
0.658228 0.341711 0.000000
0.714992 0.354223 0.000000
0.751980 0.350011 0.000000
0.783169 0.341375 0.000000
0.812985 0.332647 0.000000
0.841672 0.323949 0.000000
0.868711 0.315801 0.000000
0.894377 0.307500 0.000000
0.918639 0.300450 0.000000
0.941588 0.294347 0.000000
0.963439 0.290288 0.000000
0.984283 0.288396 0.037781
1.000000 0.289616 0.105715
1.000000 0.294987 0.140108
0.149081 0.243626 0.118379
0.149447 0.243626 0.118379
0.150332 0.243900 0.117372
0.152621 0.244083 0.116335
0.156039 0.244846 0.114137
0.161990 0.246067 0.111574
0.169650 0.247990 0.107942
0.181003 0.250401 0.102968
0.195590 0.253361 0.096345
0.214206 0.256901 0.088777
0.237675 0.260960 0.069581
0.266239 0.265446 0.041444
0.300389 0.269841 0.009644
0.341772 0.275029 0.000000
0.396735 0.291966 0.000000
0.460334 0.313603 0.000000
0.524041 0.333013 0.000000
0.585657 0.349950 0.000000
0.644526 0.364935 0.000000
0.700404 0.378576 0.000000
0.753323 0.391180 0.000000
0.795499 0.395392 0.000000
0.823453 0.386236 0.000000
0.850248 0.377295 0.000000
0.875822 0.368750 0.000000
0.900267 0.360906 0.000000
0.923430 0.353979 0.000000
0.945678 0.348272 0.000000
0.966888 0.344213 0.000000
0.986999 0.342626 0.013519
1.000000 0.343694 0.104311
1.000000 0.348241 0.144167
0.158541 0.275883 0.123964
0.159304 0.275822 0.123659
0.160250 0.276158 0.122957
0.162448 0.276738 0.121828
0.166415 0.277440 0.119692
0.172671 0.278843 0.116243
0.180941 0.280827 0.112245
0.192203 0.283330 0.106600
0.207126 0.286229 0.099672
0.225925 0.289708 0.090333
0.248875 0.293462 0.070680
0.276280 0.297490 0.037537
0.308537 0.301457 0.000000
0.344762 0.304967 0.000000
0.388037 0.309239 0.000000
0.445106 0.326909 0.000000
0.508690 0.348974 0.000000
0.571008 0.368505 0.000000
0.629145 0.384894 0.000000
0.684382 0.399725 0.000000
0.737728 0.413947 0.000000
0.787320 0.426856 0.000000
0.832181 0.438087 0.000000
0.858549 0.429755 0.000000
0.883024 0.420935 0.000000
0.906462 0.413123 0.000000
0.928771 0.406073 0.000000
0.950011 0.400214 0.000000
0.970214 0.395880 0.000000
0.989380 0.393622 0.000000
1.000000 0.393439 0.103731
1.000000 0.396582 0.147677
0.169467 0.309209 0.129885
0.169833 0.309361 0.129824
0.171298 0.309453 0.128969
0.173342 0.309941 0.127626
0.177523 0.310826 0.124971
0.183810 0.311986 0.121706
0.192416 0.313787 0.117006
0.203616 0.316014 0.111299
0.218204 0.318914 0.103456
0.236484 0.322087 0.092866
0.258671 0.325566 0.073457
0.284916 0.329412 0.036164
0.315740 0.333165 0.000000
0.350408 0.336553 0.000000
0.388922 0.339635 0.000000
0.434089 0.343145 0.000000
0.492195 0.362036 0.000000
0.554620 0.384161 0.000000
0.614435 0.403662 0.000000
0.669429 0.419745 0.000000
0.722744 0.435218 0.000000
0.773037 0.449470 0.000000
0.818601 0.461891 0.000000
0.860014 0.473030 0.000000
0.889403 0.472145 0.000000
0.911803 0.463813 0.000000
0.933165 0.456336 0.000000
0.953552 0.450172 0.000000
0.972900 0.445533 0.000000
0.991211 0.442634 0.000000
1.000000 0.441810 0.108370
1.000000 0.443915 0.155978
0.182681 0.344488 0.137301
0.183017 0.344793 0.137148
0.188815 0.355749 0.139223
0.191409 0.356329 0.137697
0.195987 0.357122 0.134737
0.202152 0.358190 0.130983
0.211002 0.359594 0.125673
0.222324 0.361639 0.118654
0.237125 0.364172 0.109712
0.255375 0.367102 0.097810
0.277623 0.370306 0.078401
0.303655 0.373754 0.030976
0.333349 0.376928 0.000000
0.366857 0.379858 0.000000
0.404059 0.382208 0.000000
0.444312 0.384100 0.000000
0.489509 0.385809 0.000000
0.547448 0.405219 0.000000
0.606409 0.426062 0.000000
0.662806 0.444709 0.000000
0.715145 0.460883 0.000000
0.764858 0.475868 0.000000
0.810208 0.488746 0.000000
0.851255 0.500084 0.000000
0.888121 0.510399 0.000000
0.918151 0.515465 0.000000
0.937865 0.506645 0.000000
0.956878 0.499336 0.000000
0.974975 0.493843 0.000000
0.992279 0.489876 0.000000
1.000000 0.488411 0.117678
1.000000 0.489265 0.168246
0.199680 0.384253 0.147646
0.200412 0.385382 0.147677
0.202152 0.386694 0.146944
0.205264 0.388098 0.146120
0.209842 0.389654 0.143587
0.216068 0.390967 0.139467
0.224491 0.392462 0.133974
0.235386 0.393988 0.126680
0.249363 0.396216 0.118044
0.266758 0.398810 0.105745
0.287266 0.401770 0.089326
0.312078 0.404822 0.045716
0.339971 0.407996 0.000000
0.371405 0.410742 0.000000
0.406500 0.413336 0.000000
0.444800 0.415381 0.000000
0.484260 0.415503 0.000000
0.530938 0.417975 0.000000
0.588037 0.438361 0.000000
0.644617 0.458961 0.000000
0.699092 0.477913 0.000000
0.749569 0.494514 0.000000
0.795865 0.508782 0.000000
0.837858 0.520989 0.000000
0.875517 0.531945 0.000000
0.909270 0.542107 0.000000
0.939178 0.551934 0.000000
0.957794 0.544823 0.000000
0.975158 0.538476 0.000000
0.991760 0.533959 0.009064
1.000000 0.531670 0.131106
1.000000 0.531670 0.182254
0.215976 0.419226 0.158083
0.217014 0.420508 0.158145
0.218997 0.421973 0.157870
0.221744 0.423560 0.156527
0.226627 0.425086 0.153933
0.232425 0.426368 0.150118
0.240665 0.427588 0.144594
0.250980 0.429206 0.137423
0.264195 0.431037 0.128054
0.280644 0.433387 0.116304
0.300114 0.435920 0.100221
0.322911 0.438849 0.069459
0.349401 0.441688 0.002838
0.379217 0.444556 0.000000
0.412451 0.447120 0.000000
0.448707 0.449256 0.000000
0.487922 0.451087 0.000000
0.528191 0.451057 0.000000
0.573297 0.452186 0.000000
0.628901 0.473091 0.000000
0.682826 0.493202 0.000000
0.734646 0.511803 0.000000
0.781704 0.527398 0.000000
0.824582 0.540673 0.000000
0.863096 0.552361 0.000000
0.897734 0.562890 0.000000
0.928435 0.572930 0.000000
0.955566 0.582940 0.000000
0.974701 0.581628 0.000000
0.990631 0.576532 0.064973
1.000000 0.573510 0.150607
1.000000 0.572473 0.200351
0.235050 0.456062 0.170504
0.235874 0.457313 0.171176
0.237858 0.458625 0.170779
0.240909 0.460090 0.169528
0.245212 0.461524 0.167178
0.250828 0.462684 0.163027
0.258427 0.463935 0.157595
0.268162 0.465339 0.150088
0.280705 0.467170 0.140780
0.296086 0.469093 0.129519
0.314366 0.471565 0.114290
0.336004 0.474128 0.093233
0.360784 0.476753 0.032502
0.389075 0.479347 0.000000
0.420264 0.481880 0.000000
0.454566 0.484382 0.000000
0.492103 0.486641 0.000000
0.532250 0.488655 0.000000
0.573205 0.488960 0.000000
0.617823 0.489937 0.000000
0.672511 0.512047 0.000000
0.724849 0.532403 0.000000
0.772488 0.549279 0.000000
0.816312 0.564050 0.000000
0.855711 0.576806 0.000000
0.890959 0.588159 0.000000
0.922240 0.598566 0.000000
0.949615 0.608820 0.000000
0.973510 0.619348 0.000000
0.991852 0.623346 0.136294
1.000000 0.619745 0.191562
1.000000 0.618158 0.238102
0.261784 0.501274 0.190860
0.262394 0.501793 0.190890
0.263676 0.502281 0.189853
0.266239 0.502831 0.188540
0.269780 0.503471 0.185336
0.274876 0.504143 0.181491
0.281743 0.504906 0.176059
0.290776 0.506035 0.168826
0.302220 0.507561 0.159579
0.316716 0.509483 0.148196
0.333806 0.511711 0.133639
0.354162 0.514031 0.114748
0.377264 0.516503 0.086549
0.403632 0.518975 0.000793
0.433021 0.521263 0.000000
0.465614 0.523430 0.000000
0.500511 0.525505 0.000000
0.538384 0.527459 0.000000
0.578576 0.529137 0.000000
0.618769 0.528466 0.000000
0.661830 0.529046 0.000000
0.713497 0.549859 0.000000
0.760647 0.567193 0.000000
0.803403 0.581384 0.000000
0.843351 0.594537 0.000000
0.879423 0.606470 0.000000
0.911589 0.617395 0.000000
0.939910 0.627832 0.000000
0.964599 0.638239 0.000000
0.985779 0.649134 0.144564
1.000000 0.657160 0.221500
1.000000 0.654780 0.266178
0.286442 0.539239 0.210575
0.286839 0.539635 0.210361
0.288304 0.540185 0.209781
0.290715 0.540642 0.208286
0.293858 0.541222 0.205875
0.298711 0.541894 0.201694
0.305058 0.542626 0.196170
0.313207 0.543725 0.189029
0.323827 0.545129 0.180697
0.336950 0.546868 0.169680
0.352880 0.548852 0.156374
0.371496 0.551171 0.139284
0.393042 0.553368 0.115938
0.417700 0.555810 0.078218
0.445228 0.558160 0.000000
0.475502 0.560510 0.000000
0.508690 0.562676 0.000000
0.544335 0.564843 0.000000
0.582666 0.566827 0.000000
0.622919 0.568658 0.000000
0.662379 0.567468 0.000000
0.704311 0.568170 0.000000
0.751766 0.586481 0.000000
0.794858 0.601495 0.000000
0.830533 0.610590 0.000000
0.866972 0.622614 0.000000
0.900237 0.634058 0.000000
0.929503 0.644770 0.000000
0.955108 0.655146 0.000000
0.977203 0.665766 0.132815
0.995727 0.677028 0.224735
1.000000 0.688380 0.296391
0.317510 0.581842 0.237461
0.318425 0.582513 0.237675
0.319280 0.583032 0.237186
0.321263 0.583154 0.235508
0.323766 0.583185 0.232273
0.327581 0.583215 0.227787
0.332708 0.583246 0.222141
0.339635 0.583642 0.215030
0.348608 0.584161 0.206088
0.359930 0.585138 0.195285
0.373907 0.586297 0.182345
0.390356 0.587854 0.166171
0.409857 0.589563 0.145876
0.432136 0.591272 0.118959
0.456855 0.592950 0.064179
0.484504 0.594659 0.000000
0.515099 0.596338 0.000000
0.548577 0.598230 0.000000
0.584436 0.600366 0.000000
0.622736 0.602441 0.000000
0.663081 0.604517 0.000000
0.701076 0.602258 0.000000
0.740444 0.601984 0.000000
0.783902 0.617548 0.000000
0.822660 0.630030 0.000000
0.857084 0.640253 0.000000
0.889830 0.650813 0.000000
0.919738 0.661433 0.000000
0.945922 0.671687 0.000000
0.968719 0.681941 0.120607
0.987945 0.692683 0.221744
1.000000 0.704128 0.298039
0.344182 0.617548 0.262303
0.344915 0.618250 0.262730
0.346288 0.618738 0.262455
0.347753 0.619104 0.260716
0.350683 0.619440 0.258244
0.354192 0.619867 0.254185
0.359197 0.620447 0.249088
0.366155 0.621271 0.242710
0.374548 0.622431 0.234409
0.385321 0.623713 0.224643
0.398322 0.625208 0.213077
0.413519 0.626947 0.198734
0.431281 0.628565 0.180880
0.451667 0.630213 0.158297
0.474525 0.631830 0.128511
0.499947 0.633326 0.071321
0.528252 0.634791 0.000000
0.558984 0.636439 0.000000
0.592584 0.638178 0.000000
0.628473 0.640040 0.000000
0.666438 0.641810 0.000000
0.706050 0.643397 0.000000
0.741543 0.639155 0.000000
0.778408 0.638148 0.000000
0.817441 0.651301 0.000000
0.852354 0.661921 0.000000
0.883177 0.670649 0.000000
0.912169 0.680018 0.000000
0.938964 0.690242 0.000000
0.962066 0.700313 0.126070
0.981659 0.710506 0.227634
0.997620 0.721309 0.306584
0.376318 0.656092 0.294713
0.376989 0.656428 0.294804
0.377783 0.656733 0.294408
0.379187 0.656916 0.292576
0.381537 0.657160 0.290196
0.384802 0.657435 0.286290
0.389197 0.657923 0.281254
0.394934 0.658503 0.274907
0.402441 0.659388 0.267002
0.412085 0.660487 0.257908
0.423346 0.661738 0.246403
0.437110 0.663142 0.233433
0.453132 0.664637 0.217197
0.471443 0.666133 0.197818
0.492256 0.667506 0.173648
0.515343 0.668818 0.141421
0.541222 0.670130 0.091676
0.569757 0.671504 0.000000
0.600855 0.673030 0.000000
0.634272 0.674678 0.000000
0.669886 0.676326 0.000000
0.707118 0.677729 0.000000
0.745571 0.678798 0.000000
0.777859 0.672450 0.000000
0.811887 0.670954 0.000000
0.847013 0.681788 0.000000
0.878141 0.690639 0.000000
0.905303 0.697780 0.000000
0.930755 0.705806 0.000000
0.954589 0.715755 0.118379
0.974731 0.725734 0.228244
0.991241 0.736080 0.310216
0.408667 0.690883 0.329625
0.409216 0.691157 0.329808
0.409827 0.691463 0.329320
0.411322 0.691737 0.327916
0.413672 0.692164 0.325780
0.416907 0.692897 0.322789
0.421729 0.693965 0.318822
0.427955 0.695430 0.314214
0.435828 0.697139 0.308232
0.445411 0.699214 0.301366
0.456794 0.701503 0.292790
0.470130 0.703700 0.281804
0.485206 0.705989 0.269078
0.502281 0.708003 0.253391
0.521324 0.709834 0.233433
0.542473 0.711269 0.209506
0.565789 0.712581 0.179141
0.591760 0.713863 0.136294
0.620142 0.715267 0.019562
0.650965 0.716640 0.000000
0.683894 0.718013 0.000000
0.718593 0.719234 0.000000
0.754208 0.719905 0.000000
0.789517 0.718959 0.000000
0.819486 0.711757 0.000000
0.850431 0.710018 0.000000
0.880797 0.718257 0.000000
0.907286 0.724849 0.000000
0.930205 0.730343 0.000000
0.951293 0.736782 0.149172
0.971099 0.746181 0.251774
0.987213 0.755886 0.333715
0.452674 0.730831 0.381201
0.452796 0.730892 0.380987
0.453376 0.730953 0.380346
0.454170 0.731014 0.378668
0.455848 0.731197 0.376074
0.458381 0.731411 0.372747
0.461769 0.731899 0.368170
0.466468 0.732601 0.362860
0.472541 0.733455 0.356359
0.479957 0.734524 0.348455
0.488991 0.735775 0.339239
0.499886 0.737148 0.328649
0.512627 0.738552 0.315618
0.527062 0.739956 0.300389
