luts/旅拍胶片07.cube
# Created by Adobe Lightroom plugin Export LUT (1.24.0)
# www.johnrellis.com/lightroom/exportlut.htm
# Preset: 旅拍胶片-素材江湖07
# Color profile: E:\lut插件\exportlut.1.24\exportlut.lrplugin\color profiles\Rec709gamma2.4.icc
LUT_3D_SIZE 8
DOMAIN_MIN 0.000000 0.000000 0.000000
DOMAIN_MAX 0.903226 0.903226 0.903226
0.087770 0.102663 0.099489
0.108217 0.104005 0.100740
0.158114 0.106233 0.103670
0.253666 0.101228 0.104372
0.412696 0.024109 0.098726
0.601129 0.000000 0.080903
0.780301 0.000000 0.016327
0.957855 0.000000 0.000000
0.096773 0.112520 0.106722
0.107515 0.112398 0.106203
0.161471 0.113588 0.104891
0.257664 0.111147 0.102663
0.413611 0.080751 0.096651
0.597925 0.000000 0.074678
0.775937 0.000000 0.003571
0.950164 0.000000 0.000000
0.115450 0.142397 0.121279
0.122652 0.143130 0.120424
0.160861 0.144228 0.117830
0.291630 0.155947 0.105348
0.465187 0.155093 0.074128
0.650141 0.125551 0.000000
0.833402 0.005432 0.000000
0.986481 0.000000 0.000000
0.137362 0.227543 0.136873
0.147707 0.228000 0.135836
0.192081 0.232517 0.131319
0.291417 0.243290 0.121370
0.515282 0.286168 0.034455
0.730739 0.279362 0.000000
0.890532 0.273716 0.000000
1.000000 0.275090 0.000000
0.156985 0.385290 0.160616
0.173159 0.386175 0.159121
0.233921 0.392523 0.152712
0.340978 0.406744 0.138003
0.500008 0.420172 0.109010
0.719753 0.450355 0.000000
0.908690 0.436713 0.000000
1.000000 0.441932 0.000000
0.232364 0.562066 0.226505
0.250370 0.568353 0.228550
0.304723 0.572900 0.223819
0.398352 0.581689 0.213901
0.530602 0.592859 0.195682
0.702663 0.604944 0.174228
0.881712 0.628046 0.152132
1.000000 0.628382 0.106111
0.397375 0.729610 0.357488
0.408667 0.729549 0.361364
0.441138 0.731319 0.358892
0.504204 0.735927 0.354894
0.596338 0.741238 0.347478
0.718166 0.750027 0.340154
0.856718 0.758267 0.339483
0.974578 0.772000 0.354955
0.604089 0.861112 0.530175
0.609216 0.860319 0.532219
0.631067 0.857572 0.542321
0.669429 0.858732 0.548486
0.710964 0.855528 0.535943
0.786526 0.860777 0.539788
0.873014 0.866300 0.545006
0.955291 0.869108 0.553826
0.089937 0.108980 0.126009
0.108278 0.106752 0.126802
0.156008 0.104341 0.122255
0.252689 0.086915 0.118563
0.406195 0.000000 0.116030
0.589624 0.000000 0.106905
0.768734 0.000000 0.086091
0.940276 0.000000 0.000000
0.096468 0.118379 0.120089
0.112825 0.117067 0.121431
0.159579 0.119509 0.122835
0.250278 0.117861 0.123262
0.401617 0.094881 0.119112
0.582940 0.000000 0.108370
0.761196 0.000000 0.086397
0.928893 0.000000 0.000000
0.123507 0.146731 0.128481
0.130373 0.147402 0.128237
0.165438 0.149172 0.126558
0.289677 0.160037 0.119600
0.452155 0.159121 0.106111
0.630060 0.133577 0.081910
0.803830 0.050996 0.002777
0.959930 0.000000 0.000000
0.144625 0.226902 0.136202
0.154513 0.227817 0.135012
0.196933 0.232761 0.130831
0.288090 0.241123 0.121798
0.493416 0.280430 0.056184
0.699763 0.273228 0.000000
0.859190 0.265812 0.000000
0.996674 0.266239 0.000000
0.167666 0.384894 0.159274
0.182376 0.384863 0.157778
0.238376 0.389319 0.151125
0.338231 0.399481 0.136995
0.487007 0.409277 0.108949
0.702296 0.440986 0.000000
0.893828 0.431373 0.000000
1.000000 0.435218 0.000000
0.235172 0.555444 0.222080
0.248905 0.556817 0.221073
0.301793 0.561791 0.216526
0.393713 0.572045 0.207950
0.524498 0.584833 0.190646
0.696620 0.599756 0.169802
0.875578 0.623163 0.146487
1.000000 0.623102 0.093111
0.390234 0.721401 0.350713
0.397223 0.719936 0.350530
0.429664 0.721492 0.347784
0.494667 0.727199 0.344823
0.589837 0.735164 0.339940
0.711879 0.744167 0.332555
0.849699 0.751034 0.329686
0.969726 0.764706 0.343084
0.594507 0.856992 0.521965
0.601770 0.856962 0.525811
0.623621 0.854002 0.535607
0.662531 0.855467 0.541711
0.717800 0.858946 0.542992
0.788602 0.862058 0.542840
0.872435 0.865904 0.543969
0.954894 0.868559 0.552422
0.000000 0.123934 0.223362
0.018006 0.117586 0.224125
0.167514 0.109804 0.223789
0.264714 0.093721 0.207034
0.425147 0.000000 0.204929
0.622156 0.000000 0.173434
0.808408 0.000000 0.156558
0.967376 0.000000 0.145785
0.028046 0.137453 0.209995
0.086519 0.133516 0.210666
0.170443 0.124758 0.211978
0.267460 0.110872 0.202548
0.429450 0.000000 0.195438
0.621698 0.000000 0.164553
0.799252 0.000000 0.160616
0.957855 0.000000 0.149233
0.099123 0.181857 0.186191
0.120760 0.181247 0.187442
0.192142 0.179202 0.193820
0.296391 0.180636 0.190188
0.444984 0.177859 0.187289
0.618891 0.166964 0.184512
0.790249 0.145510 0.179171
0.945373 0.144106 0.170077
0.165988 0.269780 0.192203
0.181521 0.267460 0.196384
0.226139 0.265446 0.202731
0.320531 0.276677 0.200381
0.519280 0.303624 0.190738
0.697108 0.303471 0.177005
0.853422 0.301122 0.157992
0.985260 0.309941 0.138216
0.217350 0.406653 0.215488
0.228458 0.407721 0.214389
0.275883 0.413306 0.211063
0.368200 0.425055 0.204410
0.511376 0.436652 0.193210
0.713008 0.465095 0.170016
0.895659 0.455818 0.129061
1.000000 0.463722 0.000000
0.272984 0.568688 0.225376
0.285161 0.570367 0.224826
0.331792 0.574640 0.220737
0.416602 0.583001 0.211551
0.540337 0.594385 0.194614
0.704494 0.608606 0.176699
0.877867 0.633082 0.161685
1.000000 0.635889 0.123079
0.416205 0.729885 0.360754
0.422065 0.729458 0.358953
0.451057 0.729946 0.355291
0.511284 0.734005 0.351171
0.602167 0.740810 0.346044
0.720974 0.750301 0.339879
0.856687 0.759091 0.340429
0.973846 0.773892 0.358465
0.601556 0.859037 0.527184
0.605859 0.857908 0.528679
0.627131 0.854887 0.538262
0.667201 0.857359 0.545525
0.721523 0.860655 0.546685
0.792660 0.864530 0.548211
0.875425 0.868528 0.550469
0.956451 0.871031 0.558587
0.000000 0.153902 0.399237
0.000000 0.146120 0.401312
0.000000 0.131533 0.400977
0.289708 0.097414 0.403021
0.462684 0.000000 0.385229
0.626246 0.000000 0.366186
0.806119 0.000000 0.345281
0.972747 0.000000 0.297276
0.000000 0.173129 0.389960
0.000000 0.168399 0.390509
0.000000 0.148440 0.392279
0.296239 0.122499 0.396979
0.462104 0.000000 0.377508
0.629267 0.000000 0.363867
0.808286 0.000000 0.339452
0.973449 0.000000 0.290501
0.000000 0.231724 0.361089
0.000000 0.228702 0.360540
0.130129 0.215915 0.363165
0.315648 0.199466 0.370306
0.477821 0.179446 0.360296
0.651789 0.126223 0.353704
0.834501 0.000000 0.321019
0.984619 0.000000 0.280980
0.000000 0.345922 0.324620
0.000000 0.344823 0.325078
0.200992 0.342565 0.330175
0.367895 0.340551 0.345190
0.509209 0.339086 0.334386
0.656977 0.344427 0.329747
0.807095 0.353765 0.327550
0.946227 0.371252 0.324132
0.257481 0.486152 0.329412
0.277379 0.482673 0.332280
0.342412 0.472175 0.346136
0.421485 0.467689 0.363439
0.540673 0.482704 0.364050
0.721981 0.507042 0.362463
0.869627 0.511467 0.351141
0.990600 0.520378 0.330358
0.375433 0.610895 0.369146
0.389227 0.613153 0.374884
0.424964 0.604608 0.384894
0.484657 0.612238 0.384192
0.580041 0.623346 0.380713
0.714443 0.635279 0.378729
0.872435 0.662989 0.377234
1.000000 0.667628 0.348516
0.461952 0.742061 0.399725
0.468910 0.743130 0.399573
0.496590 0.745724 0.398016
0.550622 0.750729 0.394537
0.631769 0.756924 0.387274
0.739712 0.764370 0.376898
0.865751 0.771023 0.367620
0.978485 0.784665 0.377630
0.616632 0.866178 0.540764
0.621332 0.865385 0.542687
0.641413 0.862364 0.551598
0.676875 0.862638 0.556573
0.728847 0.865293 0.556939
0.797787 0.868528 0.557977
0.879026 0.872435 0.560479
0.959075 0.875364 0.569726
0.000000 0.208255 0.584710
0.000000 0.204807 0.586053
0.000000 0.178012 0.588067
0.178866 0.165927 0.593256
0.453712 0.109133 0.598718
0.661158 0.000000 0.586633
0.808560 0.000000 0.549065
0.953002 0.000000 0.537987
0.000000 0.229252 0.579828
0.000000 0.227146 0.582330
0.000000 0.198245 0.585748
0.200656 0.187076 0.588678
0.460151 0.145144 0.594079
0.663935 0.000000 0.582422
0.809262 0.000000 0.546471
0.952270 0.000000 0.536858
0.000000 0.294316 0.561028
0.000000 0.292485 0.561975
0.000000 0.283452 0.563470
0.250462 0.257664 0.566949
0.478553 0.240665 0.571008
0.665248 0.194644 0.559533
0.806943 0.186282 0.533593
0.949615 0.158175 0.523949
0.000000 0.399207 0.531395
0.000000 0.397498 0.530907
0.000000 0.390967 0.530358
0.325109 0.383551 0.535058
0.515801 0.373480 0.541650
0.670253 0.365362 0.526696
0.811856 0.370733 0.521172
0.964477 0.295842 0.485634
0.000000 0.538994 0.481117
0.000000 0.538598 0.482063
0.227298 0.535760 0.485420
0.398260 0.530907 0.492470
0.559136 0.525261 0.505608
0.682490 0.520531 0.490669
0.810361 0.525139 0.481483
0.935424 0.537591 0.473793
0.383734 0.656580 0.472602
0.399939 0.655543 0.475471
0.457496 0.648615 0.486336
0.521660 0.636866 0.496803
0.596490 0.630976 0.513664
0.708797 0.652522 0.524468
0.858183 0.683223 0.531334
0.975769 0.692866 0.517876
0.532219 0.771023 0.519371
0.536431 0.769192 0.519280
0.556390 0.763546 0.521813
0.601099 0.755856 0.535729
0.661952 0.760800 0.541070
0.746059 0.770382 0.539544
0.853239 0.780148 0.540520
0.963500 0.798062 0.534234
0.604700 0.869627 0.537133
0.609735 0.868742 0.539025
0.630579 0.865476 0.547814
0.672724 0.864958 0.562615
0.725734 0.867857 0.563653
0.795682 0.871061 0.564446
0.877775 0.874418 0.565911
0.959411 0.876677 0.572686
0.000000 0.295018 0.744472
0.000000 0.295567 0.745754
0.000000 0.269780 0.745174
0.000000 0.258183 0.746242
0.388098 0.246677 0.746609
0.614374 0.216037 0.748379
0.806607 0.153353 0.745968
0.950164 0.106172 0.730404
0.000000 0.306310 0.731777
0.000000 0.305730 0.731746
0.000000 0.286320 0.732387
0.000000 0.269291 0.734279
0.390631 0.259525 0.736873
0.613153 0.234897 0.740505
0.803464 0.184817 0.739010
0.946014 0.157076 0.724147
0.000000 0.367559 0.722774
0.000000 0.366644 0.722377
0.000000 0.365118 0.722652
0.127687 0.333135 0.722347
0.426459 0.328222 0.724941
0.632105 0.317327 0.729366
0.810971 0.294377 0.729458
0.944823 0.291966 0.715236
0.000000 0.456245 0.700160
0.000000 0.454688 0.698909
0.000000 0.454871 0.699336
0.310674 0.458412 0.705074
0.484596 0.441688 0.710811
0.666682 0.440742 0.714839
0.825986 0.430457 0.716304
0.944701 0.439033 0.702968
0.000000 0.576440 0.669215
0.000000 0.575463 0.668757
0.000000 0.571679 0.668086
0.339391 0.564782 0.668208
0.525811 0.559319 0.672999
0.684474 0.554650 0.679927
0.817807 0.550927 0.674647
0.935515 0.561151 0.673457
0.194156 0.700893 0.621637
0.231785 0.701686 0.623438
0.327123 0.698817 0.624750
0.447761 0.693721 0.627924
0.578119 0.686397 0.633722
0.715419 0.683162 0.647822
0.823514 0.681147 0.634852
0.930816 0.686061 0.623682
0.523613 0.810758 0.624659
0.534325 0.810727 0.626886
0.570550 0.807492 0.632166
0.634333 0.801022 0.644038
0.696162 0.790829 0.654414
0.759304 0.783932 0.668696
0.847349 0.797543 0.676265
0.951812 0.817227 0.679164
0.679316 0.886839 0.667659
0.681117 0.886015 0.666926
0.691829 0.883696 0.666560
0.714443 0.879881 0.667872
0.749691 0.872313 0.674098
0.804685 0.873167 0.680720
0.873808 0.878782 0.680049
0.948577 0.882994 0.679194
0.000000 0.396246 0.850523
0.000000 0.398230 0.851072
0.000000 0.386206 0.851591
0.000000 0.363256 0.853574
0.363439 0.362097 0.854154
0.576593 0.355932 0.855009
0.756222 0.344945 0.856352
0.907256 0.331731 0.855894
0.000000 0.405676 0.845640
0.000000 0.407721 0.846311
0.000000 0.400855 0.846830
0.000000 0.372992 0.848692
0.367956 0.371221 0.849271
0.576013 0.364385 0.849943
0.753170 0.353216 0.851133
0.903319 0.338964 0.850614
0.000000 0.452277 0.839353
0.000000 0.452918 0.839292
0.000000 0.455573 0.838865
0.133547 0.428626 0.841001
0.406317 0.422217 0.841855
0.597162 0.418250 0.843381
0.766110 0.414405 0.846372
0.910460 0.408179 0.848356
0.000000 0.524926 0.827543
0.000000 0.524437 0.826993
0.000000 0.525383 0.826474
0.320012 0.530632 0.827207
0.458412 0.505974 0.830533
0.629877 0.506126 0.833219
0.784482 0.507134 0.837247
0.917632 0.502708 0.840909
0.000000 0.616999 0.807279
0.000000 0.615473 0.806516
0.000000 0.611536 0.805356
0.311833 0.607477 0.806088
0.514702 0.611475 0.808927
0.650782 0.596429 0.814328
0.796567 0.599451 0.819486
0.924468 0.598322 0.827787
0.000000 0.732357 0.785367
0.000000 0.731777 0.785428
0.239139 0.728695 0.785428
0.383337 0.722286 0.785824
0.520775 0.710719 0.786526
0.677546 0.704311 0.792844
0.814633 0.703426 0.801114
0.923461 0.701595 0.800839
0.381231 0.832547 0.751095
0.394568 0.832395 0.751736
0.441230 0.830442 0.752438
0.518822 0.826749 0.754360
0.615381 0.820676 0.756985
0.723049 0.813046 0.761868
0.834562 0.806485 0.771420
0.919799 0.802274 0.756344
0.641199 0.906188 0.751278
0.647150 0.905791 0.752102
0.672450 0.904570 0.756191
0.715969 0.901183 0.762966
0.774380 0.895598 0.774441
0.825315 0.888487 0.783841
0.872374 0.883665 0.795224
0.933104 0.892485 0.803983
0.000000 0.537560 0.926421
0.000000 0.539818 0.926390
0.204746 0.536675 0.926085
0.291234 0.509667 0.928099
0.454871 0.506065 0.928252
0.607416 0.504723 0.928038
0.748348 0.503410 0.928252
0.872709 0.501335 0.928557
0.000000 0.542718 0.924529
0.000000 0.544976 0.924559
0.231754 0.546715 0.924163
0.306920 0.519554 0.926116
0.458412 0.512840 0.926574
0.609155 0.511315 0.926513
0.748409 0.509117 0.926665
0.872068 0.506554 0.926970
0.000000 0.570214 0.920623
0.050568 0.571588 0.920562
0.270634 0.576562 0.919768
0.375708 0.566125 0.921324
0.482338 0.547417 0.922637
0.622736 0.544823 0.922576
0.756283 0.543145 0.923125
0.875761 0.541222 0.923796
0.000000 0.614893 0.914488
0.102358 0.616236 0.914519
0.278233 0.619959 0.914000
0.434272 0.629328 0.913359
0.513878 0.603845 0.916045
0.644617 0.602136 0.916594
0.769986 0.600855 0.917693
0.882536 0.599695 0.919127
0.000000 0.675593 0.905241
0.000000 0.675776 0.905516
0.216495 0.674525 0.905791
0.401160 0.678157 0.905791
0.562158 0.686336 0.905211
0.657832 0.665583 0.908354
0.780697 0.665400 0.910185
0.889464 0.667781 0.912596
0.181918 0.765988 0.893553
0.206851 0.764950 0.893431
0.286381 0.761166 0.893187
0.392523 0.754421 0.893553
0.515435 0.744900 0.895079
0.684718 0.751888 0.897276
0.794186 0.743282 0.901915
0.898253 0.748287 0.904814
0.373022 0.858579 0.881498
0.383001 0.857969 0.881437
0.423011 0.855344 0.881407
0.492256 0.850309 0.881590
0.580438 0.842008 0.882017
0.679713 0.829587 0.882902
0.806424 0.822690 0.886198
0.905547 0.823117 0.891386
0.553552 0.921965 0.857694
0.558953 0.921599 0.857725
0.582849 0.920226 0.858122
0.629023 0.917723 0.859312
0.691737 0.913695 0.861112
0.765866 0.908080 0.863523
0.844694 0.901671 0.867247
0.919463 0.896361 0.873594
