luts/旅拍胶片05.cube
# Created by Adobe Lightroom plugin Export LUT (1.24.0)
# www.johnrellis.com/lightroom/exportlut.htm
# Preset: 旅拍胶片-素材江湖05
# Color profile: E:\lut插件\exportlut.1.24\exportlut.lrplugin\color profiles\Rec709gamma2.4.icc
LUT_3D_SIZE 8
DOMAIN_MIN 0.000000 0.000000 0.000000
DOMAIN_MAX 0.903226 0.903226 0.903226
0.058839 0.056916 0.040772
0.087221 0.060853 0.042969
0.162081 0.073426 0.045258
0.323308 0.006928 0.033082
0.555169 0.000000 0.000000
0.760647 0.000000 0.000000
0.902342 0.000000 0.000000
0.995514 0.157412 0.000000
0.065797 0.082429 0.045838
0.089357 0.086549 0.042054
0.161898 0.092470 0.041993
0.318669 0.068910 0.028321
0.546288 0.000000 0.000000
0.750881 0.000000 0.000000
0.891295 0.000000 0.000000
0.989227 0.177890 0.000000
0.085115 0.137392 0.069337
0.101534 0.135378 0.074311
0.156985 0.149050 0.042176
0.327886 0.165652 0.002502
0.553948 0.165957 0.000000
0.757046 0.178500 0.000000
0.896147 0.218875 0.000000
0.990692 0.277409 0.000000
0.000000 0.267491 0.075502
0.092500 0.264408 0.082551
0.177707 0.264683 0.079530
0.325292 0.304387 0.000000
0.566705 0.340307 0.000000
0.766079 0.347692 0.000000
0.891447 0.363867 0.000000
0.981750 0.392340 0.000000
0.000000 0.463844 0.086976
0.015198 0.461250 0.094179
0.228122 0.453315 0.121309
0.345953 0.469368 0.000000
0.520989 0.497292 0.000000
0.718013 0.510948 0.000000
0.864286 0.509422 0.000000
0.966094 0.513695 0.000000
0.175448 0.641382 0.199344
0.215457 0.643183 0.206943
0.310430 0.637537 0.223758
0.416968 0.629725 0.242313
0.518578 0.646876 0.115572
0.670771 0.663264 0.000000
0.824552 0.658808 0.000000
0.935119 0.649500 0.000000
0.379828 0.770993 0.377417
0.392798 0.770626 0.380896
0.436103 0.766903 0.390265
0.505028 0.760311 0.410651
0.569207 0.760494 0.384894
0.655634 0.769741 0.282353
0.778744 0.776577 0.000000
0.898741 0.762783 0.000000
0.545830 0.855100 0.578302
0.550988 0.854643 0.579614
0.572656 0.852873 0.586786
0.611109 0.849729 0.601404
0.653162 0.841398 0.610803
0.696162 0.848081 0.559869
0.766445 0.854582 0.470954
0.865537 0.858030 0.309148
0.060914 0.060060 0.074159
0.091249 0.058747 0.072389
0.153719 0.066926 0.069673
0.289372 0.056031 0.076753
0.518669 0.000000 0.042054
0.731777 0.000000 0.000000
0.878965 0.000000 0.000000
0.981506 0.163821 0.000000
0.057465 0.088838 0.071534
0.091310 0.088991 0.072847
0.151736 0.096712 0.079896
0.292607 0.091554 0.076173
0.518822 0.000000 0.036988
0.729793 0.000000 0.000000
0.874113 0.000000 0.000000
0.977234 0.185611 0.000000
0.090700 0.141024 0.090394
0.106538 0.139467 0.092561
0.155795 0.147250 0.081209
0.312840 0.161440 0.059083
0.531762 0.166995 0.000000
0.733791 0.177920 0.000000
0.875303 0.215640 0.000000
0.977295 0.276799 0.000000
0.029725 0.264836 0.101381
0.101991 0.262577 0.104402
0.184207 0.259556 0.110048
0.312322 0.291051 0.000000
0.539055 0.321416 0.000000
0.740505 0.332555 0.000000
0.872007 0.354040 0.000000
0.969451 0.387579 0.000000
0.000000 0.460914 0.122835
0.083284 0.457832 0.127657
0.233310 0.448585 0.146151
0.343603 0.458320 0.101289
0.508995 0.483497 0.000000
0.705928 0.499397 0.000000
0.855070 0.502861 0.000000
0.958495 0.511376 0.000000
0.183658 0.635828 0.217472
0.216800 0.634668 0.221500
0.309636 0.629297 0.236637
0.417639 0.620874 0.261051
0.515099 0.639338 0.159609
0.666041 0.657649 0.000000
0.819791 0.654597 0.000000
0.930785 0.647059 0.000000
0.377600 0.766842 0.383124
0.387823 0.765438 0.383917
0.431434 0.761563 0.392920
0.501152 0.755489 0.413214
0.567864 0.756130 0.396063
0.652491 0.765743 0.298894
0.774075 0.772183 0.000000
0.894255 0.758877 0.000000
0.542199 0.852964 0.578576
0.548608 0.852842 0.581384
0.569940 0.851011 0.587793
0.608667 0.847898 0.602289
0.657008 0.843046 0.622400
0.697780 0.848142 0.572900
0.765682 0.853849 0.483406
0.864103 0.857328 0.328618
0.021210 0.071290 0.158297
0.084871 0.068544 0.156191
0.166323 0.058656 0.144381
0.294377 0.013581 0.146670
0.506340 0.000000 0.133303
0.706203 0.000000 0.154299
0.860166 0.138857 0.160800
0.967742 0.250614 0.176974
0.051637 0.103548 0.147829
0.089448 0.098299 0.147005
0.164096 0.094270 0.141238
0.291936 0.078859 0.143984
0.497536 0.000000 0.142672
0.702480 0.061006 0.154696
0.856016 0.164920 0.157931
0.964416 0.262058 0.173678
0.030549 0.158358 0.141390
0.088502 0.158633 0.141787
0.178775 0.167025 0.150362
0.308354 0.173465 0.149325
0.512718 0.186557 0.153323
0.712215 0.210605 0.153811
0.857603 0.259495 0.158297
0.962280 0.325780 0.177768
0.000000 0.284977 0.153780
0.035523 0.286320 0.157809
0.210971 0.283970 0.176150
0.324926 0.299260 0.149294
0.538903 0.323796 0.142641
0.724392 0.348150 0.150271
0.858152 0.380468 0.160464
0.956939 0.422004 0.186130
0.034913 0.473732 0.211887
0.139162 0.471565 0.214511
0.262547 0.464027 0.226658
0.370397 0.461372 0.229038
0.514000 0.485634 0.130648
0.701717 0.500603 0.064607
0.846677 0.512474 0.151797
0.945953 0.532738 0.203647
0.235294 0.639796 0.297704
0.260594 0.639002 0.300816
0.338598 0.633631 0.311437
0.437751 0.623896 0.332464
0.524315 0.634974 0.282200
0.662562 0.653071 0.151431
0.813046 0.653864 0.000000
0.922942 0.654658 0.198154
0.405432 0.768704 0.444007
0.414832 0.767483 0.444923
0.452888 0.763363 0.451087
0.515984 0.757015 0.467048
0.581445 0.753567 0.468757
0.655970 0.763943 0.387732
0.772213 0.771786 0.257237
0.890990 0.761532 0.141176
0.551141 0.853239 0.609674
0.555749 0.852598 0.610285
0.576226 0.850767 0.615930
0.614466 0.848264 0.629999
0.661128 0.843534 0.647364
0.702083 0.847105 0.616571
0.765408 0.853300 0.540063
0.860746 0.857176 0.409094
0.000000 0.083894 0.345830
0.000000 0.080720 0.343175
0.168673 0.039338 0.325872
0.337591 0.000000 0.295201
0.515618 0.000000 0.292149
0.709957 0.000000 0.282780
0.849882 0.000000 0.265202
0.934386 0.333135 0.334630
0.000000 0.111482 0.329839
0.000000 0.110201 0.327276
0.171328 0.096468 0.315801
0.337285 0.000000 0.292149
0.515465 0.000000 0.292607
0.707362 0.000000 0.281559
0.843687 0.100771 0.275914
0.933227 0.345647 0.336522
0.000000 0.206943 0.308659
0.000000 0.204288 0.306340
0.170626 0.184543 0.299931
0.338842 0.166171 0.286168
0.517876 0.181643 0.291905
0.703090 0.186709 0.281041
0.827787 0.330175 0.324041
0.933562 0.401068 0.351507
0.000000 0.325994 0.292638
0.000000 0.325383 0.292058
0.161471 0.326787 0.293462
0.373938 0.345495 0.314733
0.529625 0.349981 0.305547
0.690700 0.379431 0.315984
0.825101 0.421973 0.334417
0.928038 0.472969 0.360784
0.000000 0.496498 0.305608
0.000000 0.495399 0.308019
0.235264 0.494270 0.322759
0.413123 0.490394 0.359228
0.527367 0.500114 0.321447
0.695735 0.515404 0.326757
0.825803 0.539452 0.358465
0.920836 0.569055 0.384344
0.211887 0.655543 0.387945
0.252689 0.657221 0.395697
0.372747 0.652796 0.424231
0.467475 0.643702 0.439673
0.548852 0.640314 0.435859
0.661372 0.654780 0.355322
0.801755 0.659876 0.344030
0.906371 0.671321 0.402747
0.433509 0.772549 0.530541
0.443336 0.772091 0.532525
0.479561 0.769223 0.538750
0.537682 0.763912 0.551293
0.603540 0.755947 0.569879
0.662501 0.763394 0.517052
0.765896 0.770748 0.419562
0.880858 0.765286 0.374060
0.563867 0.855955 0.660731
0.568688 0.855497 0.661738
0.587854 0.853696 0.665705
0.622766 0.850523 0.674556
0.667323 0.845853 0.687678
0.708919 0.845396 0.680629
0.763729 0.852140 0.621424
0.853666 0.856992 0.522545
0.000000 0.098299 0.593988
0.000000 0.095338 0.591760
0.000000 0.046418 0.577142
0.346960 0.000000 0.554040
0.554498 0.000000 0.513970
0.714076 0.000000 0.484840
0.840085 0.090669 0.471595
0.940276 0.260502 0.459236
0.000000 0.130190 0.581506
0.000000 0.128115 0.580316
0.000000 0.111269 0.568658
0.348302 0.000000 0.546410
0.553460 0.000000 0.510338
0.711299 0.000000 0.483864
0.837308 0.157565 0.471565
0.937346 0.285191 0.460822
0.000000 0.255375 0.553033
0.000000 0.251835 0.550256
0.000000 0.221805 0.542504
0.353094 0.198032 0.527245
0.546960 0.158633 0.496132
0.695064 0.211551 0.476661
0.824216 0.282322 0.469276
0.924743 0.361028 0.463935
0.000000 0.392798 0.531395
0.000000 0.391882 0.529046
0.143679 0.389960 0.523430
0.364538 0.367803 0.514305
0.545739 0.350103 0.493355
0.680293 0.387671 0.484047
0.807797 0.418921 0.473365
0.892821 0.508507 0.508293
0.000000 0.528862 0.499794
0.000000 0.528405 0.499153
0.000000 0.525963 0.497108
0.364050 0.525841 0.499062
0.550805 0.540459 0.519371
0.669368 0.539513 0.502586
0.785428 0.563958 0.512383
0.883818 0.599298 0.534630
0.000000 0.660121 0.487831
0.000000 0.659632 0.489479
0.244450 0.656123 0.496071
0.423285 0.652918 0.516014
0.562585 0.648463 0.555505
0.653010 0.657038 0.520775
0.781155 0.669337 0.532067
0.879240 0.689509 0.569238
0.338445 0.778561 0.572381
0.355749 0.777584 0.574243
0.419959 0.774441 0.584405
0.521660 0.770352 0.614374
0.606500 0.762570 0.638575
0.664820 0.759976 0.632105
0.752255 0.767300 0.561028
0.861997 0.767575 0.545556
0.511711 0.859617 0.677180
0.521996 0.858915 0.680629
0.566796 0.855894 0.698878
0.618189 0.852903 0.716274
0.665797 0.848295 0.726680
0.715084 0.842618 0.740230
0.758968 0.848997 0.699580
0.841367 0.854185 0.625696
0.000000 0.131472 0.778683
0.000000 0.129305 0.777554
0.000000 0.114534 0.770352
0.262119 0.000000 0.759884
0.529625 0.000000 0.742977
0.714595 0.000000 0.709987
0.838071 0.054505 0.669093
0.916564 0.340337 0.663050
0.000000 0.164370 0.769192
0.000000 0.162722 0.767697
0.000000 0.152773 0.761685
0.270146 0.114351 0.751125
0.527276 0.000000 0.734676
0.709834 0.000000 0.703151
0.832517 0.148836 0.664607
0.912474 0.354833 0.660578
0.000000 0.292027 0.755917
0.000000 0.282017 0.754910
0.000000 0.273289 0.750332
0.311498 0.256840 0.738491
0.532799 0.222812 0.722988
0.703975 0.207156 0.694545
0.820249 0.297398 0.662226
0.901640 0.422614 0.662165
0.000000 0.452827 0.739254
0.000000 0.452247 0.737057
0.189517 0.451362 0.730282
0.365179 0.425635 0.725002
0.541558 0.407935 0.712764
0.694453 0.396674 0.688441
0.799100 0.452369 0.666377
0.884672 0.520439 0.667964
0.000000 0.576410 0.712459
0.000000 0.576318 0.711330
0.167880 0.576287 0.707546
0.396124 0.578302 0.702754
0.536828 0.562737 0.695094
0.671504 0.546502 0.676478
0.768643 0.578637 0.667201
0.866270 0.602869 0.660212
0.000000 0.688991 0.684016
0.000000 0.689326 0.684504
0.047028 0.686671 0.682368
0.361395 0.682612 0.679377
0.521477 0.679927 0.678828
0.660761 0.688869 0.692531
0.755032 0.688685 0.680201
0.846983 0.705989 0.687892
0.105531 0.788357 0.671290
0.178439 0.788205 0.672877
0.309148 0.785794 0.676356
0.444709 0.781643 0.684169
0.570611 0.776974 0.699825
0.675624 0.770626 0.726833
0.741756 0.771756 0.694545
0.843473 0.778347 0.699825
0.424109 0.865873 0.718563
0.435065 0.865202 0.719448
0.479622 0.863127 0.724849
0.552209 0.860044 0.737240
0.640162 0.855222 0.759548
0.713130 0.848325 0.779629
0.758755 0.847166 0.774990
0.828580 0.852750 0.725277
0.000000 0.195499 0.879667
0.000000 0.195682 0.879484
0.000000 0.192538 0.876677
0.208835 0.180362 0.871794
0.483803 0.145571 0.863859
0.673487 0.000000 0.852781
0.820432 0.126253 0.832090
0.911986 0.296056 0.798001
0.000000 0.225834 0.875303
0.000000 0.226535 0.875242
0.000000 0.223453 0.872709
0.228305 0.212528 0.867582
0.485634 0.186496 0.859617
0.670527 0.125246 0.848295
0.815457 0.169314 0.827176
0.906737 0.308812 0.793088
0.000000 0.337163 0.868132
0.000000 0.336584 0.867613
0.000000 0.333471 0.864958
0.305058 0.326696 0.860197
0.504875 0.311803 0.852415
0.672053 0.286656 0.842039
0.809751 0.306859 0.823148
0.896727 0.399756 0.793454
0.093599 0.510613 0.854765
0.173434 0.511223 0.853574
0.272740 0.500359 0.851255
0.385138 0.479103 0.848447
0.529839 0.466804 0.841764
0.671138 0.448920 0.832944
0.796170 0.453803 0.816190
0.876646 0.513939 0.792081
0.138857 0.621607 0.841215
0.192874 0.621851 0.840177
0.318395 0.623316 0.837186
0.447913 0.624414 0.832517
0.543908 0.603998 0.827451
0.658991 0.585931 0.819303
0.773526 0.576593 0.804379
0.852903 0.618402 0.790616
0.041657 0.715633 0.824430
0.154940 0.715846 0.824094
0.294621 0.716182 0.822751
0.428901 0.716640 0.820462
0.552819 0.717372 0.817441
0.652247 0.705135 0.813046
0.753872 0.691035 0.800290
0.829984 0.713313 0.794400
0.000000 0.801083 0.809110
0.054231 0.800961 0.809110
0.260380 0.799008 0.807950
0.401831 0.795682 0.806027
0.527520 0.790890 0.803189
0.640314 0.786496 0.801205
0.744228 0.787655 0.805356
0.822599 0.786831 0.796719
0.274083 0.871153 0.792477
0.294682 0.870909 0.792813
0.366949 0.870054 0.794736
0.467567 0.867277 0.797848
0.576104 0.862791 0.803525
0.677211 0.858183 0.813260
0.764950 0.852506 0.831449
0.819944 0.853880 0.809232
0.000000 0.299107 0.941955
0.000000 0.300053 0.941772
0.000000 0.300298 0.940185
0.293065 0.300847 0.937804
0.487373 0.298314 0.933928
0.645777 0.290349 0.928527
0.787839 0.274998 0.921935
0.899474 0.345220 0.908019
0.000000 0.323980 0.939818
0.000000 0.324743 0.939696
0.000000 0.324743 0.938354
0.310369 0.324590 0.935912
0.492683 0.321782 0.932128
0.646662 0.313359 0.926818
0.786191 0.297185 0.920165
0.896757 0.359350 0.906218
0.000000 0.416846 0.934234
0.000000 0.416938 0.933989
0.202701 0.415503 0.932677
0.373693 0.416114 0.930907
0.517662 0.411231 0.927214
0.653437 0.401251 0.922026
0.783352 0.386023 0.915862
0.889403 0.427497 0.902525
0.323033 0.566674 0.923156
0.329900 0.563470 0.923247
0.353460 0.546746 0.923369
0.443641 0.542809 0.921660
0.549767 0.536156 0.918700
0.661952 0.524865 0.914427
0.776883 0.507988 0.909026
0.876371 0.526116 0.897093
0.355230 0.662348 0.914763
0.372045 0.663508 0.914549
0.427924 0.666133 0.913176
0.518364 0.674067 0.909972
0.571405 0.649592 0.908965
0.662745 0.636316 0.905241
0.764065 0.618830 0.900572
0.859464 0.621210 0.890471
0.342229 0.742061 0.905669
0.356817 0.742184 0.905333
0.413001 0.743343 0.904173
0.499092 0.746639 0.902586
0.589502 0.746334 0.900389
0.664912 0.733516 0.898100
0.752712 0.720485 0.894194
0.842985 0.713558 0.885618
0.313207 0.813230 0.896696
0.329778 0.813107 0.896513
0.389014 0.812772 0.895720
0.478187 0.812680 0.894652
0.575158 0.812558 0.893217
0.669520 0.812772 0.892027
0.746761 0.802823 0.889830
0.827909 0.789059 0.880491
0.287663 0.880919 0.888304
0.304845 0.880583 0.888121
0.367224 0.879271 0.887602
0.458015 0.877073 0.886870
0.555261 0.873777 0.885618
0.649409 0.869657 0.883879
0.738064 0.865537 0.882322
0.824155 0.863828 0.883177
