luts/旅拍胶片08.cube
# Created by Adobe Lightroom plugin Export LUT (1.24.0)
# www.johnrellis.com/lightroom/exportlut.htm
# Preset: 旅拍胶片-素材江湖08
# Color profile: E:\lut插件\exportlut.1.24\exportlut.lrplugin\color profiles\Rec709gamma2.4.icc
LUT_3D_SIZE 5
DOMAIN_MIN 0.000000 0.000000 0.000000
DOMAIN_MAX 0.903226 0.903226 0.903226
0.118441 0.110048 0.100343
0.120272 0.111360 0.101534
0.144442 0.134279 0.122499
0.251835 0.235843 0.217594
0.431586 0.412482 0.392004
0.122377 0.113558 0.103304
0.125826 0.116609 0.106172
0.191623 0.178470 0.163546
0.302922 0.284947 0.265049
0.472572 0.454170 0.434638
0.201602 0.187778 0.172213
0.195956 0.182437 0.167391
0.243046 0.227237 0.209415
0.460517 0.441901 0.422004
0.586175 0.571649 0.556512
0.393500 0.374243 0.353338
0.390173 0.370855 0.349981
0.396063 0.376715 0.355840
0.465919 0.447364 0.427649
0.674220 0.663905 0.653223
0.634882 0.622614 0.609888
0.633356 0.621027 0.608240
0.617792 0.604730 0.591119
0.654566 0.643244 0.631556
0.720089 0.712001 0.703670
0.122377 0.113558 0.103304
0.123079 0.114321 0.104219
0.153414 0.142428 0.130037
0.260929 0.244419 0.225834
0.427466 0.408331 0.387793
0.129366 0.119844 0.109255
0.149508 0.139162 0.127016
0.198459 0.185031 0.169589
0.305150 0.287114 0.267094
0.462593 0.443946 0.424109
0.235935 0.220615 0.203098
0.240818 0.225132 0.207553
0.269963 0.253178 0.234287
0.465644 0.447089 0.427375
0.582605 0.567956 0.552636
0.427588 0.408484 0.387945
0.425086 0.405951 0.385321
0.422370 0.403204 0.382574
0.485084 0.467018 0.447822
0.682033 0.672114 0.661799
0.649195 0.637598 0.625605
0.647425 0.635737 0.623651
0.641688 0.629755 0.617395
0.668818 0.658259 0.647272
0.731441 0.723903 0.716121
0.158663 0.147494 0.134615
0.171847 0.159915 0.146334
0.210422 0.196262 0.180209
0.313207 0.294987 0.274754
0.430732 0.411597 0.391150
0.183505 0.170809 0.156344
0.213077 0.198795 0.182620
0.251621 0.235416 0.217288
0.343542 0.324620 0.303929
0.466804 0.448219 0.428534
0.270542 0.253574 0.234653
0.295384 0.277653 0.257969
0.390997 0.371740 0.350835
0.468177 0.449683 0.430030
0.577783 0.562951 0.547387
0.471626 0.453193 0.433631
0.483192 0.465034 0.445747
0.519066 0.501976 0.483955
0.550439 0.534417 0.517662
0.713161 0.704738 0.696040
0.676844 0.666621 0.656092
0.686397 0.676692 0.666621
0.690333 0.680812 0.670924
0.695521 0.686275 0.676692
0.749691 0.743038 0.736141
0.289891 0.272374 0.252750
0.309331 0.291203 0.271092
0.356634 0.337621 0.316808
0.409888 0.390600 0.369879
0.541314 0.524926 0.507805
0.315282 0.297002 0.276738
0.344121 0.325383 0.304570
0.388617 0.369329 0.348425
0.434333 0.415351 0.394934
0.554040 0.538170 0.521538
0.383307 0.363989 0.343114
0.402808 0.383581 0.362737
0.484291 0.466163 0.446937
0.521874 0.504906 0.486946
0.608270 0.594751 0.580713
0.499947 0.482216 0.463508
0.511162 0.493782 0.475471
0.559197 0.543542 0.527153
0.646357 0.634607 0.622492
0.714961 0.706630 0.698024
0.688228 0.678584 0.668605
0.694575 0.685267 0.675624
0.722042 0.714076 0.705837
0.763821 0.757809 0.751583
0.790433 0.785580 0.780575
0.539971 0.523613 0.506401
0.554711 0.538903 0.522332
0.579065 0.564202 0.548760
0.621180 0.608270 0.594842
0.652430 0.641016 0.629175
0.547997 0.531884 0.515007
0.565545 0.550134 0.534020
0.595026 0.580896 0.566186
0.633753 0.621424 0.608637
0.663508 0.652644 0.641382
0.560784 0.545220 0.528893
0.577569 0.562707 0.547143
0.641291 0.629297 0.616907
0.676844 0.666621 0.656092
0.703883 0.695003 0.685847
0.625757 0.613092 0.599878
0.633173 0.620813 0.608026
0.664363 0.653498 0.642329
0.740322 0.733211 0.725856
0.770932 0.765225 0.759335
0.716762 0.708553 0.700038
0.722652 0.714687 0.706477
0.747524 0.740749 0.733761
0.794034 0.789334 0.784482
0.859403 0.857115 0.854704
