luts/旅拍胶片06.cube
# Created by Adobe Lightroom plugin Export LUT (1.24.0)
# www.johnrellis.com/lightroom/exportlut.htm
# Preset: 旅拍胶片-素材江湖06
# Color profile: E:\lut插件\exportlut.1.24\exportlut.lrplugin\color profiles\Rec709gamma2.4.icc
LUT_3D_SIZE 8
DOMAIN_MIN 0.000000 0.000000 0.000000
DOMAIN_MAX 0.903226 0.903226 0.903226
0.030793 0.098268 0.075257
0.028809 0.098329 0.075257
0.091920 0.098512 0.073732
0.255497 0.083925 0.057008
0.475929 0.000000 0.009827
0.687434 0.000000 0.000000
0.884977 0.000000 0.000000
1.000000 0.000000 0.000000
0.031525 0.097841 0.075410
0.029511 0.097932 0.075410
0.094179 0.101198 0.072480
0.251804 0.097414 0.053376
0.467079 0.000000 0.004120
0.676753 0.000000 0.000000
0.871794 0.000000 0.000000
1.000000 0.000000 0.000000
0.020661 0.110018 0.072511
0.030152 0.108736 0.075196
0.082094 0.111116 0.072999
0.260166 0.144045 0.032898
0.487678 0.129397 0.000000
0.696437 0.000000 0.000000
0.894285 0.000000 0.000000
1.000000 0.000000 0.000000
0.000000 0.209171 0.076997
0.000000 0.205264 0.084504
0.081941 0.200748 0.092714
0.202731 0.210391 0.071382
0.451545 0.270878 0.000000
0.723079 0.285771 0.000000
0.906981 0.279576 0.000000
1.000000 0.293431 0.000000
0.000000 0.366430 0.116274
0.000000 0.363378 0.122560
0.000000 0.352911 0.147005
0.213474 0.356847 0.139712
0.359319 0.360143 0.112917
0.595666 0.412970 0.060029
0.862608 0.466468 0.000000
1.000000 0.486610 0.000000
0.000000 0.526146 0.186160
0.000000 0.528161 0.193179
0.000000 0.519158 0.212039
0.250645 0.508934 0.228946
0.372778 0.510979 0.208865
0.518120 0.511803 0.178622
0.742184 0.568841 0.169253
0.957549 0.637293 0.179080
0.000000 0.696742 0.275334
0.000000 0.696254 0.279942
0.151431 0.688838 0.294011
0.314641 0.675410 0.322026
0.421485 0.670924 0.315007
0.543023 0.671992 0.290898
0.684047 0.671992 0.258549
0.863432 0.710201 0.271885
0.290745 0.843870 0.413336
0.306920 0.842893 0.416083
0.366308 0.839353 0.428717
0.454658 0.832700 0.454322
0.529198 0.817502 0.463783
0.620661 0.819333 0.448554
0.728359 0.820249 0.427710
0.843046 0.818082 0.398077
0.031525 0.097841 0.075410
0.029511 0.097932 0.075410
0.095399 0.094636 0.077302
0.234714 0.074220 0.066529
0.447852 0.000000 0.034485
0.658656 0.000000 0.000000
0.854490 0.000000 0.000000
1.000000 0.000000 0.000000
0.028809 0.098329 0.075257
0.030793 0.098268 0.075257
0.097261 0.099062 0.075471
0.241459 0.090211 0.063935
0.450568 0.000000 0.030182
0.658900 0.000000 0.000000
0.849912 0.000000 0.000000
1.000000 0.000000 0.000000
0.010620 0.117830 0.082185
0.029419 0.116335 0.085237
0.092988 0.116976 0.084779
0.266056 0.142306 0.062074
0.473213 0.125460 0.007446
0.676112 0.000000 0.000000
0.863432 0.000000 0.000000
1.000000 0.000000 0.000000
0.000000 0.215946 0.096498
0.000000 0.212802 0.100771
0.094301 0.206119 0.111360
0.205661 0.213443 0.099001
0.438636 0.265812 0.051606
0.690181 0.278233 0.000000
0.876677 0.271458 0.000000
1.000000 0.288273 0.000000
0.000000 0.370886 0.136843
0.000000 0.367346 0.141512
0.040925 0.355657 0.161776
0.219150 0.354498 0.158694
0.354833 0.355261 0.135012
0.585168 0.407996 0.113985
0.850767 0.461799 0.060426
1.000000 0.482551 0.000000
0.000000 0.523613 0.198947
0.000000 0.521874 0.203342
0.045319 0.513542 0.220584
0.256718 0.503227 0.240665
0.373053 0.506401 0.222354
0.515740 0.509239 0.195987
0.737606 0.566674 0.190311
0.953033 0.634730 0.201541
0.000000 0.691371 0.281315
0.000000 0.688685 0.283696
0.152010 0.681117 0.297154
0.313298 0.668788 0.324498
0.421393 0.665644 0.322789
0.539727 0.666896 0.299290
0.677211 0.665400 0.266819
0.856992 0.704311 0.277745
0.281926 0.840452 0.413245
0.301884 0.840269 0.417639
0.361456 0.836545 0.429511
0.450507 0.829984 0.454719
0.541039 0.821439 0.480354
0.625422 0.820890 0.460700
0.728542 0.819913 0.436194
0.842283 0.817594 0.404974
0.000000 0.098756 0.140108
0.013977 0.097383 0.139376
0.116243 0.093690 0.136172
0.248600 0.056214 0.153475
0.471199 0.000000 0.129671
0.655543 0.000000 0.130617
0.838956 0.000000 0.137819
1.000000 0.000000 0.137423
0.000000 0.108431 0.139681
0.001007 0.104036 0.139559
0.117708 0.100954 0.137209
0.255131 0.079835 0.151186
0.462501 0.000000 0.126192
0.644526 0.000000 0.136294
0.834257 0.000000 0.137911
0.997406 0.000000 0.136080
0.000000 0.149813 0.144686
0.000000 0.149783 0.145205
0.131777 0.150393 0.150027
0.279850 0.152895 0.147372
0.463783 0.148440 0.148959
0.660883 0.130190 0.150546
0.845975 0.111055 0.148623
1.000000 0.155947 0.146029
0.000000 0.263554 0.158236
0.000000 0.262791 0.163729
0.141939 0.253178 0.179019
0.247410 0.253666 0.178042
0.476539 0.302617 0.185733
0.685267 0.314305 0.180087
0.863798 0.321233 0.171786
1.000000 0.344335 0.167727
0.000000 0.405097 0.204471
0.000000 0.402441 0.208011
0.153079 0.392035 0.222782
0.268406 0.382361 0.235080
0.384985 0.383581 0.216403
0.608118 0.438117 0.219120
0.857694 0.491035 0.229313
0.996887 0.509667 0.217288
0.000000 0.545190 0.257481
0.000000 0.543694 0.261051
0.174197 0.535515 0.274144
0.304723 0.519646 0.298894
0.400610 0.520256 0.285618
0.529747 0.522820 0.263920
0.747127 0.584344 0.271244
0.953582 0.652155 0.300084
0.000000 0.706844 0.332525
0.036652 0.704494 0.334569
0.226230 0.696437 0.344701
0.350622 0.683345 0.367254
0.450599 0.674586 0.376135
0.557458 0.676448 0.354986
0.688685 0.676814 0.326848
0.864958 0.719234 0.345647
0.319554 0.845457 0.449409
0.332647 0.844144 0.451026
0.386145 0.840452 0.461738
0.471931 0.834958 0.486763
0.561608 0.824063 0.519707
0.639551 0.824338 0.502922
0.736172 0.823789 0.479591
0.844968 0.821408 0.448890
0.000000 0.114412 0.301427
0.000000 0.114107 0.301091
0.119387 0.110231 0.293431
0.282750 0.091402 0.286015
0.450904 0.116640 0.299779
0.659724 0.000000 0.303014
0.855375 0.000000 0.263310
0.993591 0.000000 0.263767
0.000000 0.143099 0.301091
0.000000 0.134524 0.300237
0.130404 0.130526 0.293797
0.287510 0.118685 0.287358
0.453285 0.151980 0.303319
0.661097 0.000000 0.301122
0.850675 0.000000 0.260807
0.988586 0.000000 0.268956
0.000000 0.216007 0.297734
0.000000 0.216129 0.297002
0.147158 0.203494 0.293980
0.295415 0.198520 0.288182
0.459968 0.237186 0.310735
0.672633 0.159274 0.290166
0.841032 0.164431 0.283421
0.977325 0.262394 0.293095
0.000000 0.329015 0.297734
0.000000 0.327825 0.297398
0.110201 0.324834 0.297337
0.314977 0.321904 0.302464
0.480598 0.328923 0.298802
0.652491 0.342321 0.302190
0.828611 0.361517 0.307866
0.978912 0.393957 0.314549
0.000000 0.460487 0.296300
0.000000 0.458289 0.298589
0.179599 0.451759 0.311559
0.338201 0.438117 0.335454
0.433936 0.432288 0.329808
0.649989 0.488685 0.349920
0.844480 0.521477 0.358221
0.980377 0.543053 0.356786
0.024445 0.589532 0.351171
0.144656 0.591577 0.357336
0.247105 0.584466 0.361181
0.365667 0.569146 0.380346
0.455573 0.556909 0.389014
0.561761 0.555474 0.366644
0.770321 0.620539 0.388434
0.955138 0.682277 0.433783
0.176364 0.732387 0.410407
0.207858 0.731502 0.412970
0.297856 0.725887 0.422675
0.404486 0.714870 0.441657
0.503868 0.697597 0.468116
0.589868 0.697292 0.446571
0.705379 0.695247 0.419013
0.874540 0.740810 0.445624
0.373175 0.857328 0.514244
0.385321 0.856413 0.516075
0.431830 0.852720 0.524895
0.506737 0.845914 0.543694
0.590509 0.835203 0.571191
0.663172 0.830167 0.573327
0.747829 0.829831 0.550958
0.848997 0.828214 0.522362
0.000000 0.185733 0.481300
0.000000 0.186648 0.480568
0.068696 0.188144 0.473304
0.308354 0.183993 0.462989
0.475319 0.178195 0.454719
0.637446 0.230381 0.463447
0.807126 0.292363 0.493935
0.980346 0.219852 0.472541
0.000000 0.221286 0.479438
0.000000 0.214694 0.479927
0.120424 0.214237 0.475105
0.315282 0.207340 0.462898
0.476387 0.201358 0.454078
0.636866 0.252079 0.464240
0.807797 0.302922 0.493111
0.980163 0.234867 0.470253
0.000000 0.308232 0.477241
0.000000 0.307378 0.476112
0.171145 0.286412 0.471077
0.328313 0.277256 0.458778
0.475593 0.271489 0.448524
0.627405 0.319402 0.462470
0.808072 0.335576 0.483742
0.978393 0.276829 0.454536
0.000000 0.397559 0.469642
0.000000 0.397101 0.468727
0.203189 0.396765 0.466041
0.342840 0.380743 0.460456
0.481422 0.373266 0.449989
0.626917 0.424109 0.475624
0.821592 0.388342 0.462470
0.971954 0.374701 0.435431
0.000000 0.510460 0.458595
0.000000 0.509911 0.458625
0.033417 0.506096 0.457282
0.324468 0.499489 0.456214
0.488014 0.490883 0.457374
0.643336 0.498787 0.453864
0.808530 0.518395 0.458686
0.950530 0.547814 0.467689
0.000000 0.626520 0.437812
0.000000 0.625513 0.439155
0.137240 0.618952 0.443549
0.357305 0.608881 0.457313
0.497719 0.592340 0.481880
0.591272 0.589471 0.477363
0.797147 0.658595 0.516991
0.943816 0.696559 0.543572
0.089754 0.759731 0.493996
0.154879 0.758022 0.494881
0.285313 0.752407 0.501213
0.426886 0.744381 0.520775
0.533745 0.728664 0.539574
0.618616 0.716091 0.545830
0.718349 0.712428 0.517601
0.882017 0.762051 0.554559
0.389471 0.866361 0.582055
0.407874 0.865354 0.585718
0.443763 0.862333 0.586908
0.519402 0.857511 0.601160
0.607965 0.847318 0.624384
0.687068 0.835233 0.650202
0.756771 0.834623 0.628595
0.847990 0.832242 0.600275
0.000000 0.306523 0.670924
0.000000 0.306889 0.670924
0.120882 0.306310 0.663203
0.338994 0.303807 0.652064
0.496590 0.292515 0.633814
0.650568 0.294621 0.624109
0.796536 0.355779 0.633722
0.922271 0.477882 0.676173
0.000000 0.326116 0.659327
0.000000 0.319982 0.658076
0.142947 0.317876 0.651972
0.337957 0.313787 0.641444
0.492226 0.302983 0.625483
0.644923 0.305455 0.617578
0.791012 0.365667 0.629358
0.918395 0.484077 0.673732
0.093233 0.409461 0.658076
0.148196 0.407050 0.656367
0.211154 0.382086 0.652644
0.358892 0.372015 0.638819
0.500603 0.359869 0.623468
0.645441 0.360906 0.615717
0.788235 0.420294 0.631952
0.912871 0.528496 0.679835
0.126741 0.494606 0.654139
0.174563 0.492866 0.652247
0.287846 0.488563 0.647150
0.387427 0.467018 0.643244
0.518364 0.455085 0.630152
0.651606 0.451789 0.620203
0.788937 0.509575 0.643336
0.919585 0.571099 0.680415
0.000000 0.576074 0.637690
0.000000 0.575555 0.637018
0.248600 0.573785 0.634791
0.394690 0.571374 0.632074
0.514946 0.550744 0.624628
0.642725 0.540093 0.612146
0.779660 0.599176 0.647486
0.934691 0.587060 0.642908
0.000000 0.679225 0.623621
0.000000 0.679805 0.624506
0.004211 0.676295 0.622980
0.325658 0.669947 0.620447
0.485695 0.660212 0.617243
0.643488 0.651179 0.618677
0.796933 0.666560 0.622644
0.923735 0.690394 0.632898
0.000000 0.798672 0.613336
0.000000 0.798550 0.614557
0.058900 0.795102 0.616480
0.355413 0.787808 0.620996
0.529808 0.775631 0.633356
0.664454 0.756100 0.656703
0.744045 0.745998 0.642939
0.896605 0.798886 0.692470
0.300450 0.884794 0.654444
0.318334 0.883879 0.654749
0.389014 0.880705 0.658869
0.497505 0.875120 0.670558
0.625879 0.865019 0.696468
0.709194 0.852537 0.713466
0.774777 0.844480 0.719570
0.850431 0.841703 0.694179
0.053285 0.430793 0.807431
0.142153 0.430854 0.807462
0.269047 0.430457 0.804166
0.403113 0.429114 0.798672
0.536980 0.423072 0.789242
0.668025 0.411109 0.776150
0.798764 0.426062 0.770871
0.904631 0.490761 0.771603
0.145907 0.445350 0.802823
0.168887 0.442115 0.803281
0.276677 0.440314 0.800412
0.403662 0.437232 0.794339
0.534752 0.430030 0.784909
0.663630 0.416846 0.771206
0.793210 0.429511 0.765377
0.899718 0.492103 0.766567
0.277958 0.512291 0.799741
0.286259 0.507897 0.799466
0.316167 0.488716 0.797574
0.423682 0.482734 0.791836
0.543664 0.473304 0.782345
0.666743 0.459602 0.769772
0.793576 0.470985 0.765743
0.898528 0.535485 0.771084
0.320775 0.587854 0.797635
0.336034 0.586450 0.796445
0.394873 0.583001 0.793057
0.448371 0.556695 0.790158
0.556634 0.545556 0.781704
0.672511 0.531609 0.770535
0.792721 0.538170 0.766201
0.893492 0.601312 0.775784
0.301793 0.660395 0.790677
0.318486 0.659480 0.789670
0.382757 0.658259 0.787747
0.475227 0.652338 0.784512
0.560601 0.627741 0.778714
0.669612 0.611383 0.767483
0.784970 0.610224 0.761288
0.887114 0.675746 0.781521
0.232731 0.736721 0.782101
0.257237 0.736416 0.781979
0.336736 0.734829 0.781430
0.445563 0.731655 0.780270
0.565393 0.726986 0.778378
0.672175 0.708949 0.773434
0.782071 0.699702 0.763882
0.881071 0.758236 0.793515
0.000000 0.825528 0.776364
0.000000 0.825376 0.776669
0.240299 0.823056 0.775906
0.386633 0.818631 0.774655
0.522637 0.811093 0.772213
0.653712 0.800748 0.769070
0.778103 0.788449 0.765805
0.891173 0.802121 0.772396
0.201602 0.900389 0.757748
0.233707 0.900053 0.758328
0.332006 0.898894 0.761196
0.452216 0.895323 0.765225
0.581598 0.887877 0.771176
0.706111 0.877317 0.782040
0.803799 0.863432 0.801144
0.858274 0.857359 0.790829
0.441840 0.591699 0.893339
0.450385 0.591516 0.893278
0.484627 0.589746 0.891875
0.547814 0.588861 0.889830
0.629053 0.585626 0.886473
0.719692 0.579644 0.881621
0.813260 0.571801 0.875700
0.902678 0.598322 0.872770
0.449958 0.600580 0.891569
0.454810 0.598444 0.891722
0.487800 0.596460 0.890654
0.548913 0.594507 0.888548
0.628931 0.591058 0.885252
0.718807 0.584649 0.880491
0.811612 0.575433 0.874327
0.900969 0.600732 0.871427
0.491646 0.642481 0.887938
0.494850 0.639826 0.887999
0.506310 0.627466 0.887846
0.563165 0.626001 0.886534
0.636530 0.620356 0.883207
0.720943 0.611719 0.878477
0.810544 0.601678 0.872709
0.898100 0.623285 0.870115
0.528099 0.697139 0.884001
0.537011 0.697780 0.883818
0.563561 0.695888 0.882841
0.582208 0.675105 0.883299
0.647761 0.668696 0.880644
0.725582 0.659724 0.876555
0.809842 0.648371 0.871336
0.894011 0.664302 0.869169
0.522820 0.745907 0.881834
0.530449 0.745815 0.881834
0.557366 0.743771 0.881132
0.614099 0.743496 0.879332
0.656916 0.725368 0.878172
0.727596 0.715114 0.874510
0.807034 0.703243 0.869780
0.888640 0.713954 0.868101
0.513115 0.798062 0.878630
0.519738 0.797665 0.878416
0.548272 0.796689 0.877836
0.602106 0.796078 0.877256
0.670588 0.793362 0.876432
0.735134 0.780606 0.874907
0.808225 0.770932 0.871031
0.883268 0.773037 0.868345
0.502312 0.854124 0.876768
0.509819 0.853819 0.876707
0.539879 0.852659 0.876463
0.595026 0.850797 0.876280
0.666102 0.847898 0.875700
0.744991 0.844816 0.874937
0.811551 0.834318 0.872251
0.877256 0.827970 0.867338
0.480537 0.908995 0.874144
0.487617 0.908629 0.874022
0.518853 0.907195 0.873899
0.576135 0.904540 0.873869
0.649348 0.900389 0.873594
0.729671 0.894774 0.873014
0.808286 0.888151 0.872099
0.876738 0.880583 0.870024
