luts/旅拍胶片04.cube
# Created by Adobe Lightroom plugin Export LUT (1.24.0)
# www.johnrellis.com/lightroom/exportlut.htm
# Preset: 旅拍胶片-素材江湖04
# Color profile: E:\lut插件\exportlut.1.24\exportlut.lrplugin\color profiles\Rec709gamma2.4.icc
LUT_3D_SIZE 8
DOMAIN_MIN 0.000000 0.000000 0.000000
DOMAIN_MAX 0.903226 0.903226 0.903226
0.000000 0.000000 0.000000
0.031342 0.000000 0.000549
0.153292 0.010315 0.000000
0.300481 0.000000 0.000000
0.522087 0.000000 0.000000
0.742794 0.000000 0.000000
0.912016 0.000000 0.000000
1.000000 0.000000 0.000000
0.015229 0.025055 0.001953
0.058656 0.033692 0.000000
0.154269 0.055604 0.000000
0.297917 0.000000 0.000000
0.514549 0.000000 0.000000
0.735958 0.000000 0.000000
0.898985 0.000000 0.000000
1.000000 0.000000 0.000000
0.098909 0.121828 0.028351
0.108400 0.123720 0.026673
0.168460 0.140597 0.000458
0.315709 0.147585 0.000000
0.539605 0.127169 0.000000
0.756558 0.090120 0.000000
0.910704 0.131685 0.000000
1.000000 0.202976 0.000000
0.148196 0.241245 0.053010
0.159884 0.239902 0.054780
0.208042 0.259129 0.009094
0.347265 0.303899 0.000000
0.557427 0.331579 0.000000
0.762020 0.366491 0.000000
0.906676 0.389899 0.000000
0.997681 0.402899 0.000000
0.231907 0.411444 0.102113
0.243717 0.410163 0.103670
0.288945 0.418799 0.090700
0.388067 0.453162 0.000000
0.550805 0.496620 0.000000
0.720729 0.510094 0.000000
0.868986 0.536797 0.000000
0.972442 0.552087 0.000000
0.356847 0.580621 0.200168
0.369360 0.584314 0.205264
0.403540 0.583215 0.209201
0.471321 0.603571 0.178775
0.577600 0.630793 0.102754
0.716487 0.662715 0.000000
0.841794 0.660609 0.000000
0.941955 0.671839 0.000000
0.503807 0.724605 0.366918
0.509941 0.725063 0.369390
0.530144 0.723293 0.372473
0.569909 0.729976 0.364385
0.633509 0.743618 0.338994
0.722347 0.760800 0.303807
0.828275 0.778073 0.248478
0.911131 0.762509 0.238773
0.647303 0.825895 0.576715
0.650050 0.825711 0.577447
0.661616 0.825284 0.581109
0.683925 0.826688 0.585443
0.710689 0.829068 0.561181
0.760708 0.837583 0.549279
0.822904 0.845914 0.530877
0.893217 0.852354 0.499153
0.000000 0.003113 0.023346
0.046906 0.000000 0.024292
0.148806 0.000000 0.020935
0.279301 0.000000 0.023072
0.494240 0.000000 0.001831
0.720089 0.000000 0.000000
0.888792 0.000000 0.000000
1.000000 0.000000 0.000000
0.010925 0.038331 0.021668
0.066621 0.041993 0.025727
0.151034 0.055421 0.027527
0.284977 0.003967 0.024018
0.497047 0.000000 0.000000
0.720119 0.000000 0.000000
0.883268 0.000000 0.000000
0.996521 0.000000 0.000000
0.106600 0.127108 0.057588
0.116976 0.126894 0.059236
0.167727 0.140688 0.037720
0.307927 0.149996 0.015229
0.520500 0.133547 0.000000
0.732174 0.096437 0.000000
0.887480 0.121035 0.000000
0.997162 0.192111 0.000000
0.154910 0.240299 0.089326
0.166171 0.239567 0.090059
0.209842 0.253422 0.069551
0.331945 0.290043 0.000000
0.527214 0.313298 0.000000
0.733547 0.348180 0.000000
0.884672 0.373571 0.000000
0.986114 0.391882 0.000000
0.237156 0.409888 0.126314
0.248081 0.408209 0.127474
0.289891 0.411048 0.123354
0.380499 0.441627 0.020996
0.535454 0.482033 0.000000
0.706477 0.499031 0.000000
0.858824 0.529564 0.000000
0.965881 0.547875 0.000000
0.355169 0.575097 0.213260
0.364416 0.574762 0.214725
0.398077 0.573388 0.220249
0.464454 0.593622 0.197055
0.570214 0.622644 0.140871
0.710323 0.657191 0.000000
0.836515 0.656977 0.000000
0.937865 0.669337 0.063416
0.498848 0.719295 0.369299
0.502678 0.718105 0.368688
0.522820 0.716152 0.371283
0.563317 0.722530 0.367132
0.628504 0.738399 0.346410
0.717311 0.756252 0.313024
0.822782 0.773312 0.258824
0.907042 0.758480 0.247715
0.642573 0.823087 0.573877
0.646296 0.823423 0.576257
0.657801 0.822934 0.579553
0.680446 0.823880 0.585412
0.714321 0.830777 0.576867
0.761318 0.837980 0.560754
0.821836 0.845426 0.538659
0.892058 0.851896 0.505577
0.000000 0.018921 0.128939
0.029450 0.005829 0.129274
0.148531 0.000000 0.127687
0.285374 0.000000 0.103578
0.481971 0.000000 0.112154
0.701656 0.000000 0.114748
0.876860 0.000000 0.104494
0.995575 0.000000 0.082551
0.040864 0.088228 0.123995
0.059297 0.072389 0.124941
0.151858 0.052064 0.125307
0.286595 0.021790 0.109468
0.477974 0.000000 0.116457
0.699763 0.000000 0.116304
0.871885 0.000000 0.101289
0.991363 0.000000 0.072023
0.097505 0.145083 0.119356
0.115389 0.146761 0.120485
0.179568 0.154757 0.127016
0.310552 0.158541 0.127260
0.507927 0.149599 0.126619
0.717494 0.135927 0.116823
0.875914 0.171725 0.098909
0.988373 0.238010 0.079530
0.162722 0.265812 0.144350
0.188296 0.268803 0.152712
0.235752 0.267704 0.157198
0.340398 0.299596 0.135836
0.535058 0.330968 0.127474
0.735348 0.368322 0.119936
0.877134 0.390661 0.110750
0.979492 0.414771 0.116365
0.263462 0.427680 0.203220
0.274876 0.426825 0.204044
0.316564 0.424475 0.207980
0.393805 0.447089 0.193637
0.540337 0.489082 0.137728
0.707546 0.510399 0.117464
0.855528 0.542168 0.142916
0.960327 0.564660 0.191836
0.375525 0.584497 0.282689
0.383978 0.584649 0.284337
0.416022 0.582910 0.288121
0.473121 0.591516 0.284062
0.569574 0.620447 0.254978
0.705104 0.655573 0.206699
0.831357 0.661555 0.211093
0.931945 0.678401 0.269169
0.514153 0.725063 0.425391
0.518090 0.724056 0.424750
0.536187 0.721614 0.425757
0.571923 0.721431 0.428595
0.631128 0.737301 0.412329
0.716060 0.756344 0.389441
0.819760 0.775296 0.355322
0.903777 0.764675 0.357000
0.648188 0.824369 0.601709
0.650263 0.823941 0.601434
0.661311 0.823423 0.604181
0.684352 0.823789 0.613764
0.716121 0.829770 0.608820
0.761532 0.837888 0.597681
0.819730 0.845914 0.580438
0.887877 0.852720 0.552697
0.000000 0.056123 0.287816
0.000000 0.044953 0.288701
0.007172 0.036500 0.282811
0.263859 0.000000 0.275059
0.484169 0.000000 0.233707
0.701320 0.000000 0.226108
0.853849 0.000000 0.241306
0.972442 0.000000 0.262516
0.000000 0.106203 0.282658
0.000000 0.098268 0.282353
0.083223 0.088808 0.279057
0.273472 0.000000 0.274235
0.489693 0.000000 0.235508
0.700069 0.000000 0.232395
0.850553 0.000000 0.246128
0.971130 0.000000 0.266514
0.000000 0.197116 0.267124
0.081239 0.196445 0.267948
0.155703 0.175021 0.269871
0.299748 0.151858 0.268193
0.510094 0.169009 0.242863
0.699184 0.131868 0.257267
0.855619 0.180667 0.275151
0.971984 0.274571 0.290227
0.092927 0.297978 0.256870
0.129030 0.298924 0.257481
0.222324 0.304509 0.262089
0.349523 0.318883 0.276310
0.524773 0.333074 0.280125
0.703670 0.357488 0.290043
0.851957 0.393011 0.302922
0.961181 0.433173 0.318761
0.241367 0.451118 0.291417
0.260136 0.452338 0.294255
0.329503 0.460334 0.309758
0.418555 0.461250 0.328771
0.541527 0.499336 0.312657
0.705959 0.529717 0.328313
0.847135 0.565454 0.361425
0.944488 0.586389 0.384680
0.407782 0.609613 0.395514
0.419135 0.612207 0.399817
0.449348 0.609369 0.401282
0.500786 0.606439 0.407355
0.577050 0.626978 0.398901
0.699397 0.660029 0.376226
0.822324 0.674495 0.396826
0.918486 0.696101 0.442786
0.533440 0.734035 0.508385
0.538384 0.734066 0.509392
0.557366 0.733181 0.512139
0.590967 0.731685 0.517723
0.639551 0.739376 0.516136
0.714443 0.758572 0.501396
0.811246 0.777584 0.480293
0.893339 0.773800 0.492409
0.659693 0.828824 0.651118
0.662074 0.828641 0.651606
0.672206 0.828061 0.653346
0.692134 0.827359 0.658412
0.720211 0.828733 0.661646
0.761074 0.837430 0.653529
0.815488 0.846342 0.642084
0.880400 0.854215 0.624140
0.000000 0.097597 0.518242
0.000000 0.090272 0.518425
0.000000 0.086580 0.511162
0.124422 0.000000 0.500542
0.437201 0.000000 0.487434
0.678645 0.000000 0.441749
0.860655 0.000000 0.391516
0.965820 0.130465 0.410376
0.000000 0.133486 0.511986
0.000000 0.126009 0.512932
0.000000 0.114595 0.507469
0.159182 0.076326 0.496925
0.444556 0.000000 0.485969
0.681056 0.000000 0.441688
0.858122 0.000000 0.397101
0.962951 0.181765 0.415503
0.000000 0.254215 0.493751
0.000000 0.245975 0.493507
0.000000 0.209384 0.490944
0.233371 0.186221 0.484962
0.464271 0.125368 0.475929
0.681910 0.144991 0.435065
0.844724 0.236454 0.414282
0.950072 0.291722 0.431739
0.000000 0.379461 0.472023
0.000000 0.380072 0.471717
0.198734 0.379614 0.473152
0.315221 0.345129 0.476112
0.495491 0.316625 0.470588
0.690272 0.370489 0.440101
0.826688 0.388464 0.448524
0.932525 0.422187 0.465797
0.106874 0.485542 0.447974
0.155428 0.486305 0.448646
0.264988 0.488746 0.451179
0.391150 0.494179 0.457374
0.526268 0.505028 0.470863
0.678706 0.522301 0.478248
0.814878 0.550683 0.496040
0.919432 0.582086 0.516442
0.335607 0.605829 0.463386
0.350500 0.606867 0.465858
0.403723 0.609247 0.473915
0.488472 0.616815 0.495094
0.571099 0.618280 0.515953
0.678218 0.655451 0.516106
0.804501 0.684535 0.548730
0.899107 0.711635 0.588159
0.520409 0.742336 0.577630
0.526299 0.742031 0.578820
0.561944 0.741176 0.593378
0.595789 0.739925 0.596155
0.641566 0.738064 0.603265
0.703334 0.753933 0.600153
0.795346 0.775631 0.589624
0.877714 0.780362 0.608789
0.657282 0.830228 0.693416
0.659602 0.829984 0.693507
0.669795 0.829252 0.694545
0.692622 0.829679 0.701503
0.720729 0.828733 0.707546
0.756680 0.834134 0.708370
0.807248 0.844541 0.701503
0.869535 0.853513 0.689906
0.000000 0.138979 0.719234
0.000000 0.131777 0.719112
0.000000 0.125399 0.713710
0.000000 0.102205 0.705898
0.329808 0.000000 0.698054
0.607660 0.000000 0.686275
0.820829 0.000000 0.648219
0.954406 0.236515 0.589166
0.000000 0.171481 0.709743
0.000000 0.163943 0.708705
0.000000 0.149477 0.705074
0.000000 0.131167 0.698543
0.338567 0.000000 0.690242
0.606836 0.000000 0.679377
0.817105 0.000000 0.642390
0.950256 0.265782 0.587060
0.000000 0.295293 0.699519
0.000000 0.287724 0.699214
0.000000 0.254673 0.698207
0.000000 0.230686 0.691127
0.383062 0.193576 0.682979
0.620081 0.089937 0.673548
0.817288 0.176913 0.639460
0.939879 0.383062 0.595575
0.000000 0.453956 0.684565
0.000000 0.452369 0.683497
0.146456 0.447364 0.682155
0.246494 0.394995 0.684565
0.443336 0.367529 0.679438
0.640742 0.335668 0.670924
0.814939 0.404242 0.640772
0.920897 0.510460 0.623529
0.036652 0.561730 0.657038
0.143709 0.561975 0.656825
0.276463 0.563622 0.656825
0.409064 0.566461 0.658350
0.498634 0.533471 0.659632
0.645686 0.506493 0.653468
0.798764 0.567559 0.635676
0.897642 0.590143 0.641321
0.270634 0.648035 0.632166
0.292088 0.649378 0.633906
0.356603 0.649500 0.634394
0.449012 0.650477 0.636164
0.551354 0.652827 0.639796
0.661097 0.662623 0.652369
0.784634 0.682643 0.666346
0.880034 0.705715 0.683986
0.466255 0.745205 0.650050
0.475776 0.746181 0.652064
0.508537 0.747433 0.656397
0.565393 0.750301 0.665919
0.636988 0.755459 0.683528
0.701442 0.755276 0.698817
0.780087 0.778500 0.698939
0.863249 0.794369 0.724758
0.636866 0.834531 0.734188
0.640101 0.834287 0.734585
0.655634 0.834348 0.738460
0.686854 0.835355 0.749111
0.721889 0.834318 0.757382
0.755978 0.833066 0.763333
0.799313 0.842954 0.764370
0.857908 0.854246 0.760189
0.000000 0.195468 0.841703
0.000000 0.189456 0.842039
0.000000 0.179049 0.840208
0.000000 0.169162 0.837186
0.170382 0.126436 0.832212
0.503288 0.000000 0.825437
0.729610 0.000000 0.817411
0.923583 0.000000 0.805753
0.000000 0.224155 0.836759
0.000000 0.218479 0.837308
0.000000 0.200931 0.835996
0.000000 0.191287 0.832639
0.194797 0.156374 0.827573
0.504723 0.000000 0.820340
0.726497 0.000000 0.811673
0.917144 0.000000 0.798032
0.000000 0.338872 0.830900
0.000000 0.332830 0.830838
0.000000 0.304723 0.829984
0.000000 0.281987 0.827390
0.283787 0.259739 0.822354
0.528679 0.210819 0.816159
0.735164 0.134768 0.810025
0.910582 0.244419 0.792172
0.000000 0.507317 0.819120
0.000000 0.501732 0.818662
0.000000 0.480598 0.818112
0.140322 0.436011 0.818601
0.379522 0.409552 0.815244
0.563378 0.381476 0.810849
0.744625 0.355444 0.805905
0.896971 0.430762 0.782803
0.244175 0.621363 0.801907
0.262791 0.620142 0.801266
0.332097 0.617487 0.800320
0.428351 0.612604 0.800351
0.472297 0.566155 0.801450
0.592615 0.538201 0.798062
0.745663 0.515435 0.793942
0.880003 0.583856 0.775174
0.354131 0.702785 0.786038
0.367254 0.703182 0.786252
0.414099 0.704128 0.786526
0.488350 0.706142 0.787442
0.576410 0.708705 0.788876
0.639857 0.683497 0.791501
0.751553 0.663172 0.788144
0.861540 0.716243 0.778073
0.437049 0.772000 0.774350
0.446357 0.772366 0.774899
0.478157 0.772244 0.775113
0.533959 0.772396 0.775906
0.604028 0.772366 0.776822
0.681697 0.773312 0.779019
0.760922 0.777462 0.784756
0.848569 0.793027 0.796719
0.587915 0.835599 0.781949
0.592615 0.835721 0.782467
0.614008 0.836606 0.785519
0.650050 0.837522 0.790097
0.697627 0.838865 0.797269
0.751247 0.841459 0.809079
0.796323 0.841825 0.819669
0.847715 0.856046 0.822416
0.000000 0.277165 0.910582
0.000000 0.272404 0.910704
0.000000 0.257755 0.910124
0.000000 0.253452 0.909026
0.000000 0.238651 0.907195
0.434211 0.201999 0.904662
0.635706 0.105165 0.901854
0.819333 0.000000 0.897581
0.000000 0.301427 0.908568
0.000000 0.296727 0.908782
0.000000 0.277287 0.908598
0.000000 0.272435 0.907439
0.000000 0.258030 0.905669
0.440620 0.224765 0.903197
0.637110 0.147921 0.900237
0.818479 0.000000 0.895811
0.000000 0.396429 0.903532
0.000000 0.391943 0.903655
0.000000 0.370611 0.903777
0.000000 0.351751 0.904021
0.233036 0.338231 0.902251
0.471168 0.312291 0.899779
0.648707 0.267308 0.897215
0.820798 0.232822 0.893126
0.000000 0.539361 0.893858
0.000000 0.536217 0.894072
0.000000 0.520562 0.894560
0.185214 0.487709 0.895933
0.361028 0.465492 0.895506
0.519188 0.444617 0.893889
0.667811 0.412604 0.892119
0.823667 0.393164 0.888762
0.376318 0.662959 0.882078
0.387366 0.663233 0.882231
0.423957 0.661616 0.882109
0.451820 0.643885 0.883177
0.475380 0.603296 0.885313
0.568200 0.578729 0.884855
0.686183 0.552819 0.883879
0.823575 0.536339 0.881804
0.472297 0.745571 0.871702
0.478096 0.745418 0.871519
0.500175 0.743801 0.871305
0.542321 0.741024 0.871580
0.600793 0.736721 0.872679
0.633051 0.706020 0.875944
0.713771 0.687678 0.876402
0.824369 0.673915 0.875456
0.534264 0.802853 0.865293
0.538994 0.802792 0.865202
0.559014 0.802884 0.865110
0.597681 0.803738 0.865354
0.650263 0.805386 0.865934
0.711696 0.808591 0.867399
0.753536 0.793698 0.870298
0.826719 0.779538 0.869139
0.603204 0.852720 0.861601
0.606531 0.852628 0.861570
0.621454 0.852445 0.861692
0.650538 0.852476 0.862181
0.690517 0.852445 0.862882
0.737484 0.852537 0.863798
0.787381 0.853269 0.865385
0.836942 0.855375 0.868254
