luts/旅拍胶片03.cube
# Created by Adobe Lightroom plugin Export LUT (1.24.0)
# www.johnrellis.com/lightroom/exportlut.htm
# Preset: 旅拍胶片-素材江湖03
# Color profile: E:\lut插件\exportlut.1.24\exportlut.lrplugin\color profiles\Rec709gamma2.4.icc
LUT_3D_SIZE 8
DOMAIN_MIN 0.000000 0.000000 0.000000
DOMAIN_MAX 0.903226 0.903226 0.903226
0.011414 0.006409 0.004547
0.025879 0.007019 0.004181
0.141543 0.016022 0.001129
0.273899 0.000000 0.000000
0.480201 0.000000 0.000000
0.688228 0.000000 0.000000
0.856718 0.000000 0.000000
0.975860 0.000000 0.000000
0.011505 0.020905 0.004822
0.042298 0.025299 0.003632
0.142855 0.047791 0.000000
0.272465 0.000000 0.000000
0.473823 0.000000 0.000000
0.681086 0.000000 0.000000
0.845853 0.000000 0.000000
0.968688 0.000000 0.000000
0.059052 0.117433 0.030823
0.088258 0.116945 0.032654
0.155520 0.127840 0.022400
0.297459 0.128298 0.005432
0.491005 0.081239 0.000000
0.694820 0.000000 0.000000
0.855100 0.000702 0.000000
0.971893 0.191867 0.000000
0.022858 0.238590 0.074037
0.086366 0.238163 0.076692
0.164279 0.243595 0.078981
0.333623 0.283085 0.001587
0.545464 0.296544 0.000000
0.714229 0.296056 0.000000
0.855558 0.317662 0.000000
0.964843 0.359228 0.000000
0.000000 0.416571 0.133059
0.000000 0.416266 0.134859
0.190494 0.417060 0.143465
0.339544 0.443030 0.139437
0.553002 0.485878 0.100923
0.724788 0.487922 0.103456
0.848234 0.487831 0.060121
0.951476 0.502953 0.124269
0.161929 0.589410 0.254124
0.195682 0.592462 0.259190
0.280003 0.592126 0.266392
0.384222 0.591913 0.281163
0.543114 0.624933 0.283177
0.720699 0.657038 0.288884
0.848508 0.655299 0.325444
0.938109 0.654902 0.329595
0.377752 0.734310 0.433021
0.389258 0.734768 0.435370
0.427466 0.733883 0.440192
0.491310 0.733120 0.451728
0.578973 0.739956 0.465522
0.704646 0.763882 0.481025
0.831785 0.782559 0.501640
0.915099 0.776120 0.541711
0.564843 0.842100 0.628565
0.569482 0.841978 0.629328
0.588983 0.841825 0.633753
0.624811 0.841886 0.643305
0.664424 0.837858 0.646967
0.737270 0.848051 0.663691
0.822141 0.861357 0.681514
0.901488 0.869322 0.697749
0.009644 0.009522 0.017700
0.050782 0.004822 0.019806
0.142336 0.014862 0.023774
0.263584 0.000000 0.034516
0.462196 0.000000 0.029603
0.670710 0.000000 0.000000
0.835996 0.000000 0.000000
0.961089 0.000000 0.000000
0.009918 0.039521 0.022644
0.062654 0.042420 0.025727
0.144167 0.058228 0.032349
0.267796 0.025879 0.037720
0.464271 0.000000 0.028473
0.670497 0.000000 0.000000
0.831571 0.000000 0.000000
0.956573 0.000000 0.000000
0.082307 0.124025 0.059480
0.099245 0.125063 0.062623
0.159548 0.133272 0.058167
0.292912 0.135561 0.041718
0.481300 0.108309 0.019928
0.679194 0.000000 0.000000
0.835782 0.083406 0.000000
0.958343 0.199100 0.000000
0.066957 0.240970 0.097536
0.103212 0.240940 0.099031
0.171542 0.243748 0.103243
0.326452 0.278752 0.072450
0.522454 0.288548 0.013428
0.691829 0.289433 0.000000
0.836606 0.311559 0.000000
0.952392 0.355261 0.030640
0.000000 0.417304 0.153597
0.072572 0.416388 0.155032
0.201907 0.415839 0.161959
0.337377 0.436072 0.162020
0.541680 0.476814 0.136843
0.712428 0.481147 0.138643
0.838376 0.483497 0.119051
0.944213 0.500664 0.155703
0.174472 0.585779 0.265690
0.201968 0.585870 0.267552
0.282170 0.585962 0.274754
0.384527 0.586816 0.289860
0.538415 0.619226 0.295415
0.715450 0.653712 0.305303
0.843168 0.653346 0.339147
0.933623 0.653223 0.340795
0.376745 0.730312 0.436194
0.385412 0.729427 0.436133
0.423743 0.728542 0.440833
0.488167 0.728420 0.452796
0.575586 0.735836 0.469490
0.700649 0.760372 0.485298
0.827207 0.779019 0.504692
0.911437 0.773098 0.542412
0.561120 0.839780 0.627558
0.566888 0.840146 0.629603
0.586267 0.839902 0.633722
0.622400 0.839994 0.643214
0.669490 0.839994 0.656519
0.738308 0.848539 0.670253
0.821317 0.861051 0.685786
0.900420 0.869200 0.701900
0.020142 0.054841 0.112734
0.073182 0.042023 0.113832
0.161196 0.023804 0.115816
0.298863 0.000000 0.112764
0.464973 0.000000 0.125002
0.667353 0.000000 0.139437
0.829374 0.000000 0.154482
0.954314 0.156619 0.179477
0.070161 0.096803 0.113497
0.091279 0.091859 0.115328
0.164828 0.073579 0.118074
0.294194 0.031708 0.116304
0.464485 0.000000 0.129305
0.664851 0.000000 0.141939
0.825406 0.000000 0.153994
0.950744 0.181155 0.178592
0.084291 0.148714 0.121431
0.106996 0.150088 0.122560
0.175784 0.155825 0.128511
0.301640 0.162905 0.133364
0.484901 0.163058 0.141115
0.675502 0.166110 0.149477
0.828458 0.204959 0.163577
0.949523 0.276707 0.191592
0.087800 0.261601 0.149599
0.121157 0.264561 0.153475
0.206577 0.273045 0.166354
0.339574 0.298741 0.169192
0.521141 0.311162 0.164675
0.689204 0.324041 0.166384
0.831571 0.353124 0.186191
0.945586 0.397253 0.221317
0.110719 0.432837 0.221347
0.153750 0.434302 0.225223
0.246433 0.436439 0.234073
0.356786 0.445747 0.245243
0.546166 0.489754 0.244846
0.705653 0.496010 0.249790
0.829770 0.499733 0.239048
0.936522 0.523766 0.274022
0.236515 0.594537 0.328222
0.256779 0.594903 0.330419
0.321294 0.594720 0.336339
0.411627 0.595026 0.349157
0.541527 0.619867 0.362402
0.709163 0.656336 0.380987
0.833280 0.661280 0.410834
0.924956 0.664363 0.411627
0.406928 0.735317 0.482155
0.414954 0.734646 0.482429
0.448646 0.733333 0.485695
0.506889 0.732631 0.495216
0.582116 0.735653 0.511040
0.700404 0.761624 0.530266
0.823301 0.782864 0.554467
0.906004 0.780819 0.589227
0.571984 0.841215 0.650233
0.576043 0.840940 0.650629
0.594659 0.840635 0.654261
0.630823 0.841398 0.664454
0.676143 0.841428 0.676631
0.740108 0.848997 0.691920
0.820676 0.862242 0.708217
0.897887 0.871153 0.724636
0.000000 0.110445 0.243748
0.000000 0.102449 0.245609
0.153902 0.095216 0.246159
0.315953 0.000000 0.245884
0.528374 0.000000 0.238560
0.685237 0.000000 0.243259
0.810330 0.158602 0.280674
0.932097 0.276829 0.321630
0.000000 0.144106 0.247196
0.033051 0.135286 0.248203
0.164523 0.120699 0.249210
0.321477 0.056916 0.249851
0.527764 0.000000 0.242100
0.681849 0.000000 0.248936
0.808469 0.196353 0.286900
0.930999 0.294011 0.325048
0.073304 0.214298 0.249760
0.115938 0.215640 0.250248
0.191409 0.202976 0.256443
0.332921 0.175296 0.258671
0.518883 0.167086 0.255467
0.670253 0.229374 0.277684
0.814481 0.296788 0.312535
0.932525 0.362860 0.345953
0.000000 0.311955 0.268009
0.067659 0.312535 0.268437
0.209201 0.315984 0.271794
0.347173 0.324346 0.282383
0.510216 0.340429 0.292302
0.671565 0.365759 0.310369
0.812100 0.402472 0.335241
0.927184 0.450019 0.369207
0.082124 0.455085 0.310613
0.143709 0.456031 0.313024
0.263767 0.461830 0.325353
0.393988 0.472816 0.351446
0.544213 0.505577 0.369879
0.689662 0.514000 0.371801
0.814817 0.528801 0.380926
0.920775 0.559808 0.416205
0.263279 0.608606 0.408667
0.287785 0.611627 0.414496
0.362341 0.613336 0.427192
0.455848 0.616175 0.446387
0.551629 0.626764 0.463691
0.700984 0.664820 0.487861
0.818265 0.674342 0.507958
0.910948 0.679622 0.505394
0.421851 0.741238 0.537530
0.434577 0.741695 0.541100
0.481727 0.742702 0.554925
0.535882 0.743191 0.564385
0.601617 0.743679 0.578271
0.700496 0.764797 0.598932
0.815793 0.787991 0.624170
0.896452 0.790402 0.651087
0.587701 0.845457 0.688350
0.594690 0.845426 0.690913
0.611505 0.845274 0.693538
0.644160 0.845151 0.700374
0.687251 0.845121 0.710567
0.741665 0.849271 0.724941
0.818692 0.863828 0.742214
0.894011 0.874571 0.759792
0.000000 0.179141 0.442267
0.000000 0.170779 0.443336
0.000000 0.160128 0.441627
0.311498 0.128664 0.439063
0.520165 0.000000 0.436194
0.719875 0.000000 0.422492
0.841917 0.000000 0.407782
0.932036 0.298558 0.443519
0.000000 0.214389 0.443305
0.000000 0.205509 0.444831
0.084474 0.185519 0.443915
0.319280 0.157076 0.441291
0.522240 0.000000 0.438056
0.718990 0.000000 0.424079
0.838712 0.108492 0.411627
0.928496 0.322728 0.449256
0.000000 0.305608 0.443061
0.030365 0.303624 0.444312
0.183780 0.278691 0.446693
0.334844 0.247349 0.445441
0.524224 0.204318 0.440955
0.710231 0.158053 0.424842
0.822538 0.274296 0.426123
0.912352 0.401160 0.470863
0.000000 0.399817 0.448280
0.099367 0.400305 0.448157
0.245121 0.402991 0.449531
0.364935 0.385992 0.455909
0.527977 0.354162 0.454597
0.686946 0.365911 0.442634
0.795071 0.434394 0.466529
0.897978 0.501061 0.509514
0.000000 0.503227 0.462776
0.094575 0.503624 0.463203
0.249424 0.504265 0.464759
0.388098 0.505669 0.468452
0.522820 0.508965 0.475990
0.658961 0.525414 0.487709
0.787686 0.552575 0.509850
0.897002 0.586908 0.538933
0.221103 0.613733 0.490517
0.248173 0.614313 0.492256
0.332067 0.615473 0.498573
0.443061 0.619928 0.513909
0.555291 0.628534 0.541588
0.680598 0.663630 0.574273
0.796109 0.676967 0.585016
0.892882 0.689021 0.592554
0.393194 0.745296 0.590387
0.403876 0.744991 0.591180
0.448127 0.745022 0.596735
0.528740 0.747555 0.615167
0.613123 0.750668 0.638697
0.690761 0.761013 0.657740
0.803342 0.789517 0.686030
0.884459 0.795163 0.702998
0.537987 0.846525 0.697841
0.546777 0.846403 0.700038
0.580835 0.846128 0.709529
0.641474 0.847501 0.731380
0.692195 0.848081 0.744747
0.741604 0.849027 0.757382
0.812833 0.863310 0.775326
0.887938 0.876432 0.793393
0.000000 0.285710 0.639246
0.000000 0.278233 0.640192
0.000000 0.259190 0.638880
0.298863 0.244022 0.635920
0.510033 0.196292 0.629694
0.694118 0.114260 0.622126
0.848386 0.055604 0.601160
0.952514 0.258427 0.584375
0.000000 0.312932 0.633509
0.000000 0.304631 0.633417
0.000000 0.278141 0.632563
0.303227 0.262455 0.629206
0.507408 0.219333 0.624414
0.689937 0.157778 0.618219
0.844053 0.137850 0.598566
0.948058 0.280980 0.584131
0.000000 0.407141 0.634516
0.099001 0.404883 0.634363
0.183047 0.374487 0.634791
0.332128 0.340612 0.630335
0.513512 0.308232 0.625666
0.688045 0.272984 0.620447
0.837919 0.273533 0.602991
0.936004 0.373846 0.596002
0.178317 0.502525 0.631861
0.211002 0.501122 0.631464
0.304479 0.497200 0.632380
0.395727 0.472236 0.637018
0.524498 0.439094 0.635157
0.684779 0.413123 0.630457
0.827878 0.418677 0.615991
0.915160 0.496620 0.621576
0.216403 0.578485 0.632349
0.243656 0.578607 0.632197
0.330480 0.579492 0.632166
0.440620 0.581720 0.633234
0.536980 0.565911 0.636652
0.667903 0.538109 0.633692
0.798856 0.551171 0.625635
0.883299 0.607507 0.649012
0.264683 0.660639 0.641779
0.286442 0.661402 0.642847
0.352972 0.660822 0.643061
0.446052 0.660029 0.644038
0.548394 0.659144 0.645533
0.656397 0.661860 0.652216
0.772885 0.680476 0.668055
0.874052 0.705074 0.689937
0.379614 0.755001 0.674006
0.391821 0.755703 0.675441
0.433753 0.756558 0.677882
0.506432 0.758358 0.683986
0.598505 0.761440 0.696895
0.692378 0.766598 0.719722
0.790951 0.793088 0.748623
0.873686 0.800717 0.756039
0.515496 0.851621 0.745815
0.521691 0.851347 0.746090
0.549523 0.851133 0.749020
0.601099 0.851682 0.756741
0.673396 0.852445 0.772488
0.746609 0.854337 0.794644
0.805722 0.862394 0.810727
0.882414 0.880156 0.830777
0.000000 0.416663 0.783749
0.000000 0.411658 0.784512
0.000000 0.387701 0.784268
0.331609 0.378637 0.782406
0.506401 0.357610 0.778958
0.672816 0.317113 0.774166
0.819547 0.297856 0.768490
0.931426 0.325078 0.742824
0.000000 0.435035 0.779416
0.000000 0.430304 0.780331
0.106203 0.403326 0.780728
0.336156 0.391547 0.778439
0.505180 0.370184 0.774807
0.668513 0.329839 0.769650
0.814298 0.308843 0.763485
0.926696 0.332372 0.738186
0.247807 0.512505 0.777523
0.255161 0.507317 0.777615
0.283482 0.484077 0.777737
0.371893 0.453681 0.777035
0.515648 0.433082 0.773495
0.667475 0.398566 0.769284
0.810452 0.382757 0.765469
0.922118 0.404395 0.744533
0.330419 0.591272 0.775631
0.344213 0.589960 0.775174
0.397101 0.586023 0.774624
0.445777 0.559869 0.775906
0.534417 0.529381 0.774472
0.666255 0.502220 0.771756
0.802213 0.485298 0.769039
0.912291 0.498390 0.751980
0.368719 0.658991 0.772061
0.380133 0.658473 0.771267
0.426947 0.658686 0.770321
0.495979 0.654932 0.771237
0.563043 0.632105 0.773068
0.657618 0.601587 0.771359
0.786893 0.581598 0.768978
0.900237 0.593591 0.759518
0.392096 0.720851 0.775418
0.403204 0.721004 0.775540
0.443519 0.721157 0.775753
0.509789 0.721401 0.776303
0.591211 0.721492 0.777066
0.668330 0.709010 0.780270
0.774838 0.686702 0.778653
0.879423 0.699947 0.773495
0.425330 0.786984 0.786282
0.434730 0.787259 0.786770
0.468299 0.786831 0.786954
0.526757 0.786252 0.787625
0.600061 0.785000 0.788327
0.681086 0.783688 0.789395
0.764401 0.783078 0.791623
0.857633 0.799130 0.805539
0.517662 0.855985 0.808713
0.524102 0.856168 0.809140
0.550927 0.857145 0.811460
0.595483 0.858000 0.814328
0.654841 0.859129 0.818540
0.728969 0.860929 0.827817
0.804013 0.864866 0.845121
0.877195 0.884184 0.866331
0.370550 0.574151 0.880735
0.375525 0.571038 0.881102
0.391150 0.553735 0.881407
0.463752 0.543603 0.881193
0.564141 0.532067 0.880095
0.677424 0.512322 0.878569
0.801755 0.482124 0.877195
0.910796 0.482368 0.874144
0.384588 0.584588 0.878752
0.389319 0.581689 0.879149
0.404364 0.565393 0.879759
0.467384 0.551751 0.879667
0.564935 0.539849 0.878691
0.676387 0.520104 0.877226
0.799435 0.489082 0.875608
0.908415 0.487739 0.872557
0.443244 0.630182 0.875395
0.445960 0.627222 0.875608
0.455970 0.612604 0.876127
0.490578 0.590539 0.877989
0.575525 0.577844 0.876890
0.677638 0.557458 0.875364
0.795285 0.527947 0.874174
0.903044 0.523613 0.871672
0.489937 0.684993 0.872007
0.498543 0.685237 0.872160
0.529229 0.684474 0.872038
0.543511 0.661219 0.873930
0.592523 0.637354 0.874784
0.681300 0.619318 0.873991
0.789151 0.592706 0.873411
0.894774 0.584192 0.871794
0.507347 0.735317 0.869505
0.513634 0.735134 0.869841
0.535332 0.732448 0.869993
0.584222 0.730190 0.870634
0.623407 0.710903 0.872129
0.683070 0.686275 0.872648
0.779507 0.663478 0.872587
0.884001 0.652918 0.872343
0.526482 0.782376 0.870207
0.531304 0.782040 0.869993
0.552605 0.781399 0.869535
0.593774 0.781338 0.869505
0.647395 0.779019 0.870756
0.702571 0.764767 0.874174
0.774502 0.744198 0.875944
0.873747 0.732601 0.876707
0.552026 0.831113 0.875792
0.556664 0.830991 0.875731
0.576226 0.830625 0.875700
0.613611 0.830533 0.876097
0.665461 0.830594 0.876921
0.727077 0.831296 0.878508
0.783413 0.822049 0.880766
0.862242 0.804715 0.879973
0.586816 0.879301 0.884031
0.590631 0.879149 0.884031
0.607660 0.878874 0.884245
0.640528 0.878721 0.884947
0.685939 0.878355 0.885954
0.739712 0.877958 0.887205
0.798367 0.877745 0.888884
0.859068 0.876860 0.890043
