luts/旅拍胶片06.cube
# Created by Adobe Lightroom plugin Export LUT (1.24.0)
# www.johnrellis.com/lightroom/exportlut.htm
# Preset: 旅拍胶片-素材江湖06
# Color profile: E:\lut插件\exportlut.1.24\exportlut.lrplugin\color profiles\Rec709gamma2.4.icc
LUT_3D_SIZE 32
DOMAIN_MIN 0.0 0.0 0.0
DOMAIN_MAX 1.0 1.0 1.0
0.030793 0.098268 0.075257
0.030793 0.098268 0.075257
0.030793 0.098268 0.075257
0.030793 0.098268 0.075257
0.028809 0.098329 0.075257
0.028809 0.098329 0.075257
0.036774 0.098024 0.075227
0.057191 0.098024 0.074830
0.091920 0.098512 0.073732
0.120180 0.098726 0.071809
0.158053 0.098146 0.068421
0.204227 0.094453 0.063539
0.255497 0.083925 0.057008
0.309941 0.048585 0.048341
0.365484 0.000000 0.037873
0.420966 0.000000 0.024933
0.475929 0.000000 0.009827
0.529808 0.000000 0.000000
0.583703 0.000000 0.000000
0.636744 0.000000 0.000000
0.687434 0.000000 0.000000
0.736110 0.000000 0.000000
0.782712 0.000000 0.000000
0.836606 0.000000 0.000000
0.884977 0.000000 0.000000
0.928313 0.000000 0.000000
0.967498 0.000000 0.000000
1.000000 0.000000 0.000000
1.000000 0.000000 0.000000
1.000000 0.000000 0.000000
1.000000 0.000000 0.000000
1.000000 0.000000 0.000000
0.030793 0.098268 0.075257
0.030793 0.098268 0.075257
0.030793 0.098268 0.075257
0.030793 0.098268 0.075257
0.028809 0.098329 0.075257
0.028809 0.098329 0.075257
0.036774 0.098024 0.075227
0.057191 0.098024 0.074830
0.091157 0.098573 0.073732
0.119173 0.098878 0.071809
0.156130 0.098177 0.068635
0.201419 0.094942 0.063783
0.252384 0.085695 0.057313
0.306554 0.051972 0.048859
0.361913 0.000000 0.038300
0.417029 0.000000 0.025757
0.471992 0.000000 0.010895
0.526085 0.000000 0.000000
0.580041 0.000000 0.000000
0.632990 0.000000 0.000000
0.683619 0.000000 0.000000
0.732113 0.000000 0.000000
0.778622 0.000000 0.000000
0.831479 0.000000 0.000000
0.879149 0.000000 0.000000
0.922515 0.000000 0.000000
0.961883 0.000000 0.000000
0.997955 0.000000 0.000000
1.000000 0.000000 0.000000
1.000000 0.000000 0.000000
1.000000 0.000000 0.000000
1.000000 0.000000 0.000000
0.030793 0.098268 0.075257
0.030793 0.098268 0.075257
0.030793 0.098268 0.075257
0.030793 0.098268 0.075257
0.029511 0.097932 0.075410
0.030793 0.098268 0.075257
0.036774 0.098024 0.075227
0.057771 0.098756 0.074525
0.090913 0.099001 0.073579
0.119326 0.099580 0.071504
0.155886 0.099001 0.068330
0.200748 0.095918 0.063508
0.251133 0.088411 0.056916
0.304936 0.060212 0.048219
0.359899 0.007904 0.037690
0.415259 0.000000 0.025025
0.469825 0.000000 0.010224
0.524102 0.000000 0.000000
0.577752 0.000000 0.000000
0.630823 0.000000 0.000000
0.681575 0.000000 0.000000
0.730068 0.000000 0.000000
0.777340 0.000000 0.000000
0.829160 0.000000 0.000000
0.876524 0.000000 0.000000
0.919524 0.000000 0.000000
0.958984 0.000000 0.000000
0.995239 0.000000 0.000000
1.000000 0.000000 0.000000
1.000000 0.000000 0.000000
1.000000 0.000000 0.000000
1.000000 0.000000 0.000000
0.031525 0.097841 0.075410
0.031525 0.097841 0.075410
0.031525 0.097841 0.075410
0.031525 0.097841 0.075410
0.029511 0.097932 0.075410
0.030793 0.098268 0.075257
0.038025 0.098360 0.075074
0.061036 0.099031 0.074372
0.093080 0.099855 0.073091
0.120638 0.100832 0.070863
0.156863 0.100954 0.067384
0.201541 0.098787 0.062257
0.251804 0.091859 0.055512
0.304997 0.071351 0.046662
0.359136 0.021790 0.036072
0.413611 0.000000 0.023194
0.467781 0.000000 0.008179
0.521294 0.000000 0.000000
0.574426 0.000000 0.000000
0.627283 0.000000 0.000000
0.677760 0.000000 0.000000
0.726192 0.000000 0.000000
0.774319 0.000000 0.000000
0.825376 0.000000 0.000000
0.872740 0.000000 0.000000
0.916411 0.000000 0.000000
0.956634 0.000000 0.000000
0.993561 0.000000 0.000000
1.000000 0.000000 0.000000
1.000000 0.000000 0.000000
1.000000 0.000000 0.000000
1.000000 0.000000 0.000000
0.031525 0.097841 0.075410
0.031525 0.097841 0.075410
0.031525 0.097841 0.075410
0.031525 0.097841 0.075410
0.029511 0.097932 0.075410
0.031525 0.097841 0.075410
0.037324 0.098787 0.074922
0.061585 0.099733 0.074037
0.094179 0.101198 0.072480
0.122530 0.102724 0.069917
0.158633 0.103456 0.066133
0.202518 0.102449 0.060548
0.251804 0.097414 0.053376
0.304631 0.085481 0.044251
0.358373 0.045838 0.033082
0.412879 0.000000 0.019745
0.467079 0.000000 0.004120
0.520623 0.000000 0.000000
0.573877 0.000000 0.000000
0.626459 0.000000 0.000000
0.676753 0.000000 0.000000
0.725124 0.000000 0.000000
0.774289 0.000000 0.000000
0.824765 0.000000 0.000000
0.871794 0.000000 0.000000
0.915526 0.000000 0.000000
0.955657 0.000000 0.000000
0.992462 0.000000 0.000000
1.000000 0.000000 0.000000
1.000000 0.000000 0.000000
1.000000 0.000000 0.000000
1.000000 0.000000 0.000000
0.031525 0.097841 0.075410
0.031525 0.097841 0.075410
0.029511 0.097932 0.075410
0.029511 0.097932 0.075410
0.031525 0.097841 0.075410
0.030793 0.098268 0.075257
0.037324 0.098787 0.074922
0.056916 0.100252 0.073915
0.094331 0.102968 0.071717
0.123873 0.105623 0.068513
0.161868 0.107881 0.063752
0.207218 0.107942 0.057343
0.256199 0.104646 0.049348
0.308171 0.096590 0.039460
0.361975 0.077668 0.027466
0.415778 0.023285 0.013367
0.469764 0.000000 0.000000
0.523308 0.000000 0.000000
0.576440 0.000000 0.000000
0.628687 0.000000 0.000000
0.678767 0.000000 0.000000
0.726772 0.000000 0.000000
0.803799 0.000000 0.000000
0.855772 0.000000 0.000000
0.902342 0.000000 0.000000
0.944213 0.000000 0.000000
0.981781 0.000000 0.000000
1.000000 0.000000 0.000000
1.000000 0.000000 0.000000
1.000000 0.000000 0.000000
1.000000 0.000000 0.000000
1.000000 0.000000 0.000000
0.028656 0.099489 0.074800
0.029389 0.099092 0.074952
0.029389 0.099092 0.074952
0.029389 0.099092 0.074952
0.031373 0.099001 0.074952
0.031922 0.099702 0.074647
0.037171 0.099886 0.074464
0.054780 0.101411 0.073457
0.091310 0.105318 0.070832
0.126070 0.110262 0.066194
0.169558 0.114290 0.059724
0.218021 0.116518 0.051301
0.270451 0.115236 0.040986
0.324010 0.109468 0.029114
0.376776 0.098909 0.015595
0.429816 0.074434 0.001221
0.482704 0.009583 0.000000
0.535241 0.000000 0.000000
0.587945 0.000000 0.000000
0.640162 0.000000 0.000000
0.690547 0.000000 0.000000
0.742489 0.000000 0.000000
0.797055 0.000000 0.000000
0.849485 0.000000 0.000000
0.897093 0.000000 0.000000
0.939635 0.000000 0.000000
0.977478 0.000000 0.000000
1.000000 0.000000 0.000000
1.000000 0.000000 0.000000
1.000000 0.000000 0.000000
1.000000 0.000000 0.000000
1.000000 0.000000 0.000000
0.026246 0.102785 0.073426
0.026246 0.102785 0.073426
0.026246 0.102785 0.073426
0.028229 0.102724 0.073426
0.030945 0.102266 0.073579
0.036194 0.102419 0.073396
0.042695 0.102907 0.073060
0.052491 0.103639 0.072572
0.081605 0.106630 0.070588
0.114595 0.113283 0.066773
0.158907 0.120882 0.058686
0.216403 0.126375 0.047303
0.269108 0.128206 0.035340
0.323461 0.126802 0.022431
0.378943 0.120912 0.007660
0.432624 0.110109 0.000000
0.484840 0.092042 0.000000
0.536736 0.035187 0.000000
0.588861 0.000000 0.000000
0.640528 0.000000 0.000000
0.690394 0.000000 0.000000
0.744625 0.000000 0.000000
0.797574 0.000000 0.000000
0.848081 0.000000 0.000000
0.894743 0.000000 0.000000
0.936797 0.000000 0.000000
0.974487 0.000000 0.000000
1.000000 0.000000 0.000000
1.000000 0.000000 0.000000
1.000000 0.000000 0.000000
1.000000 0.000000 0.000000
1.000000 0.000000 0.000000
0.020661 0.110018 0.072511
0.020661 0.110018 0.072511
0.022644 0.109957 0.072511
0.025757 0.109194 0.073945
0.030152 0.108736 0.075196
0.037385 0.108827 0.075013
0.045167 0.109529 0.074525
0.060212 0.110323 0.073854
0.082094 0.111116 0.072999
0.104189 0.115846 0.069551
0.143679 0.126345 0.061738
0.197147 0.136904 0.049683
0.260166 0.144045 0.032898
0.323064 0.146334 0.016724
0.377935 0.144717 0.000031
0.432807 0.139254 0.000000
0.487678 0.129397 0.000000
0.541039 0.114382 0.000000
0.592859 0.091402 0.000000
0.643397 0.019501 0.000000
0.696437 0.000000 0.000000
0.748379 0.000000 0.000000
0.799619 0.000000 0.000000
0.848722 0.000000 0.000000
0.894285 0.000000 0.000000
0.935668 0.000000 0.000000
0.972930 0.000000 0.000000
1.000000 0.000000 0.000000
1.000000 0.000000 0.000000
1.000000 0.000000 0.000000
1.000000 0.000000 0.000000
1.000000 0.031861 0.000000
0.010163 0.122988 0.072786
0.010864 0.122683 0.072938
0.013581 0.122347 0.073091
0.017945 0.121950 0.074372
0.025757 0.120882 0.075929
0.035218 0.119722 0.078431
0.047578 0.120790 0.077790
0.067445 0.121920 0.075654
0.089540 0.122988 0.074464
0.104402 0.124269 0.071778
0.129946 0.130068 0.068727
0.177798 0.144411 0.056428
0.236576 0.157748 0.037934
0.302892 0.166567 0.017060
0.372900 0.169894 0.000000
0.431708 0.168521 0.000000
0.486671 0.164126 0.000000
0.541497 0.156497 0.000000
0.596155 0.145144 0.000000
0.651881 0.130434 0.000000
0.703059 0.111147 0.000000
0.752682 0.083253 0.000000
0.801511 0.011810 0.000000
0.848203 0.000000 0.000000
0.891966 0.000000 0.000000
0.932219 0.000000 0.000000
0.968994 0.000000 0.000000
1.000000 0.000000 0.000000
1.000000 0.000000 0.000000
1.000000 0.064668 0.000000
1.000000 0.122072 0.000000
1.000000 0.159823 0.000000
0.000000 0.142275 0.073762
0.000000 0.142245 0.073762
0.000000 0.141695 0.075196
0.000000 0.141085 0.076600
0.009705 0.139651 0.079042
0.024292 0.138125 0.081575
0.042725 0.138155 0.081361
0.070832 0.139345 0.080507
0.092805 0.141054 0.078676
0.110811 0.142702 0.075624
0.130739 0.144686 0.071565
0.160220 0.150149 0.068086
0.215518 0.168429 0.048829
0.278660 0.183719 0.025910
0.346990 0.193851 0.000000
0.417456 0.198917 0.000000
0.486213 0.198184 0.000000
0.541619 0.195468 0.000000
0.598535 0.191135 0.000000
0.653620 0.183810 0.000000
0.706416 0.174411 0.000000
0.756680 0.163851 0.000000
0.804196 0.154147 0.000000
0.849790 0.145144 0.000000
0.892454 0.138369 0.000000
0.931884 0.135683 0.000000
0.968200 0.137881 0.000000
1.000000 0.145998 0.000000
1.000000 0.159274 0.000000
1.000000 0.177554 0.000000
1.000000 0.198123 0.000000
1.000000 0.220096 0.000000
0.000000 0.169986 0.074586
0.000000 0.169802 0.074739
0.000000 0.169314 0.076143
0.000000 0.168612 0.078553
0.000000 0.167056 0.080598
0.000000 0.165164 0.084840
0.022889 0.163149 0.088594
0.056367 0.164736 0.087129
0.091188 0.166445 0.084260
0.112856 0.168612 0.081575
0.136385 0.170748 0.077607
0.162570 0.172793 0.070771
0.205661 0.184604 0.064912
0.266178 0.204379 0.039887
0.333379 0.220920 0.010437
0.404059 0.232700 0.000000
0.480720 0.241337 0.000000
0.558129 0.245182 0.000000
0.622736 0.244755 0.000000
0.677180 0.242252 0.000000
0.729519 0.238132 0.000000
0.779599 0.233829 0.000000
0.828061 0.229526 0.000000
0.873075 0.225406 0.000000
0.912444 0.224613 0.000000
0.948760 0.225254 0.000000
0.981750 0.228244 0.000000
1.000000 0.234043 0.000000
1.000000 0.241917 0.000000
1.000000 0.253056 0.000000
1.000000 0.266239 0.000000
1.000000 0.281712 0.000000
0.000000 0.209171 0.076997
0.000000 0.209018 0.078218
0.000000 0.208499 0.079194
0.000000 0.207248 0.081331
0.000000 0.205264 0.084504
0.000000 0.202884 0.089143
0.000000 0.199771 0.093477
0.023651 0.198947 0.094636
0.081941 0.200748 0.092714
0.111879 0.202914 0.089937
0.140169 0.205509 0.085969
0.170382 0.208011 0.080659
0.202731 0.210391 0.071382
0.242313 0.215549 0.065858
0.306401 0.236912 0.039155
0.377996 0.256443 0.004517
0.451545 0.270878 0.000000
0.526024 0.280613 0.000000
0.601007 0.286320 0.000000
0.672480 0.287480 0.000000
0.723079 0.285771 0.000000
0.772457 0.283879 0.000000
0.820310 0.282231 0.000000
0.865354 0.280583 0.000000
0.906981 0.279576 0.000000
0.945403 0.279240 0.000000
0.978332 0.282109 0.000000
1.000000 0.286839 0.000000
1.000000 0.293431 0.000000
1.000000 0.302342 0.000000
1.000000 0.312993 0.000000
1.000000 0.325383 0.000000
0.000000 0.245914 0.082307
0.000000 0.245762 0.083101
0.000000 0.244816 0.084535
0.000000 0.243626 0.087465
0.000000 0.241794 0.090486
0.000000 0.239017 0.094118
0.000000 0.236179 0.098970
0.000000 0.232578 0.104738
0.050355 0.234043 0.102296
0.106050 0.235966 0.099763
0.137942 0.238407 0.096223
0.171084 0.242405 0.092531
0.206302 0.246159 0.087678
0.243626 0.249699 0.079377
0.285771 0.253849 0.073030
0.348669 0.272770 0.047272
0.419593 0.292576 0.008972
0.491920 0.307683 0.000000
0.565454 0.318883 0.000000
0.637140 0.326055 0.000000
0.706722 0.329808 0.000000
0.766323 0.331060 0.000000
0.813901 0.331121 0.000000
0.858732 0.331304 0.000000
0.900450 0.331701 0.000000
0.938903 0.332464 0.000000
0.973877 0.334081 0.000000
1.000000 0.336461 0.000000
1.000000 0.341833 0.000000
1.000000 0.349187 0.000000
1.000000 0.357763 0.000000
1.000000 0.367864 0.000000
0.000000 0.284001 0.090852
0.000000 0.283970 0.091279
0.000000 0.283268 0.092073
0.000000 0.281834 0.094087
0.000000 0.279881 0.096895
0.000000 0.277562 0.101259
0.000000 0.275120 0.106996
0.000000 0.272007 0.113191
0.018708 0.271305 0.116030
0.099916 0.273747 0.113436
0.137270 0.276738 0.110262
0.172732 0.280156 0.106722
0.208438 0.283513 0.102266
0.245335 0.286503 0.096712
0.284428 0.288701 0.089540
0.326513 0.290867 0.084901
0.386938 0.307103 0.067872
0.457099 0.327459 0.027619
0.528801 0.343633 0.000000
0.600671 0.356298 0.000000
0.670314 0.364965 0.000000
0.739223 0.372015 0.000000
0.805447 0.377539 0.000000
0.852262 0.379278 0.000000
0.893828 0.380438 0.000000
0.932250 0.382177 0.000000
0.967559 0.384344 0.000000
0.999329 0.387366 0.000000
1.000000 0.390875 0.000000
1.000000 0.395727 0.000000
1.000000 0.403082 0.000000
1.000000 0.411963 0.000000
0.000000 0.325902 0.102296
0.000000 0.326055 0.102541
0.000000 0.325292 0.103334
0.000000 0.324346 0.105501
0.000000 0.322759 0.108888
0.000000 0.320836 0.112886
0.000000 0.318425 0.118837
0.000000 0.315740 0.125551
0.000000 0.312230 0.133516
0.098360 0.313909 0.131472
0.139223 0.316289 0.128664
0.175174 0.318700 0.124910
0.210697 0.320928 0.120241
0.246616 0.323003 0.114656
0.283696 0.324407 0.107881
0.322423 0.325017 0.099916
0.363775 0.325414 0.096101
0.421424 0.339269 0.090791
0.491066 0.360357 0.058961
0.562066 0.378027 0.016114
0.632776 0.392157 0.000000
0.702785 0.403937 0.000000
0.771023 0.414008 0.000000
0.834775 0.422217 0.000000
0.888151 0.427527 0.000000
0.926604 0.430335 0.000000
0.961913 0.433143 0.000000
0.993713 0.436378 0.000000
1.000000 0.439796 0.000000
1.000000 0.444068 0.000000
1.000000 0.448615 0.000000
1.000000 0.453529 0.000000
0.000000 0.366430 0.116274
0.000000 0.366339 0.116609
0.000000 0.365606 0.117586
0.000000 0.364813 0.119387
0.000000 0.363378 0.122560
0.000000 0.361395 0.126864
0.000000 0.359014 0.132387
0.000000 0.356115 0.139132
0.000000 0.352911 0.147005
0.100923 0.351110 0.150820
0.142641 0.353063 0.147616
0.178714 0.354925 0.143984
0.213474 0.356847 0.139712
0.248508 0.358434 0.134646
0.283818 0.359594 0.128664
0.321050 0.360235 0.121767
0.359319 0.360143 0.112917
0.399969 0.359625 0.108522
0.455116 0.371252 0.106661
0.524956 0.393744 0.091981
0.595666 0.412970 0.060029
0.666163 0.429145 0.018677
0.735409 0.443732 0.000000
0.801999 0.456336 0.000000
0.862608 0.466468 0.000000
0.916472 0.474952 0.000000
0.955688 0.479561 0.000000
0.987488 0.483009 0.000000
1.000000 0.486610 0.000000
1.000000 0.490608 0.000000
1.000000 0.494484 0.000000
1.000000 0.498787 0.000000
0.000000 0.406531 0.132876
0.000000 0.406531 0.133120
0.000000 0.418067 0.139590
0.000000 0.417029 0.141421
0.000000 0.415656 0.144442
0.000000 0.413672 0.148501
0.000000 0.411048 0.153597
0.000000 0.407965 0.159792
0.000000 0.404669 0.167269
0.120302 0.400732 0.175814
0.159884 0.401282 0.174166
0.194491 0.402686 0.170779
0.227787 0.403845 0.166323
0.261173 0.404639 0.161318
0.295171 0.405005 0.155428
0.330297 0.404974 0.148440
0.366491 0.404150 0.140780
0.404395 0.402869 0.131472
0.443824 0.400916 0.126375
0.496162 0.409888 0.125673
0.566217 0.433692 0.114534
0.636286 0.454292 0.102083
0.705989 0.472572 0.085328
0.773434 0.488899 0.046998
0.835660 0.502281 0.016175
0.891325 0.513115 0.000000
0.940490 0.521691 0.000000
0.981567 0.528344 0.000000
1.000000 0.531579 0.000000
1.000000 0.534722 0.000000
1.000000 0.538293 0.000000
1.000000 0.541711 0.000000
0.000000 0.449744 0.152193
0.000000 0.450782 0.152804
0.000000 0.451453 0.154116
0.000000 0.451881 0.156497
0.000000 0.451301 0.159518
0.000000 0.449683 0.163485
0.000000 0.447395 0.168307
0.000000 0.444373 0.173892
0.000000 0.441047 0.181033
0.120729 0.437140 0.188876
0.168246 0.434577 0.193668
0.200381 0.435828 0.190311
0.232456 0.436591 0.186343
0.264042 0.437446 0.181399
0.296727 0.437873 0.176089
0.330388 0.437903 0.169772
0.365026 0.437598 0.162783
0.401190 0.436896 0.154574
0.439246 0.435828 0.145632
0.478431 0.434180 0.139864
0.528740 0.441474 0.141756
0.598657 0.466865 0.132418
0.668788 0.489326 0.122683
0.737819 0.509911 0.111086
0.802670 0.527276 0.100618
0.861326 0.541558 0.092042
0.913359 0.553216 0.088777
0.958709 0.562768 0.092592
0.997253 0.570428 0.101961
1.000000 0.575036 0.106935
1.000000 0.578302 0.107759
1.000000 0.581353 0.111849
0.000000 0.487282 0.168521
0.000000 0.488319 0.169314
0.000000 0.489387 0.170718
0.000000 0.489784 0.173068
0.000000 0.489540 0.176211
0.000000 0.488136 0.179629
0.000000 0.485878 0.183963
0.000000 0.483040 0.189700
0.000000 0.479744 0.196201
0.125277 0.475929 0.203464
0.177401 0.471626 0.211826
0.210086 0.471412 0.210971
0.240574 0.472145 0.207370
0.270787 0.472908 0.202731
0.301976 0.473365 0.197482
0.334142 0.473671 0.191897
0.367651 0.473396 0.185306
0.402258 0.473030 0.177981
0.438453 0.472389 0.169650
0.476295 0.471443 0.160555
0.515160 0.469490 0.154086
0.562341 0.474098 0.158175
0.632166 0.500999 0.151156
0.702083 0.525566 0.143221
0.769039 0.547143 0.135286
0.830594 0.565118 0.129854
0.885588 0.579980 0.127810
0.933867 0.592187 0.130770
0.975219 0.602197 0.137728
1.000000 0.610193 0.149294
1.000000 0.616297 0.164248
1.000000 0.618769 0.167575
0.000000 0.526146 0.186160
0.000000 0.527092 0.186679
0.000000 0.528069 0.188327
0.000000 0.528466 0.190372
0.000000 0.528161 0.193179
0.000000 0.526879 0.196597
0.000000 0.524804 0.200717
0.000000 0.522240 0.205783
0.000000 0.519158 0.212039
0.129946 0.515557 0.219028
0.183383 0.511589 0.226963
0.221897 0.508324 0.232609
0.250645 0.508934 0.228946
0.279698 0.509545 0.224582
0.309606 0.510124 0.220096
0.340551 0.510582 0.214603
0.372778 0.510979 0.208865
0.406561 0.511254 0.202121
0.441962 0.511498 0.195102
0.479164 0.511681 0.187289
0.518120 0.511803 0.178622
0.557458 0.510552 0.172702
0.601984 0.512749 0.178470
0.672847 0.542229 0.173892
0.742184 0.568841 0.169253
0.806149 0.591058 0.166354
0.863737 0.609491 0.166567
0.914336 0.624720 0.170535
0.957549 0.637293 0.179080
0.993591 0.647089 0.190036
1.000000 0.654627 0.204501
1.000000 0.659663 0.219913
0.000000 0.573114 0.209445
0.000000 0.573541 0.209842
0.000000 0.573541 0.210819
0.000000 0.573053 0.212100
0.000000 0.572137 0.214450
0.000000 0.570459 0.217441
0.000000 0.568322 0.221164
0.000000 0.565667 0.225742
0.018952 0.562768 0.231418
0.145052 0.559594 0.238315
0.196292 0.555840 0.246067
0.237064 0.551568 0.254429
0.266789 0.550622 0.254429
0.294347 0.551202 0.250462
0.322698 0.551598 0.245731
0.352270 0.551873 0.240452
0.383032 0.552056 0.234989
0.415106 0.552148 0.228611
0.448707 0.552087 0.221561
0.484016 0.552026 0.214267
0.520592 0.551873 0.206088
0.558953 0.551385 0.197177
0.597131 0.549340 0.189975
0.640070 0.550958 0.196201
0.707698 0.578576 0.193240
0.774075 0.604944 0.191623
0.834623 0.627131 0.192142
0.888365 0.645594 0.196719
0.934661 0.660792 0.204440
0.973541 0.672816 0.215366
1.000000 0.682063 0.229129
1.000000 0.688685 0.245121
0.000000 0.613123 0.229374
0.000000 0.613550 0.230045
0.000000 0.613550 0.230564
0.000000 0.613153 0.232120
0.000000 0.612329 0.234195
0.000000 0.610864 0.236912
0.000000 0.608942 0.240604
0.000000 0.606592 0.245182
0.078401 0.603937 0.250523
0.158846 0.600732 0.256870
0.207614 0.597284 0.264225
0.248203 0.593408 0.272343
0.282506 0.589776 0.278843
0.308629 0.590356 0.275151
0.335882 0.590967 0.271061
0.364202 0.591394 0.266117
0.393835 0.591852 0.260685
0.424781 0.592218 0.254887
0.457160 0.592523 0.248508
0.491035 0.592676 0.241611
0.526513 0.592859 0.234287
0.563378 0.592767 0.225834
0.601434 0.592554 0.217288
0.638941 0.590478 0.209354
0.677180 0.588342 0.212619
0.739956 0.612879 0.213046
0.803525 0.639094 0.213993
0.860533 0.660975 0.218357
0.910033 0.679133 0.226261
0.952026 0.693751 0.237247
0.986236 0.705196 0.251804
1.000000 0.713558 0.267826
0.000000 0.658808 0.253941
0.000000 0.659541 0.254551
0.000000 0.659602 0.255467
0.000000 0.658869 0.256626
0.000000 0.657588 0.258183
0.000000 0.655665 0.260472
0.000000 0.653254 0.263188
0.000000 0.650202 0.266819
0.116518 0.647028 0.271641
0.177157 0.643580 0.277348
0.221836 0.639551 0.283757
0.261021 0.635279 0.291142
0.296330 0.630610 0.299565
0.323888 0.628809 0.299840
0.348760 0.628717 0.295293
0.375463 0.628565 0.290471
0.403418 0.628534 0.284703
0.433021 0.628748 0.278965
0.464057 0.629114 0.272984
0.496895 0.629664 0.267002
0.531121 0.630121 0.260044
0.566552 0.630579 0.252598
0.602899 0.630457 0.244236
0.640131 0.629938 0.234714
0.676234 0.627070 0.225650
0.716243 0.627985 0.232212
0.773220 0.648402 0.235264
0.832731 0.673457 0.239231
0.885344 0.694362 0.246891
0.930266 0.711391 0.258061
0.967254 0.724910 0.272770
0.996674 0.735073 0.289525
0.000000 0.696742 0.275334
0.000000 0.697353 0.276097
0.000000 0.697566 0.276982
0.000000 0.697108 0.278080
0.000000 0.696254 0.279942
0.000000 0.694911 0.282109
0.000000 0.693263 0.285435
0.057038 0.691188 0.289250
0.151431 0.688838 0.294011
0.201572 0.686183 0.299931
0.242771 0.683009 0.306279
0.280247 0.679561 0.313939
0.314641 0.675410 0.322026
0.346075 0.671229 0.329595
0.369848 0.671199 0.325170
0.394903 0.671015 0.320165
0.421485 0.670924 0.315007
0.449348 0.670863 0.309148
0.479164 0.671077 0.303410
0.510216 0.671565 0.297398
0.543023 0.671992 0.290898
0.576898 0.672450 0.283909
0.611841 0.672663 0.276249
0.647486 0.672572 0.267979
0.684047 0.671992 0.258549
0.719814 0.669795 0.248905
0.757046 0.669581 0.256535
0.808194 0.686152 0.263584
0.863432 0.710201 0.271885
0.910918 0.729732 0.283909
0.950072 0.745144 0.299168
0.981262 0.756863 0.317327
0.000000 0.736995 0.302556
0.000000 0.737240 0.303044
0.000000 0.737118 0.303838
0.000000 0.736782 0.304845
0.000000 0.735836 0.306432
0.000000 0.734554 0.308446
0.072908 0.733059 0.311376
0.146548 0.731106 0.314977
0.193057 0.728878 0.319371
0.233188 0.726436 0.324926
0.269871 0.723598 0.331121
0.304204 0.720455 0.338354
0.336675 0.716823 0.346197
0.367651 0.712764 0.354925
0.393347 0.710567 0.356298
0.416663 0.710445 0.351629
0.441382 0.710231 0.346380
0.467720 0.710231 0.340917
0.495613 0.710384 0.335363
0.525109 0.710719 0.329503
0.556085 0.711269 0.323644
0.588190 0.711666 0.316869
0.621149 0.711788 0.309758
0.655146 0.711666 0.301793
0.689845 0.711238 0.293217
0.724727 0.710475 0.283665
0.759884 0.709163 0.273747
0.793668 0.707362 0.281926
0.838682 0.719936 0.291508
0.889403 0.742367 0.304234
0.931456 0.760128 0.320317
0.965118 0.773770 0.339635
0.000000 0.773159 0.331670
0.000000 0.773373 0.332189
0.000000 0.773373 0.332830
0.023194 0.773098 0.333867
0.101259 0.772580 0.335607
0.141329 0.771969 0.338109
0.179599 0.771267 0.341802
0.214786 0.770504 0.346441
0.248508 0.769680 0.352178
0.282414 0.768612 0.358770
0.315129 0.767300 0.366339
0.346715 0.765621 0.374456
0.377234 0.763394 0.383215
0.406714 0.760708 0.392645
0.434852 0.757321 0.401862
0.456367 0.757504 0.397742
0.478950 0.757534 0.393194
0.503227 0.757534 0.388159
0.528923 0.757748 0.382940
0.556146 0.757992 0.377600
0.584649 0.758450 0.372168
0.614618 0.758694 0.366308
0.645197 0.758755 0.359716
0.676539 0.758602 0.352270
0.708736 0.758175 0.344244
0.741329 0.757504 0.335576
0.774289 0.756771 0.326116
0.807797 0.755795 0.316045
0.837491 0.752743 0.324620
0.874998 0.760739 0.337407
0.918364 0.780026 0.355383
0.952819 0.794583 0.376196
0.207919 0.813748 0.375280
0.208225 0.813718 0.375280
0.212802 0.813474 0.375677
0.220096 0.813107 0.376562
0.231601 0.812436 0.377783
0.246921 0.811582 0.379736
0.265660 0.810483 0.382422
0.286595 0.809293 0.385931
0.310155 0.807797 0.390326
0.334569 0.806241 0.395605
0.360296 0.804349 0.401709
0.386236 0.802243 0.408606
0.412634 0.799802 0.416236
0.438788 0.796963 0.424567
