luts/旅拍胶片09.cube
# Created by Adobe Lightroom plugin Export LUT (1.24.0)
# www.johnrellis.com/lightroom/exportlut.htm
# Preset: 旅拍胶片-素材江湖09
# Color profile: E:\lut插件\exportlut.1.24\exportlut.lrplugin\color profiles\Rec709gamma2.4.icc
LUT_3D_SIZE 8
DOMAIN_MIN 0.000000 0.000000 0.000000
DOMAIN_MAX 0.903226 0.903226 0.903226
0.084230 0.084230 0.084230
0.084230 0.084230 0.084230
0.089326 0.089326 0.089326
0.099062 0.099062 0.099062
0.132479 0.132479 0.132479
0.187869 0.187869 0.187869
0.278019 0.278019 0.278019
0.389258 0.389258 0.389258
0.088228 0.088228 0.088228
0.089693 0.089693 0.089693
0.092958 0.092958 0.092958
0.106691 0.106691 0.106691
0.141482 0.141482 0.141482
0.195926 0.195926 0.195926
0.279637 0.279637 0.279637
0.388190 0.388190 0.388190
0.161776 0.161776 0.161776
0.167788 0.167788 0.167788
0.172793 0.172793 0.172793
0.176425 0.176425 0.176425
0.196780 0.196780 0.196780
0.258579 0.258579 0.258579
0.344244 0.344244 0.344244
0.448676 0.448676 0.448676
0.322179 0.322179 0.322179
0.326177 0.326177 0.326177
0.341009 0.341009 0.341009
0.361089 0.361089 0.361089
0.390539 0.390539 0.390539
0.386419 0.386419 0.386419
0.444678 0.444678 0.444678
0.531548 0.531548 0.531548
0.519829 0.519829 0.519829
0.522362 0.522362 0.522362
0.536095 0.536095 0.536095
0.546288 0.546288 0.546288
0.554894 0.554894 0.554894
0.581598 0.581598 0.581598
0.589471 0.589471 0.589471
0.619379 0.619379 0.619379
0.664424 0.664424 0.664424
0.669429 0.669429 0.669429
0.675502 0.675502 0.675502
0.683833 0.683833 0.683833
0.687984 0.687984 0.687984
0.695521 0.695521 0.695521
0.726101 0.726101 0.726101
0.745022 0.745022 0.745022
0.775418 0.775418 0.775418
0.776883 0.776883 0.776883
0.779721 0.779721 0.779721
0.786160 0.786160 0.786160
0.789181 0.789181 0.789181
0.794064 0.794064 0.794064
0.801114 0.801114 0.801114
0.827695 0.827695 0.827695
0.865537 0.865537 0.865537
0.865904 0.865904 0.865904
0.867887 0.867887 0.867887
0.872099 0.872099 0.872099
0.871824 0.871824 0.871824
0.876219 0.876219 0.876219
0.881682 0.881682 0.881682
0.886809 0.886809 0.886809
0.084810 0.084810 0.084810
0.084810 0.084810 0.084810
0.089326 0.089326 0.089326
0.102480 0.102480 0.102480
0.136660 0.136660 0.136660
0.189578 0.189578 0.189578
0.268894 0.268894 0.268894
0.373083 0.373083 0.373083
0.086641 0.086641 0.086641
0.088594 0.088594 0.088594
0.094362 0.094362 0.094362
0.111482 0.111482 0.111482
0.146639 0.146639 0.146639
0.200443 0.200443 0.200443
0.275731 0.275731 0.275731
0.376440 0.376440 0.376440
0.147219 0.147219 0.147219
0.152621 0.152621 0.152621
0.161593 0.161593 0.161593
0.168093 0.168093 0.168093
0.196536 0.196536 0.196536
0.253422 0.253422 0.253422
0.328191 0.328191 0.328191
0.429084 0.429084 0.429084
0.301274 0.301274 0.301274
0.305913 0.305913 0.305913
0.323980 0.323980 0.323980
0.336278 0.336278 0.336278
0.359075 0.359075 0.359075
0.357244 0.357244 0.357244
0.419318 0.419318 0.419318
0.509087 0.509087 0.509087
0.506279 0.506279 0.506279
0.508080 0.508080 0.508080
0.520470 0.520470 0.520470
0.529351 0.529351 0.529351
0.535760 0.535760 0.535760
0.563348 0.563348 0.563348
0.573327 0.573327 0.573327
0.607446 0.607446 0.607446
0.654597 0.654597 0.654597
0.656306 0.656306 0.656306
0.663020 0.663020 0.663020
0.673579 0.673579 0.673579
0.679042 0.679042 0.679042
0.688594 0.688594 0.688594
0.719265 0.719265 0.719265
0.737850 0.737850 0.737850
0.768215 0.768215 0.768215
0.768215 0.768215 0.768215
0.770993 0.770993 0.770993
0.778347 0.778347 0.778347
0.783597 0.783597 0.783597
0.788602 0.788602 0.788602
0.794766 0.794766 0.794766
0.821317 0.821317 0.821317
0.861509 0.861509 0.861509
0.862486 0.862486 0.862486
0.864408 0.864408 0.864408
0.868803 0.868803 0.868803
0.873808 0.873808 0.873808
0.876646 0.876646 0.876646
0.880858 0.880858 0.880858
0.885924 0.885924 0.885924
0.089693 0.089693 0.089693
0.090425 0.090425 0.090425
0.093690 0.093690 0.093690
0.116793 0.116793 0.116793
0.153323 0.153323 0.153323
0.210117 0.210117 0.210117
0.291081 0.291081 0.291081
0.393744 0.393744 0.393744
0.092958 0.092958 0.092958
0.094362 0.094362 0.094362
0.101259 0.101259 0.101259
0.125795 0.125795 0.125795
0.161776 0.161776 0.161776
0.218570 0.218570 0.218570
0.296941 0.296941 0.296941
0.397681 0.397681 0.397681
0.123903 0.123903 0.123903
0.127138 0.127138 0.127138
0.140505 0.140505 0.140505
0.166537 0.166537 0.166537
0.209323 0.209323 0.209323
0.269871 0.269871 0.269871
0.344640 0.344640 0.344640
0.441779 0.441779 0.441779
0.271611 0.271611 0.271611
0.275486 0.275486 0.275486
0.297429 0.297429 0.297429
0.317754 0.317754 0.317754
0.339330 0.339330 0.339330
0.367041 0.367041 0.367041
0.434302 0.434302 0.434302
0.521721 0.521721 0.521721
0.478798 0.478798 0.478798
0.482094 0.482094 0.482094
0.497078 0.497078 0.497078
0.517388 0.517388 0.517388
0.526726 0.526726 0.526726
0.551904 0.551904 0.551904
0.564202 0.564202 0.564202
0.612482 0.612482 0.612482
0.641840 0.641840 0.641840
0.643946 0.643946 0.643946
0.650843 0.650843 0.650843
0.664240 0.664240 0.664240
0.670161 0.670161 0.670161
0.680385 0.680385 0.680385
0.711788 0.711788 0.711788
0.733394 0.733394 0.733394
0.764370 0.764370 0.764370
0.764523 0.764523 0.764523
0.766842 0.766842 0.766842
0.773617 0.773617 0.773617
0.780423 0.780423 0.780423
0.786221 0.786221 0.786221
0.794186 0.794186 0.794186
0.822019 0.822019 0.822019
0.859525 0.859525 0.859525
0.859648 0.859648 0.859648
0.861540 0.861540 0.861540
0.866819 0.866819 0.866819
0.872770 0.872770 0.872770
0.876371 0.876371 0.876371
0.880949 0.880949 0.880949
0.886076 0.886076 0.886076
0.099062 0.099062 0.099062
0.100313 0.100313 0.100313
0.109834 0.109834 0.109834
0.131380 0.131380 0.131380
0.171603 0.171603 0.171603
0.238895 0.238895 0.238895
0.312169 0.312169 0.312169
0.404303 0.404303 0.404303
0.109010 0.109010 0.109010
0.111757 0.111757 0.111757
0.122957 0.122957 0.122957
0.143252 0.143252 0.143252
0.184237 0.184237 0.184237
0.249393 0.249393 0.249393
0.320806 0.320806 0.320806
0.411505 0.411505 0.411505
0.136660 0.136660 0.136660
0.144381 0.144381 0.144381
0.165438 0.165438 0.165438
0.185733 0.185733 0.185733
0.236698 0.236698 0.236698
0.294835 0.294835 0.294835
0.368627 0.368627 0.368627
0.456123 0.456123 0.456123
0.229496 0.229496 0.229496
0.232761 0.232761 0.232761
0.247623 0.247623 0.247623
0.276951 0.276951 0.276951
0.318761 0.318761 0.318761
0.372076 0.372076 0.372076
0.440650 0.440650 0.440650
0.526421 0.526421 0.526421
0.444038 0.444038 0.444038
0.445411 0.445411 0.445411
0.454383 0.454383 0.454383
0.483864 0.483864 0.483864
0.503868 0.503868 0.503868
0.526238 0.526238 0.526238
0.553735 0.553735 0.553735
0.618036 0.618036 0.618036
0.622797 0.622797 0.622797
0.627741 0.627741 0.627741
0.634394 0.634394 0.634394
0.649317 0.649317 0.649317
0.663325 0.663325 0.663325
0.671595 0.671595 0.671595
0.701015 0.701015 0.701015
0.723690 0.723690 0.723690
0.754269 0.754269 0.754269
0.755520 0.755520 0.755520
0.759670 0.759670 0.759670
0.767849 0.767849 0.767849
0.778927 0.778927 0.778927
0.784024 0.784024 0.784024
0.791196 0.791196 0.791196
0.819303 0.819303 0.819303
0.857603 0.857603 0.857603
0.858000 0.858000 0.858000
0.859922 0.859922 0.859922
0.864164 0.864164 0.864164
0.870390 0.870390 0.870390
0.875456 0.875456 0.875456
0.880339 0.880339 0.880339
0.886229 0.886229 0.886229
0.127596 0.127596 0.127596
0.130953 0.130953 0.130953
0.143801 0.143801 0.143801
0.169467 0.169467 0.169467
0.203555 0.203555 0.203555
0.256535 0.256535 0.256535
0.355261 0.355261 0.355261
0.444709 0.444709 0.444709
0.143038 0.143038 0.143038
0.146273 0.146273 0.146273
0.158297 0.158297 0.158297
0.182345 0.182345 0.182345
0.215885 0.215885 0.215885
0.268742 0.268742 0.268742
0.363989 0.363989 0.363989
0.451972 0.451972 0.451972
0.192264 0.192264 0.192264
0.195041 0.195041 0.195041
0.205783 0.205783 0.205783
0.229404 0.229404 0.229404
0.260990 0.260990 0.260990
0.311711 0.311711 0.311711
0.395056 0.395056 0.395056
0.476570 0.476570 0.476570
0.244266 0.244266 0.244266
0.248051 0.248051 0.248051
0.267308 0.267308 0.267308
0.315190 0.315190 0.315190
0.344366 0.344366 0.344366
0.397406 0.397406 0.397406
0.458991 0.458991 0.458991
0.529992 0.529992 0.529992
0.380438 0.380438 0.380438
0.383612 0.383612 0.383612
0.395239 0.395239 0.395239
0.417609 0.417609 0.417609
0.449012 0.449012 0.449012
0.490639 0.490608 0.490608
0.544488 0.544488 0.544488
0.607324 0.607324 0.607324
0.582788 0.582788 0.582788
0.584283 0.584283 0.584283
0.588495 0.588495 0.588495
0.600031 0.600031 0.600031
0.624567 0.624567 0.624567
0.645350 0.645350 0.645350
0.673518 0.673518 0.673518
0.699306 0.699306 0.699306
0.734554 0.734554 0.734554
0.734585 0.734585 0.734585
0.736690 0.736690 0.736690
0.745724 0.745724 0.745724
0.760464 0.760464 0.760464
0.772457 0.772457 0.772457
0.779873 0.779873 0.779873
0.807034 0.807034 0.807034
0.845579 0.845579 0.845579
0.846006 0.846006 0.846006
0.848112 0.848112 0.848112
0.854673 0.854673 0.854673
0.862211 0.862211 0.862211
0.871061 0.871061 0.871061
0.876036 0.876036 0.876036
0.881895 0.881895 0.881895
0.183444 0.183444 0.183444
0.187198 0.187198 0.187198
0.200443 0.200443 0.200443
0.226871 0.226871 0.226871
0.270085 0.270085 0.270085
0.313207 0.313207 0.313207
0.366827 0.366827 0.366827
0.487892 0.487892 0.487892
0.196414 0.196414 0.196414
0.199374 0.199374 0.199374
0.211582 0.211582 0.211582
0.237186 0.237186 0.237186
0.277043 0.277043 0.277043
0.318944 0.318944 0.318944
0.372320 0.372320 0.372320
0.491005 0.491005 0.491005
0.252049 0.252049 0.252049
0.254734 0.254734 0.254734
0.266575 0.266575 0.266575
0.287419 0.287419 0.287419
0.322240 0.322240 0.322240
0.360754 0.360754 0.360754
0.414252 0.414252 0.414252
0.524254 0.524254 0.524254
0.315831 0.315831 0.315831
0.322820 0.322820 0.322820
0.353735 0.353735 0.353735
0.376440 0.376440 0.376440
0.407324 0.407324 0.407324
0.440528 0.440528 0.440528
0.493599 0.493599 0.493599
0.579858 0.579858 0.579858
0.401678 0.401678 0.401678
0.404303 0.404303 0.404303
0.415778 0.415778 0.415778
0.438239 0.438239 0.438239
0.492866 0.492866 0.492866
0.520470 0.520470 0.520470
0.569055 0.569055 0.569055
0.623682 0.623682 0.623682
0.540856 0.540856 0.540856
0.544213 0.544213 0.544213
0.550866 0.550866 0.550866
0.563836 0.563836 0.563836
0.583124 0.583124 0.583124
0.613611 0.613611 0.613611
0.650813 0.650813 0.650813
0.693294 0.693294 0.693294
0.715175 0.715175 0.715175
0.716732 0.716732 0.716732
0.720027 0.720027 0.720027
0.726772 0.726772 0.726772
0.737667 0.737667 0.737667
0.756741 0.756741 0.756741
0.768917 0.768917 0.768917
0.793393 0.793393 0.793393
0.834958 0.834958 0.834958
0.834989 0.834989 0.834989
0.836667 0.836667 0.836667
0.841489 0.841489 0.841489
0.849210 0.849210 0.849210
0.861112 0.861112 0.861112
0.871061 0.871061 0.871061
0.877317 0.877317 0.877317
0.270512 0.270512 0.270512
0.274174 0.274174 0.274174
0.287633 0.287633 0.287633
0.313603 0.313603 0.313603
0.350988 0.350988 0.350988
0.399481 0.399481 0.399481
0.443091 0.443091 0.443091
0.487068 0.487068 0.487068
0.282689 0.282689 0.282689
0.286320 0.286320 0.286320
0.298680 0.298680 0.298680
0.322545 0.322545 0.322545
0.358434 0.358434 0.358434
0.404852 0.404852 0.404852
0.446876 0.446876 0.446876
0.490120 0.490120 0.490120
0.332799 0.332799 0.332799
0.335271 0.335271 0.335271
0.345556 0.345556 0.345556
0.366461 0.366461 0.366461
0.398047 0.398047 0.398047
0.440681 0.440681 0.440681
0.481117 0.481117 0.481117
0.525322 0.525322 0.525322
0.412146 0.412146 0.412146
0.413458 0.413458 0.413458
0.421698 0.421698 0.421698
0.439857 0.439857 0.439857
0.466896 0.466896 0.466896
0.503838 0.503838 0.503838
0.538018 0.538018 0.538018
0.578759 0.578759 0.578759
0.445441 0.445441 0.445441
0.450568 0.450568 0.450568
0.473823 0.473823 0.473823
0.517754 0.517754 0.517754
0.544152 0.544152 0.544152
0.571008 0.571008 0.571008
0.598260 0.598260 0.598260
0.640162 0.640162 0.640162
0.569329 0.569329 0.569329
0.570733 0.570733 0.570733
0.576165 0.576165 0.576165
0.586358 0.586358 0.586358
0.601953 0.601953 0.601953
0.646540 0.646540 0.646540
0.669093 0.669093 0.669093
0.706996 0.706996 0.706996
0.680842 0.680842 0.680842
0.681971 0.681971 0.681971
0.685389 0.685389 0.685389
0.692470 0.692470 0.692470
0.703365 0.703365 0.703365
0.719203 0.719203 0.719203
0.741299 0.741299 0.741299
0.771359 0.771359 0.771359
0.818357 0.818357 0.818357
0.818936 0.818936 0.818936
0.821744 0.821744 0.821744
0.826535 0.826535 0.826535
0.833860 0.833860 0.833860
0.844297 0.844297 0.844297
0.860349 0.860349 0.860349
0.870298 0.870298 0.870298
0.414466 0.414466 0.414466
0.417609 0.417609 0.417609
0.428290 0.428290 0.428290
0.450782 0.450782 0.450782
0.483680 0.483680 0.483680
0.524559 0.524559 0.524559
0.569879 0.569879 0.569879
0.602197 0.602197 0.602197
0.423102 0.423102 0.423102
0.426154 0.426154 0.426154
0.436866 0.436866 0.436866
0.458106 0.458106 0.458106
0.489967 0.489967 0.489967
0.529534 0.529534 0.529534
0.572992 0.572992 0.572992
0.604425 0.604425 0.604425
0.460853 0.460853 0.460853
0.463172 0.463172 0.463172
0.472267 0.472267 0.472267
0.492592 0.492592 0.492592
0.519829 0.519829 0.519829
0.553521 0.553521 0.553521
0.592523 0.592523 0.592523
0.621332 0.621332 0.621332
0.520134 0.520134 0.520134
0.522271 0.522271 0.522271
0.529656 0.529656 0.529656
0.544823 0.544823 0.544823
0.566644 0.566644 0.566644
0.594354 0.594354 0.594354
0.626917 0.626917 0.626917
0.651301 0.651301 0.651301
0.566674 0.566674 0.566674
0.570855 0.570855 0.570855
0.586084 0.586084 0.586084
0.601831 0.601831 0.601831
0.618524 0.618524 0.618524
0.639918 0.639918 0.639918
0.665736 0.665736 0.665736
0.687861 0.687861 0.687861
0.606531 0.606531 0.606531
0.606592 0.606592 0.606592
0.607935 0.607935 0.607935
0.628260 0.628260 0.628260
0.665888 0.665888 0.665888
0.691676 0.691676 0.691676
0.714870 0.714870 0.714870
0.736019 0.736019 0.736019
0.713893 0.713863 0.713863
0.714229 0.714229 0.714229
0.715785 0.715785 0.715785
0.719600 0.719600 0.719600
0.725856 0.725856 0.725856
0.735286 0.735286 0.735286
0.771237 0.771237 0.771237
0.790311 0.790311 0.790311
0.800107 0.800107 0.800107
0.800443 0.800443 0.800443
0.802182 0.802182 0.802182
0.806119 0.806119 0.806119
0.812284 0.812284 0.812284
0.821195 0.821195 0.821195
0.833860 0.833860 0.833860
0.851743 0.851743 0.851743
