luts/旅拍胶片05.cube
# Created by Adobe Lightroom plugin Export LUT (1.24.0)
# www.johnrellis.com/lightroom/exportlut.htm
# Preset: 旅拍胶片-素材江湖05
# Color profile: E:\lut插件\exportlut.1.24\exportlut.lrplugin\color profiles\Rec709gamma2.4.icc
LUT_3D_SIZE 5
DOMAIN_MIN 0.000000 0.000000 0.000000
DOMAIN_MAX 0.903226 0.903226 0.903226
0.058839 0.056916 0.040772
0.137545 0.072694 0.045686
0.437842 0.000000 0.014679
0.803983 0.000000 0.000000
0.995514 0.157412 0.000000
0.081941 0.120150 0.063874
0.134890 0.128145 0.045747
0.440803 0.135622 0.000000
0.799008 0.139895 0.000000
0.993439 0.253635 0.000000
0.000000 0.365026 0.062593
0.174075 0.354589 0.097200
0.429816 0.404517 0.000000
0.782559 0.431281 0.000000
0.973846 0.451453 0.000000
0.237736 0.682643 0.244419
0.317571 0.678248 0.257725
0.478645 0.673243 0.254612
0.700984 0.696651 0.000000
0.925719 0.679866 0.000000
0.545830 0.855100 0.578302
0.565454 0.853422 0.584222
0.627497 0.843961 0.599237
0.710933 0.849882 0.542046
0.865537 0.858030 0.309148
0.045838 0.067659 0.129610
0.141390 0.063172 0.121920
0.391943 0.000000 0.113222
0.753475 0.000000 0.120821
0.970428 0.221469 0.127230
0.057374 0.134188 0.119783
0.147433 0.139254 0.125216
0.398474 0.150271 0.127321
0.756588 0.172793 0.115358
0.968139 0.289006 0.127565
0.000000 0.372473 0.160433
0.197482 0.364202 0.171420
0.416175 0.387243 0.095033
0.760342 0.421912 0.030396
0.958160 0.470649 0.145083
0.279118 0.682887 0.316991
0.346807 0.679103 0.327428
0.497322 0.668940 0.345037
0.697108 0.691920 0.110018
0.918303 0.682887 0.118990
0.553429 0.854826 0.605921
0.571984 0.853086 0.610773
0.637659 0.847013 0.633082
0.715694 0.850187 0.590570
0.863493 0.858946 0.393530
0.000000 0.090517 0.469917
0.000000 0.060700 0.454627
0.448463 0.000000 0.400916
0.746456 0.000000 0.381048
0.946410 0.235142 0.363561
0.000000 0.202335 0.432532
0.000000 0.175204 0.424140
0.445960 0.116121 0.390173
0.736080 0.171023 0.376867
0.926543 0.373632 0.402991
0.000000 0.429114 0.393500
0.000000 0.426978 0.391608
0.471504 0.445747 0.415930
0.712215 0.467201 0.409277
0.906188 0.539727 0.450141
0.214817 0.693904 0.457710
0.325261 0.689479 0.469581
0.531487 0.678248 0.522942
0.685084 0.687282 0.451392
0.887541 0.700099 0.482887
0.558618 0.855619 0.679835
0.577691 0.854276 0.683864
0.642542 0.848600 0.698787
0.720058 0.844724 0.699519
0.847135 0.854734 0.570825
0.000000 0.142611 0.806668
0.000000 0.134524 0.802548
0.392706 0.000000 0.785458
0.742397 0.000000 0.743862
0.914702 0.325933 0.694484
0.000000 0.254582 0.792020
0.000000 0.250797 0.788022
0.412940 0.220188 0.772213
0.734066 0.172091 0.732876
0.901274 0.396674 0.694759
0.000000 0.523186 0.759213
0.114168 0.523033 0.754025
0.454108 0.498787 0.740505
0.704921 0.471046 0.709133
0.866728 0.565087 0.699153
0.000000 0.723079 0.723262
0.000000 0.720058 0.720668
0.446540 0.713313 0.716030
0.682673 0.717250 0.725734
0.838499 0.726192 0.716670
0.396063 0.867460 0.734768
0.443275 0.865812 0.739101
0.580560 0.860197 0.757931
0.726741 0.849668 0.793973
0.825803 0.852659 0.747707
0.000000 0.299107 0.941955
0.000000 0.299992 0.940703
0.397894 0.300359 0.936095
0.682704 0.287449 0.927001
0.899474 0.345220 0.908019
0.000000 0.388922 0.936187
0.000000 0.388861 0.935149
0.435035 0.386267 0.930846
0.685908 0.372290 0.922301
0.892241 0.409064 0.904143
0.361975 0.622248 0.918578
0.426368 0.630365 0.916289
0.513573 0.598901 0.914824
0.688197 0.576654 0.907927
0.868132 0.573175 0.893645
0.340459 0.761501 0.904021
0.393988 0.762112 0.903075
0.544396 0.766171 0.900359
0.686091 0.751858 0.895750
0.839017 0.733822 0.884367
0.287663 0.880919 0.888304
0.347845 0.879667 0.887785
0.506767 0.875578 0.886290
0.672114 0.868589 0.883452
0.824155 0.863828 0.883177
