luts/旅拍胶片02.cube
# Created by Adobe Lightroom plugin Export LUT (1.24.0)
# www.johnrellis.com/lightroom/exportlut.htm
# Preset: 旅拍胶片-素材江湖02
# Color profile: E:\lut插件\exportlut.1.24\exportlut.lrplugin\color profiles\Rec709gamma2.4.icc
LUT_3D_SIZE 32
DOMAIN_MIN 0.0 0.0 0.0
DOMAIN_MAX 1.0 1.0 1.0
0.000000 0.000000 0.000000
0.000000 0.000000 0.000000
0.000000 0.000000 0.000000
0.003265 0.000763 0.000000
0.025238 0.003876 0.000122
0.074464 0.008423 0.000000
0.100862 0.022248 0.000000
0.122347 0.038209 0.000000
0.151675 0.048219 0.000000
0.189548 0.050721 0.000000
0.235874 0.039277 0.000000
0.291081 0.012207 0.002136
0.354467 0.000000 0.003449
0.422919 0.000000 0.000763
0.492866 0.000000 0.000000
0.560937 0.000000 0.000000
0.623713 0.000000 0.000000
0.681056 0.000000 0.000000
0.741146 0.000000 0.000000
0.791653 0.000000 0.000000
0.834440 0.000000 0.000000
0.871214 0.000000 0.000000
0.902708 0.000000 0.000000
0.931090 0.000000 0.000000
0.956847 0.104341 0.000000
0.980377 0.167361 0.000000
1.000000 0.214084 0.000000
1.000000 0.254734 0.021118
1.000000 0.292699 0.090700
1.000000 0.329320 0.125521
1.000000 0.365332 0.159426
1.000000 0.401221 0.194095
0.000000 0.000000 0.000000
0.000000 0.000000 0.000000
0.000000 0.000000 0.000000
0.005249 0.000519 0.000000
0.025238 0.003876 0.000122
0.073457 0.009644 0.000000
0.100008 0.023682 0.000000
0.121370 0.038666 0.000000
0.150057 0.050294 0.000000
0.187503 0.051301 0.000000
0.232822 0.041657 0.000244
0.287480 0.016602 0.001343
0.350103 0.000000 0.004059
0.417853 0.000000 0.001556
0.487709 0.000000 0.000000
0.555932 0.000000 0.000000
0.619165 0.000000 0.000000
0.676936 0.000000 0.000000
0.736416 0.000000 0.000000
0.786587 0.000000 0.000000
0.829252 0.000000 0.000000
0.865965 0.000000 0.000000
0.897612 0.000000 0.000000
0.926207 0.000000 0.000000
0.952270 0.090394 0.000000
0.976104 0.159091 0.000000
0.998138 0.207187 0.000000
1.000000 0.248661 0.008301
1.000000 0.287175 0.082795
1.000000 0.324041 0.119600
1.000000 0.360388 0.154147
1.000000 0.396429 0.188571
0.000000 0.001190 0.000000
0.000000 0.001190 0.000000
0.001282 0.000977 0.000000
0.004547 0.001740 0.000000
0.027070 0.007019 0.000000
0.071595 0.015412 0.000000
0.098390 0.030884 0.000000
0.120394 0.044678 0.000000
0.148562 0.056764 0.000000
0.185580 0.058442 0.000000
0.230686 0.051850 0.000397
0.284581 0.027619 0.002869
0.346624 0.000000 0.004395
0.413916 0.000000 0.003143
0.483375 0.000000 0.000000
0.551843 0.000000 0.000000
0.615045 0.000000 0.000000
0.674311 0.000000 0.000000
0.732631 0.000000 0.000000
0.782712 0.000000 0.000000
0.825528 0.000000 0.000000
0.862394 0.000000 0.000000
0.894377 0.000000 0.000000
0.923186 0.000000 0.000000
0.949432 0.096590 0.000000
0.973510 0.160708 0.000000
0.995758 0.208011 0.000000
1.000000 0.248905 0.003357
1.000000 0.286931 0.077668
1.000000 0.323766 0.117556
1.000000 0.359625 0.151461
1.000000 0.395544 0.186282
0.000824 0.004364 0.000519
0.000824 0.004364 0.000519
0.002808 0.004150 0.000519
0.006653 0.007080 0.000031
0.026764 0.015961 0.000702
0.069429 0.027985 0.000000
0.097658 0.043458 0.000000
0.118776 0.057679 0.000000
0.147097 0.068788 0.000000
0.183566 0.072328 0.000916
0.228489 0.067628 0.002075
0.281773 0.047333 0.005432
0.342931 0.004852 0.005615
0.409613 0.000000 0.004181
0.478553 0.000000 0.000000
0.546258 0.000000 0.000000
0.609705 0.000000 0.000000
0.669368 0.000000 0.000000
0.726406 0.000000 0.000000
0.775540 0.000000 0.000000
0.818296 0.000000 0.000000
0.855375 0.000000 0.000000
0.887938 0.000000 0.000000
0.917754 0.000000 0.000000
0.945037 0.111330 0.000000
0.970062 0.169131 0.000000
0.993164 0.214389 0.000000
1.000000 0.254215 0.002716
1.000000 0.291539 0.078187
1.000000 0.327611 0.117647
1.000000 0.362737 0.151431
1.000000 0.397528 0.185489
0.002869 0.020844 0.002747
0.002869 0.020844 0.002747
0.006134 0.021576 0.002594
0.014923 0.025055 0.003082
0.026551 0.030488 0.002106
0.057008 0.043824 0.001953
0.093263 0.059297 0.002228
0.116732 0.075257 0.000824
0.144961 0.082795 0.001465
0.180331 0.087190 0.004242
0.224277 0.086885 0.007416
0.276585 0.078920 0.007996
0.336706 0.045716 0.008881
0.403021 0.000000 0.007172
0.471138 0.000000 0.001923
0.539788 0.000000 0.000000
0.603723 0.000000 0.000000
0.665583 0.000000 0.000000
0.721798 0.000000 0.000000
0.770748 0.000000 0.000000
0.813474 0.000000 0.000000
0.850828 0.000000 0.000000
0.883848 0.000000 0.000000
0.914122 0.046906 0.000000
0.941924 0.139071 0.000000
0.967498 0.186587 0.000000
0.990967 0.226932 0.000000
1.000000 0.264256 0.003540
1.000000 0.299748 0.078065
1.000000 0.334203 0.118135
1.000000 0.368048 0.151736
1.000000 0.401984 0.185489
0.007141 0.050385 0.007691
0.008820 0.050141 0.008820
0.014069 0.050690 0.008637
0.023957 0.051759 0.010559
0.035309 0.057160 0.010712
0.052888 0.061921 0.009735
0.085451 0.076783 0.009247
0.109499 0.088624 0.009827
0.140536 0.094759 0.008392
0.178042 0.098878 0.010376
0.221592 0.100862 0.011719
0.273228 0.098787 0.014038
0.333043 0.090394 0.012787
0.398688 0.052003 0.009949
0.466835 0.000000 0.003449
0.535363 0.000000 0.000000
0.599939 0.000000 0.000000
0.663783 0.000000 0.000000
0.719509 0.000000 0.000000
0.768399 0.000000 0.000000
0.810941 0.000000 0.000000
0.848508 0.000000 0.000000
0.907378 0.131289 0.000000
0.935515 0.173434 0.000000
0.960967 0.210452 0.000000
0.984222 0.244511 0.000000
1.000000 0.276921 0.007782
1.000000 0.308324 0.080446
1.000000 0.339422 0.117403
1.000000 0.370123 0.148531
1.000000 0.400977 0.180148
1.000000 0.431830 0.212589
0.022004 0.082490 0.022980
0.021271 0.083223 0.022827
0.025940 0.083558 0.024933
0.035828 0.084230 0.026856
0.048585 0.086091 0.027314
0.065461 0.089021 0.026184
0.082795 0.091554 0.024872
0.102998 0.097780 0.024842
0.133394 0.106325 0.024537
0.174105 0.113710 0.022217
0.225315 0.118563 0.019562
0.279728 0.119570 0.019532
0.340429 0.115724 0.016297
0.406531 0.105287 0.012116
0.474586 0.086885 0.001556
0.542168 0.028840 0.000000
0.609918 0.000000 0.000000
0.673091 0.000000 0.000000
0.728267 0.000000 0.000000
0.777005 0.000000 0.000000
0.820584 0.078676 0.000000
0.859098 0.125338 0.000000
0.893645 0.163058 0.000000
0.924895 0.198184 0.000000
0.952880 0.230900 0.000000
0.977569 0.262211 0.000000
0.999695 0.291691 0.006622
1.000000 0.320714 0.078523
1.000000 0.349676 0.115908
1.000000 0.378454 0.147158
1.000000 0.407721 0.178561
1.000000 0.437476 0.211307
0.031708 0.099702 0.040772
0.031708 0.099702 0.040772
0.036652 0.099886 0.041749
0.046967 0.099825 0.044953
0.059815 0.100404 0.047852
0.075990 0.102693 0.046540
0.089570 0.105745 0.043641
0.099275 0.107851 0.042145
0.120699 0.114900 0.040650
0.158114 0.125521 0.038148
0.206577 0.134676 0.033783
0.266361 0.140414 0.028290
0.334630 0.141085 0.020111
0.399573 0.138216 0.012726
0.467201 0.131441 0.001373
0.535393 0.123018 0.000000
0.604639 0.115785 0.000000
0.665736 0.113741 0.000000
0.720150 0.119173 0.000000
0.768734 0.133608 0.000000
0.812039 0.153079 0.000000
0.850767 0.176944 0.000000
0.885863 0.203128 0.000000
0.917571 0.230381 0.000000
0.946166 0.257908 0.000000
0.971496 0.284916 0.000000
0.994202 0.311376 0.006928
1.000000 0.337407 0.081300
1.000000 0.364263 0.117494
1.000000 0.391363 0.149172
1.000000 0.418921 0.180575
1.000000 0.447242 0.212772
0.035645 0.117891 0.059266
0.037659 0.117830 0.059266
0.042603 0.117952 0.060212
0.050507 0.118288 0.062135
0.067048 0.118624 0.066163
0.083589 0.120333 0.065980
0.094392 0.123262 0.063905
0.105898 0.126345 0.060334
0.118746 0.128542 0.058137
0.143130 0.135988 0.054841
0.188754 0.148775 0.048432
0.245151 0.159640 0.041444
0.313115 0.166812 0.028565
0.389014 0.169558 0.013458
0.462226 0.169375 0.000000
0.534051 0.169711 0.000000
0.600458 0.170230 0.000000
0.659968 0.172854 0.000000
0.713680 0.179324 0.000000
0.761868 0.189975 0.000000
0.804990 0.204929 0.000000
0.843748 0.222507 0.000000
0.879057 0.242496 0.000000
0.911131 0.264744 0.000000
0.940063 0.288182 0.000000
0.965972 0.311254 0.000000
0.989075 0.334752 0.016114
1.000000 0.358556 0.089357
1.000000 0.383032 0.122713
1.000000 0.408057 0.153902
1.000000 0.433722 0.184360
1.000000 0.460304 0.216464
0.032837 0.140719 0.077272
0.034852 0.140658 0.077272
0.042084 0.140719 0.077089
0.053254 0.141146 0.078584
0.073365 0.141573 0.080262
0.091096 0.142031 0.082521
0.101350 0.144442 0.081117
0.113313 0.147677 0.078492
0.127932 0.151675 0.072419
0.143496 0.153262 0.068666
0.170626 0.160311 0.064607
0.223087 0.175418 0.054810
0.287236 0.188205 0.039582
0.362310 0.198062 0.021729
0.445319 0.206088 0.000000
0.528496 0.211276 0.000000
0.595819 0.215549 0.000000
0.655085 0.220798 0.000000
0.708278 0.228428 0.000000
0.756283 0.238193 0.000000
0.798795 0.250309 0.000000
0.836881 0.264103 0.000000
0.871580 0.280064 0.000000
0.903319 0.297948 0.000000
0.932128 0.317082 0.000000
0.958373 0.336858 0.000000
0.981994 0.357702 0.021820
1.000000 0.379248 0.092317
1.000000 0.401831 0.125917
1.000000 0.425422 0.157656
1.000000 0.449622 0.188937
1.000000 0.474983 0.220890
0.028260 0.167758 0.086580
0.029511 0.167910 0.086458
0.037751 0.168124 0.086976
0.052888 0.168368 0.087984
0.078187 0.168795 0.088930
0.095979 0.169680 0.090455
0.110201 0.171115 0.090913
0.122652 0.174411 0.088624
0.138186 0.178073 0.085512
0.157137 0.182254 0.080415
0.174929 0.183352 0.076295
0.203891 0.189517 0.070466
0.265843 0.207950 0.053925
0.339391 0.224186 0.031403
0.419715 0.237675 0.003662
0.501915 0.248692 0.000000
0.580499 0.257206 0.000000
0.649409 0.264439 0.000000
0.701930 0.272313 0.000000
0.749264 0.281498 0.000000
0.791562 0.291783 0.000000
0.829587 0.303593 0.000000
0.864500 0.317327 0.000000
0.896574 0.332616 0.000000
0.925780 0.349187 0.000000
0.952300 0.366613 0.000000
0.976318 0.385290 0.040375
0.998383 0.404517 0.100801
1.000000 0.424933 0.133974
1.000000 0.446601 0.165408
1.000000 0.469032 0.195956
1.000000 0.492653 0.228000
0.016724 0.201419 0.092073
0.018402 0.201389 0.092500
0.028626 0.201541 0.092805
0.049012 0.201785 0.093385
0.080446 0.202426 0.094484
0.101076 0.202945 0.096284
0.119997 0.204044 0.098146
0.135195 0.206912 0.096559
0.151553 0.210422 0.093843
0.170413 0.214603 0.089906
0.193088 0.219791 0.083192
0.215457 0.221408 0.078950
0.264073 0.239597 0.070069
0.337072 0.261265 0.040772
0.418799 0.280674 0.006073
0.502953 0.297429 0.000000
0.581537 0.310887 0.000000
0.652277 0.322057 0.000000
0.714870 0.332372 0.000000
0.765133 0.341741 0.000000
0.805112 0.350896 0.000000
0.841032 0.360723 0.000000
0.873960 0.372107 0.000000
0.904173 0.384741 0.000000
0.931701 0.398352 0.000000
0.956725 0.412634 0.037873
0.979370 0.427924 0.100526
1.000000 0.444007 0.130892
1.000000 0.461341 0.159640
1.000000 0.479805 0.187930
1.000000 0.499489 0.217472
1.000000 0.520775 0.248631
0.000000 0.245945 0.098665
0.000000 0.246036 0.098604
0.008606 0.246006 0.098939
0.036378 0.245914 0.099519
0.079652 0.246067 0.100618
0.106233 0.246281 0.102266
0.129763 0.246738 0.104341
0.151919 0.248081 0.105806
0.170169 0.253056 0.102144
0.192081 0.258824 0.097871
0.217411 0.265263 0.091981
0.246983 0.272038 0.083497
0.273747 0.273167 0.076417
0.310643 0.278050 0.064912
0.384741 0.300359 0.028992
0.467720 0.321447 0.000000
0.547417 0.338811 0.000000
0.619684 0.352819 0.000000
0.684169 0.365148 0.000000
0.741207 0.376013 0.000000
0.791470 0.385687 0.000000
0.829618 0.394751 0.000000
0.863157 0.404547 0.000000
0.894011 0.415595 0.000000
0.922271 0.427558 0.000000
0.948058 0.440345 0.060334
0.971435 0.454200 0.109102
0.992828 0.468849 0.138857
1.000000 0.484779 0.167910
1.000000 0.501884 0.196475
1.000000 0.520317 0.226017
1.000000 0.540246 0.257420
0.000000 0.289677 0.103487
0.000000 0.289708 0.103792
0.000000 0.289464 0.104158
0.031067 0.289738 0.105165
0.083589 0.290257 0.105898
0.113558 0.290929 0.108064
0.141024 0.291722 0.110536
0.169345 0.293309 0.113558
0.191623 0.296391 0.111391
0.213413 0.301030 0.106844
0.238743 0.306340 0.100710
0.267460 0.312352 0.093324
0.299626 0.318364 0.080537
0.326116 0.317357 0.069520
0.360967 0.319280 0.059388
0.433021 0.340703 0.017304
0.512932 0.362005 0.000000
0.586725 0.379095 0.000000
0.653376 0.393683 0.000000
0.712673 0.406348 0.000000
0.765225 0.417334 0.000000
0.812375 0.427924 0.000000
0.853727 0.438025 0.000000
0.885222 0.447791 0.000000
0.913939 0.458503 0.008515
0.940276 0.469947 0.087800
0.964141 0.482338 0.121798
0.985992 0.495583 0.150454
1.000000 0.510002 0.178286
1.000000 0.525780 0.207523
1.000000 0.542809 0.236637
1.000000 0.561273 0.267918
0.000000 0.339971 0.110628
0.000000 0.339971 0.110628
0.008362 0.339513 0.110750
0.052155 0.339300 0.111940
0.100008 0.338994 0.113313
0.129549 0.338903 0.114900
0.158938 0.339055 0.117617
0.188785 0.339910 0.120455
0.218967 0.341375 0.123415
0.239780 0.344884 0.118410
0.264317 0.349432 0.111971
0.291661 0.354742 0.104250
0.322026 0.359747 0.094697
0.354498 0.364874 0.079103
0.379614 0.361852 0.065675
0.411383 0.360937 0.053803
0.479164 0.380957 0.007294
0.554223 0.401495 0.000000
0.622522 0.418494 0.000000
0.683864 0.433173 0.000000
0.738582 0.446021 0.000000
0.788113 0.457801 0.000000
0.832670 0.468879 0.000000
0.872679 0.479561 0.000000
0.905730 0.489631 0.043671
0.932403 0.499977 0.104036
0.956878 0.511162 0.135470
0.979278 0.523400 0.163851
0.999786 0.536919 0.192355
1.000000 0.551690 0.221317
1.000000 0.568017 0.251835
1.000000 0.585657 0.283970
0.050294 0.388251 0.119417
0.058503 0.388312 0.119631
0.084474 0.388159 0.119600
0.105776 0.388159 0.120455
0.129580 0.387915 0.122133
0.156710 0.387945 0.124208
0.185580 0.388342 0.126833
0.216037 0.389136 0.130404
0.247837 0.390234 0.134554
0.273686 0.392615 0.133822
0.296147 0.395911 0.127871
0.321202 0.399695 0.120241
0.348547 0.403418 0.110445
0.377630 0.406836 0.099001
0.408423 0.409918 0.080323
0.431067 0.404486 0.066346
0.459144 0.400916 0.054231
0.520439 0.418555 0.009339
0.590387 0.438422 0.000000
0.653681 0.455573 0.000000
0.711299 0.470802 0.000000
0.763485 0.484443 0.000000
0.810300 0.497017 0.000000
0.852537 0.508690 0.034791
0.890288 0.519890 0.094789
0.924010 0.530846 0.123629
0.950286 0.541344 0.152773
0.972992 0.552514 0.180362
0.993744 0.564782 0.208377
1.000000 0.578210 0.237186
1.000000 0.592889 0.267185
1.000000 0.609064 0.299290
0.124208 0.435157 0.130678
0.126253 0.435065 0.130678
0.134401 0.434943 0.131380
0.147707 0.434913 0.132143
0.167117 0.434791 0.133944
0.190280 0.434760 0.135958
0.216678 0.434852 0.138796
0.245212 0.435401 0.142336
0.275761 0.436103 0.147127
0.307317 0.437079 0.152102
0.327947 0.439612 0.146456
0.350896 0.442481 0.139040
0.375860 0.445594 0.130220
0.402625 0.448280 0.119844
0.430671 0.450629 0.106844
0.459876 0.452644 0.090059
0.480323 0.446021 0.079255
0.504723 0.440162 0.071290
0.559258 0.455543 0.030426
0.624445 0.475196 0.008057
0.684413 0.492805 0.002502
0.738643 0.508537 0.014862
0.787716 0.522606 0.051911
0.832090 0.535576 0.094514
0.871641 0.547601 0.119570
0.907073 0.559197 0.145663
0.938811 0.570367 0.172366
0.966552 0.581506 0.198703
0.987488 0.592737 0.226383
1.000000 0.605188 0.254887
1.000000 0.618799 0.285161
1.000000 0.633692 0.317266
0.177249 0.481270 0.147982
0.179019 0.481544 0.147738
0.200717 0.495949 0.155581
0.211185 0.495766 0.157015
0.226291 0.495521 0.158633
0.244999 0.495155 0.160372
0.267704 0.495003 0.163363
0.293706 0.494850 0.167147
0.321569 0.495033 0.171756
0.351568 0.495399 0.177340
0.377325 0.496437 0.178347
0.397559 0.498268 0.171542
0.419379 0.499916 0.163302
0.442603 0.501213 0.153811
0.467079 0.502190 0.142061
0.492775 0.503014 0.128786
0.519097 0.503288 0.112520
0.536461 0.494789 0.104433
0.556512 0.486397 0.100618
0.603601 0.499001 0.086793
0.664027 0.518303 0.085573
0.719539 0.535515 0.094484
0.769528 0.550805 0.109163
0.814878 0.564508 0.128420
0.855375 0.576745 0.149050
0.891722 0.588220 0.171695
0.924193 0.599023 0.195071
0.953155 0.609735 0.220066
0.978820 0.620752 0.246311
1.000000 0.632105 0.274601
1.000000 0.644434 0.304295
1.000000 0.658106 0.336248
0.232761 0.528527 0.172671
0.235386 0.529808 0.173800
0.241276 0.531090 0.174990
0.250706 0.532189 0.176333
0.264347 0.532860 0.178775
0.280980 0.533013 0.181003
0.301122 0.532738 0.183597
0.323827 0.532433 0.187198
0.349096 0.532372 0.191409
0.376410 0.532341 0.196689
0.405402 0.532586 0.202976
0.424842 0.533776 0.198489
0.444129 0.535088 0.191104
0.465003 0.536278 0.182559
0.487037 0.537163 0.172885
0.510430 0.537957 0.161440
0.534600 0.538567 0.148409
0.559686 0.539086 0.133242
0.576104 0.530755 0.126162
0.594079 0.522026 0.123354
0.636072 0.533379 0.114382
0.693599 0.553155 0.121401
0.745998 0.570428 0.133181
0.793149 0.585809 0.150027
0.835538 0.599420 0.169741
0.873533 0.611688 0.190768
0.907500 0.623194 0.213657
0.937835 0.634272 0.238193
0.964813 0.645380 0.264714
0.988800 0.656825 0.292943
1.000000 0.668696 0.323033
1.000000 0.681086 0.354498
0.278508 0.566796 0.197024
0.281010 0.568109 0.198032
0.286290 0.569421 0.199619
0.294438 0.570520 0.201358
0.305913 0.571313 0.203647
0.320287 0.571374 0.205814
0.337713 0.571160 0.208347
0.357946 0.570794 0.211673
0.380499 0.570520 0.215824
0.405127 0.570306 0.220645
0.431464 0.570336 0.225864
0.455482 0.570611 0.228855
0.472389 0.571679 0.222232
0.490974 0.572778 0.215000
0.510735 0.573724 0.206302
0.531609 0.574456 0.196323
0.553399 0.575067 0.185611
0.576379 0.575647 0.173251
0.600305 0.576379 0.159091
0.615473 0.568048 0.152621
0.631373 0.558679 0.149508
0.668452 0.568475 0.144015
0.722438 0.587823 0.155062
0.771572 0.605005 0.170779
0.815702 0.620050 0.188998
0.855314 0.633509 0.210178
0.890745 0.645808 0.232395
0.922515 0.657343 0.256809
0.950683 0.668818 0.283482
0.975799 0.680293 0.311925
0.998016 0.691951 0.341924
1.000000 0.703792 0.373449
0.324529 0.604883 0.224979
0.326452 0.606043 0.226078
0.331090 0.607141 0.227665
0.337957 0.608118 0.229343
0.347601 0.608759 0.231540
0.360296 0.608698 0.233494
0.375158 0.608606 0.236027
0.392798 0.608240 0.238926
0.413031 0.608087 0.243046
0.435065 0.607721 0.247227
0.458778 0.607660 0.252842
0.483711 0.607568 0.258885
0.501610 0.608240 0.256260
0.517998 0.609094 0.249454
0.535424 0.610040 0.241825
0.554376 0.610895 0.233524
0.574426 0.611902 0.224460
0.595697 0.613092 0.214542
0.618097 0.614405 0.203799
0.641596 0.616022 0.192050
0.656641 0.608789 0.187076
0.671473 0.599756 0.184756
0.706172 0.609125 0.182864
0.754940 0.627466 0.197635
0.800839 0.644617 0.216892
0.841978 0.659632 0.238560
0.878569 0.673060 0.261967
0.911192 0.685542 0.287541
0.940154 0.697414 0.315007
0.965881 0.709041 0.344182
0.988647 0.720516 0.374304
1.000000 0.731930 0.406195
0.378393 0.648768 0.263706
0.379736 0.649134 0.264042
0.382605 0.649409 0.264866
0.387427 0.649500 0.265904
0.394995 0.649378 0.267002
0.404974 0.649042 0.268956
0.417548 0.648646 0.271092
0.432715 0.648188 0.273808
0.450141 0.647883 0.277134
0.469795 0.647578 0.281651
0.490913 0.647547 0.286717
0.513512 0.647486 0.292607
0.534936 0.647547 0.297246
0.549096 0.648310 0.291142
0.564538 0.649042 0.284123
0.581140 0.649836 0.276616
0.598901 0.650507 0.268406
0.617762 0.651392 0.259617
0.637690 0.652277 0.250034
0.658656 0.653376 0.239994
0.680354 0.654566 0.228977
0.693812 0.646937 0.223331
0.706477 0.637049 0.220066
0.737881 0.644923 0.219913
0.781155 0.661067 0.235233
0.823880 0.677516 0.257023
0.862058 0.692164 0.280583
0.896117 0.705562 0.307012
0.926360 0.718013 0.334630
0.953246 0.729824 0.363745
0.976898 0.741238 0.394324
0.997681 0.752377 0.426368
0.421454 0.683711 0.298466
0.422217 0.684077 0.298924
0.424598 0.684352 0.299931
0.429023 0.684474 0.300908
0.435340 0.684352 0.302190
0.443793 0.684138 0.303624
0.454810 0.683711 0.305760
0.467994 0.683406 0.308202
0.483009 0.683131 0.311559
0.500694 0.682918 0.315984
0.519493 0.682795 0.320806
0.539605 0.682795 0.326757
0.560784 0.682734 0.332738
0.577142 0.683223 0.332158
0.590814 0.683986 0.326360
0.605707 0.684871 0.319829
0.621668 0.685725 0.312657
0.638758 0.686732 0.305089
0.656916 0.687770 0.296849
0.675990 0.688899 0.288121
0.695979 0.690181 0.278874
0.716762 0.691585 0.269108
0.729122 0.684321 0.264286
0.740658 0.674647 0.260105
0.766384 0.678157 0.256992
0.804959 0.692317 0.272679
0.844846 0.708400 0.297368
0.880430 0.722744 0.323674
0.912078 0.735866 0.351507
0.940185 0.748104 0.381262
0.965057 0.759762 0.412634
0.986816 0.771023 0.445411
0.467536 0.720882 0.341741
0.468788 0.721462 0.342473
0.470771 0.721645 0.343328
0.473945 0.721523 0.343816
0.478889 0.721004 0.344305
0.485542 0.720302 0.345342
0.493996 0.719509 0.346349
0.504631 0.718624 0.348211
0.517357 0.717800 0.350591
0.531914 0.717098 0.353704
0.548058 0.716426 0.357366
0.565667 0.715999 0.362066
0.584375 0.715541 0.367315
0.603510 0.715145 0.372747
0.615045 0.715419 0.366949
0.627710 0.715785 0.360418
0.641718 0.716213 0.353582
0.656825 0.716884 0.346746
0.673091 0.717922 0.339727
0.690608 0.719234 0.332341
0.709041 0.720790 0.324895
0.728084 0.722225 0.316655
0.747707 0.723690 0.307774
0.758938 0.716426 0.302617
0.769619 0.707149 0.297368
0.794888 0.712032 0.299626
0.828855 0.724117 0.315160
0.865568 0.739132 0.341314
0.898375 0.752712 0.369207
0.927581 0.765225 0.398718
0.953460 0.776944 0.430396
0.976104 0.788205 0.464088
0.503990 0.750576 0.378393
0.504906 0.751034 0.379126
0.506828 0.751308 0.379980
0.509789 0.751339 0.380682
0.514305 0.751125 0.381476
0.520409 0.750851 0.382696
0.528405 0.750546 0.384466
0.538262 0.750210 0.386725
0.549859 0.749874 0.389349
0.563043 0.749691 0.393042
0.577783 0.749416 0.397009
0.593713 0.749203 0.401862
0.610651 0.748928 0.406958
0.628290 0.748592 0.412634
0.642634 0.748562 0.413214
0.653925 0.748867 0.407385
0.666194 0.749264 0.401465
0.679561 0.749874 0.395117
0.694118 0.750820 0.388891
0.709804 0.752010 0.382696
0.726528 0.753353 0.376074
0.743832 0.754879 0.369635
0.761868 0.756374 0.362341
0.780392 0.757870 0.354803
0.790738 0.751156 0.350134
0.800992 0.743099 0.345922
0.823758 0.746914 0.348821
0.853452 0.757229 0.364508
0.887327 0.771450 0.393225
0.917357 0.784268 0.423468
0.943877 0.796048 0.455940
0.967163 0.807065 0.490303
0.542809 0.781338 0.420752
0.543511 0.781582 0.421118
0.544854 0.781674 0.421576
0.547387 0.781582 0.422126
0.551141 0.781399 0.423011
0.556359 0.781094 0.424109
0.563195 0.780758 0.425574
0.571588 0.780362 0.427527
0.581659 0.780026 0.430121
0.593317 0.779721 0.433234
0.606317 0.779477 0.437079
0.620447 0.779263 0.441352
0.635645 0.779019 0.446265
0.651514 0.778775 0.451575
0.667994 0.778408 0.457435
0.678584 0.778683 0.453315
0.689479 0.779141 0.448066
0.701442 0.779721 0.442573
0.714473 0.780545 0.436896
0.728573 0.781643 0.431678
0.743557 0.783017 0.426337
0.759335 0.784421 0.420600
0.775692 0.785824 0.414527
0.792660 0.787228 0.408026
0.809964 0.788602 0.401251
0.819394 0.782315 0.396796
0.829068 0.775204 0.392889
0.849241 0.777890 0.396429
0.875181 0.786404 0.411994
0.906279 0.799741 0.443091
0.933745 0.811795 0.476570
0.957855 0.822965 0.511925
0.578882 0.808774 0.462593
0.579309 0.808957 0.463081
0.580652 0.809079 0.463569
0.582910 0.809049 0.464118
0.586481 0.809049 0.465278
0.591363 0.809140 0.466957
0.598138 0.809384 0.469429
0.606500 0.809720 0.472663
0.616358 0.810208 0.476814
0.627649 0.810788 0.481544
0.640131 0.811398 0.486946
0.653712 0.811948 0.492714
0.668055 0.812436 0.498878
0.682795 0.812772 0.505211
0.698024 0.812924 0.511650
0.711177 0.813107 0.514488
0.720851 0.813687 0.510399
0.731380 0.814359 0.505760
0.742885 0.815244 0.501457
0.755398 0.816342 0.497322
0.768704 0.817563 0.493050
0.782712 0.818906 0.488472
0.797330 0.820188 0.483650
0.812497 0.821500 0.478492
0.828061 0.822751 0.473060
0.843931 0.823941 0.467048
0.852537 0.818509 0.463294
0.861540 0.812619 0.460121
0.879026 0.814420 0.464851
0.900938 0.820951 0.480018
0.928313 0.832822 0.514458
0.952361 0.843656 0.550378
0.622950 0.839231 0.518791
0.623194 0.839231 0.518791
0.624048 0.839170 0.518975
0.625666 0.839048 0.519524
0.628443 0.838895 0.520043
0.632380 0.838682 0.521141
0.637568 0.838529 0.522728
0.644007 0.838407 0.524773
0.651850 0.838315 0.527367
0.660822 0.838224 0.530724
0.671138 0.838224 0.534569
0.682277 0.838254 0.539086
0.694392 0.838224 0.543908
0.707118 0.838193 0.549310
