luts/旅拍胶片06.cube
# Created by Adobe Lightroom plugin Export LUT (1.24.0)
# www.johnrellis.com/lightroom/exportlut.htm
# Preset: 旅拍胶片-素材江湖06
# Color profile: E:\lut插件\exportlut.1.24\exportlut.lrplugin\color profiles\Rec709gamma2.4.icc
LUT_3D_SIZE 5
DOMAIN_MIN 0.000000 0.000000 0.000000
DOMAIN_MAX 0.903226 0.903226 0.903226
0.030793 0.098268 0.075257
0.057191 0.098024 0.074830
0.365484 0.000000 0.037873
0.736110 0.000000 0.000000
1.000000 0.000000 0.000000
0.026246 0.102785 0.073426
0.052491 0.103639 0.072572
0.378943 0.120912 0.007660
0.744625 0.000000 0.000000
1.000000 0.000000 0.000000
0.000000 0.284001 0.090852
0.000000 0.272007 0.113191
0.284428 0.288701 0.089540
0.739223 0.372015 0.000000
1.000000 0.390875 0.000000
0.000000 0.573114 0.209445
0.000000 0.565667 0.225742
0.322698 0.551598 0.245731
0.558953 0.551385 0.197177
0.934661 0.660792 0.204440
0.290745 0.843870 0.413336
0.347631 0.840482 0.424231
0.485176 0.820218 0.456764
0.646357 0.819821 0.444038
0.843046 0.818082 0.398077
0.007721 0.098177 0.110506
0.088838 0.095552 0.109682
0.360876 0.000000 0.107118
0.693202 0.000000 0.103395
1.000000 0.000000 0.080659
0.000000 0.123781 0.115938
0.098878 0.123751 0.119905
0.360479 0.116060 0.117861
0.706172 0.000000 0.110689
1.000000 0.000000 0.091707
0.000000 0.320165 0.158938
0.078035 0.309056 0.174044
0.302403 0.305455 0.170321
0.729335 0.387396 0.170291
1.000000 0.419837 0.141390
0.000000 0.588281 0.263828
0.125246 0.581903 0.276768
0.358862 0.562615 0.303716
0.569268 0.561151 0.261601
0.933806 0.671809 0.288792
0.323095 0.847318 0.445411
0.373297 0.843778 0.454994
0.516045 0.830564 0.496590
0.662165 0.825528 0.489082
0.848020 0.823728 0.443000
0.000000 0.141482 0.390661
0.000000 0.142367 0.384344
0.380285 0.125978 0.369726
0.684047 0.205142 0.400153
1.000000 0.000000 0.342229
0.000000 0.238590 0.385260
0.096742 0.220493 0.381262
0.386358 0.210727 0.368505
0.687678 0.252049 0.393835
0.994018 0.032715 0.341741
0.000000 0.420569 0.376867
0.000000 0.416632 0.375494
0.403662 0.407416 0.379065
0.688258 0.426215 0.378210
0.964721 0.476204 0.392523
0.000000 0.645167 0.405188
0.222934 0.637598 0.413458
0.444343 0.615839 0.445441
0.609369 0.604089 0.431830
0.935546 0.710994 0.497047
0.370092 0.860380 0.539330
0.418402 0.857542 0.547753
0.554437 0.845151 0.580255
0.689021 0.830991 0.602472
0.846677 0.828214 0.555627
0.000000 0.329351 0.701381
0.000000 0.330449 0.698421
0.422675 0.325017 0.680415
0.686885 0.320897 0.660151
0.915892 0.476570 0.697292
0.003479 0.406043 0.692866
0.160616 0.384588 0.689967
0.432868 0.373358 0.673182
0.681758 0.365942 0.653162
0.908812 0.511345 0.697536
0.132326 0.547234 0.679622
0.261021 0.546319 0.676204
0.453132 0.517571 0.664790
0.673945 0.500359 0.643519
0.900633 0.618311 0.707088
0.000000 0.722469 0.667811
0.000000 0.718502 0.665187
0.409827 0.707607 0.661219
0.679438 0.688502 0.657862
0.914244 0.718410 0.667720
0.278935 0.889372 0.679164
0.355138 0.886961 0.682612
0.550713 0.876982 0.700740
0.736233 0.855741 0.738338
0.851652 0.844877 0.718502
0.441840 0.591699 0.893339
0.473213 0.590143 0.892271
0.586877 0.587671 0.888365
0.743160 0.578058 0.880308
0.902678 0.598322 0.872770
0.479835 0.629816 0.889250
0.491768 0.619043 0.889250
0.594537 0.613642 0.885618
0.743191 0.601312 0.877897
0.899474 0.617548 0.871000
0.523766 0.719265 0.883268
0.553338 0.719326 0.882017
0.618311 0.698817 0.880217
0.745083 0.681605 0.873442
0.891203 0.687251 0.868345
0.513664 0.812802 0.878599
0.540063 0.811856 0.878141
0.636896 0.810086 0.877165
0.755367 0.795010 0.874418
0.881437 0.786557 0.867826
0.480537 0.908995 0.874144
0.508537 0.907683 0.873899
0.611505 0.902647 0.873808
0.749874 0.893187 0.872831
0.876738 0.880583 0.870024
