luts/旅拍胶片02.cube
# Created by Adobe Lightroom plugin Export LUT (1.24.0)
# www.johnrellis.com/lightroom/exportlut.htm
# Preset: 旅拍胶片-素材江湖02
# Color profile: E:\lut插件\exportlut.1.24\exportlut.lrplugin\color profiles\Rec709gamma2.4.icc
LUT_3D_SIZE 5
DOMAIN_MIN 0.000000 0.000000 0.000000
DOMAIN_MAX 0.903226 0.903226 0.903226
0.000000 0.000000 0.000000
0.122347 0.038209 0.000000
0.492866 0.000000 0.000000
0.871214 0.000000 0.000000
1.000000 0.292699 0.090700
0.031708 0.099702 0.040772
0.099275 0.107851 0.042145
0.467201 0.131441 0.001373
0.850767 0.176944 0.000000
1.000000 0.364263 0.117494
0.000000 0.339971 0.110628
0.188785 0.339910 0.120455
0.379614 0.361852 0.065675
0.788113 0.457801 0.000000
0.999786 0.536919 0.192355
0.378393 0.648768 0.263706
0.432715 0.648188 0.273808
0.564538 0.649042 0.284123
0.693812 0.646937 0.223331
0.926360 0.718013 0.334630
0.658412 0.862486 0.565942
0.677089 0.862119 0.572473
0.736812 0.856657 0.587030
0.812680 0.863310 0.587915
0.898558 0.867765 0.570001
0.000000 0.000427 0.120272
0.095674 0.010254 0.115694
0.406867 0.000000 0.128511
0.811856 0.000000 0.162448
1.000000 0.322087 0.225010
0.000000 0.109224 0.118013
0.089387 0.117830 0.127352
0.402625 0.140963 0.143740
0.803403 0.201511 0.164401
1.000000 0.378943 0.234775
0.000000 0.335729 0.176364
0.158114 0.337591 0.184665
0.355230 0.349157 0.167025
0.768032 0.450629 0.182193
0.985199 0.546929 0.288304
0.365667 0.646754 0.321050
0.421332 0.646937 0.330022
0.561975 0.647639 0.348241
0.685878 0.645319 0.290867
0.921019 0.721523 0.391150
0.651881 0.862455 0.588525
0.670497 0.861936 0.593957
0.737881 0.861540 0.619348
0.812711 0.866117 0.620722
0.897398 0.871000 0.601770
0.000000 0.030091 0.443244
0.000000 0.041199 0.415503
0.316289 0.000000 0.351507
0.745235 0.000000 0.383520
0.979156 0.356420 0.435676
0.000000 0.162295 0.427924
0.000000 0.158389 0.404761
0.326726 0.127291 0.352361
0.739620 0.135317 0.384192
0.963012 0.454627 0.469703
0.000000 0.389929 0.377966
0.000000 0.389563 0.376776
0.365240 0.398688 0.388220
0.718105 0.467872 0.422400
0.945159 0.582086 0.496742
0.000000 0.648157 0.388037
0.206271 0.646662 0.408698
0.526543 0.649348 0.489998
0.664302 0.649775 0.462257
0.907500 0.736538 0.549310
0.607843 0.862394 0.649775
0.632532 0.862272 0.657465
0.708858 0.862119 0.677516
0.798886 0.864744 0.694270
0.882444 0.869352 0.666590
0.000000 0.102022 0.770535
0.000000 0.105440 0.759731
0.279911 0.003998 0.712551
0.660243 0.000000 0.650904
0.924865 0.290318 0.666865
0.000000 0.225406 0.759701
0.000000 0.226078 0.749538
0.326818 0.207706 0.706081
0.655695 0.147036 0.644099
0.915435 0.360327 0.667292
0.000000 0.503197 0.746975
0.000000 0.510033 0.743160
0.419532 0.491218 0.701930
0.644221 0.427802 0.637720
0.900847 0.544213 0.678920
0.000000 0.707210 0.686610
0.000000 0.703853 0.684016
0.386389 0.696132 0.679896
0.648157 0.685237 0.674830
0.885008 0.751736 0.722713
0.269993 0.872557 0.662715
0.352270 0.872251 0.670069
0.547356 0.872587 0.702998
0.769467 0.870817 0.787594
0.862333 0.872862 0.770443
0.000000 0.192996 0.939757
0.000000 0.201968 0.937285
0.295995 0.229068 0.927031
0.658595 0.254307 0.904662
0.890898 0.325933 0.881376
0.000000 0.308263 0.936034
0.000000 0.315007 0.933623
0.363226 0.334600 0.923461
0.664424 0.344549 0.901549
0.885405 0.384375 0.878691
0.000000 0.549126 0.928649
0.201022 0.566186 0.925048
0.488350 0.586145 0.914244
0.676478 0.557946 0.895323
0.869291 0.543816 0.874510
0.000000 0.757046 0.913664
0.246036 0.760067 0.913024
0.532311 0.774899 0.912108
0.706477 0.773983 0.899809
0.849760 0.729793 0.877012
0.000000 0.907469 0.892668
0.129183 0.906523 0.892882
0.479927 0.903227 0.893919
0.698146 0.898528 0.895476
0.847868 0.888640 0.891417
