luts/日系自然[一麻]06.cube
# Created by Adobe Lightroom plugin Export LUT (1.24.0)
# www.johnrellis.com/lightroom/exportlut.htm
# Preset: 日系自然[一麻]06
# Color profile: C:\Program Files (x86)\Common Files\Adobe\Color\Profiles\Recommended\VideoHD.icc
LUT_3D_SIZE 5
DOMAIN_MIN 0.000000 0.000000 0.000000
DOMAIN_MAX 0.903226 0.903226 0.903226
0.000000 0.000000 0.000000
0.240909 0.070222 0.000000
0.525597 0.148867 0.000000
0.829465 0.195712 0.000000
1.000000 0.211124 0.000000
0.000000 0.254612 0.138979
0.209873 0.304479 0.000000
0.543450 0.314031 0.000000
0.846403 0.326543 0.000000
1.000000 0.315404 0.000000
0.045716 0.559808 0.337987
0.248478 0.566308 0.353918
0.545983 0.649287 0.000000
0.868681 0.604089 0.000000
1.000000 0.540764 0.000000
0.423255 0.811551 0.564752
0.472236 0.814481 0.576593
0.574212 0.836515 0.539788
0.816892 0.868498 0.126162
1.000000 0.788418 0.000000
0.679377 0.949493 0.756771
0.696407 0.949676 0.761318
0.754055 0.948089 0.774929
0.797330 0.970306 0.679225
0.982147 0.984405 0.251926
0.000000 0.097963 0.260288
0.204105 0.090639 0.257969
0.484321 0.064302 0.248783
0.785855 0.152407 0.217868
1.000000 0.197574 0.192111
0.000000 0.260105 0.251011
0.163973 0.277195 0.257267
0.489143 0.284154 0.238529
0.803677 0.303685 0.219638
1.000000 0.307988 0.193759
0.000000 0.544762 0.379156
0.231601 0.554376 0.395636
0.508629 0.620417 0.256413
0.844999 0.588281 0.223728
1.000000 0.542290 0.218204
0.429206 0.807706 0.591455
0.478187 0.811490 0.603601
0.592126 0.831022 0.601434
0.809201 0.863981 0.326635
1.000000 0.788113 0.206943
0.685817 0.949859 0.770169
0.702480 0.950011 0.774472
0.765255 0.951263 0.792874
0.809567 0.970245 0.718837
0.982025 0.984863 0.392004
0.000000 0.193454 0.539055
0.140841 0.194461 0.532738
0.431312 0.184543 0.509422
0.667933 0.278172 0.510430
0.994354 0.013428 0.480598
0.000000 0.344152 0.539361
0.085847 0.327153 0.533013
0.424781 0.298985 0.510063
0.689326 0.335515 0.513848
0.995178 0.255436 0.472847
0.000000 0.515007 0.504234
0.047517 0.519768 0.505394
0.394293 0.535668 0.507439
0.742428 0.547601 0.510033
1.000000 0.551629 0.508202
0.380377 0.776211 0.642878
0.437568 0.780240 0.651179
0.596796 0.806119 0.692805
0.776028 0.844450 0.599359
1.000000 0.797360 0.568109
0.684016 0.949126 0.802609
0.703304 0.949981 0.807950
0.771664 0.952880 0.827817
0.838041 0.964965 0.816220
0.974823 0.981659 0.634668
0.000000 0.318914 0.784024
0.000000 0.317510 0.781186
0.421790 0.298863 0.768215
0.671717 0.263951 0.744198
0.894469 0.359380 0.730220
0.000000 0.410986 0.783383
0.000000 0.406012 0.780362
0.416938 0.380285 0.766690
0.666438 0.340307 0.740841
0.889403 0.417548 0.729000
0.105104 0.631708 0.782956
0.244877 0.628412 0.780026
0.429389 0.594568 0.766506
0.657923 0.540703 0.738003
0.877897 0.589899 0.734707
0.232486 0.742367 0.737514
0.297520 0.743343 0.736965
0.463752 0.749996 0.737667
0.650446 0.756863 0.733944
0.950927 0.777829 0.755764
0.584283 0.933898 0.833982
0.613336 0.935821 0.837644
0.722011 0.945068 0.857298
0.863005 0.960845 0.898222
0.967041 0.978393 0.832853
0.113313 0.479286 0.960906
0.233860 0.477180 0.960174
0.438819 0.465217 0.957153
0.657557 0.426429 0.950835
0.891020 0.388769 0.941070
0.216251 0.539208 0.959197
0.283696 0.536065 0.958618
0.454200 0.520867 0.955871
0.660029 0.479652 0.949950
0.890410 0.438575 0.940398
0.422492 0.708095 0.954559
0.428656 0.697200 0.954833
0.520836 0.679652 0.952667
0.675990 0.637781 0.947509
0.889830 0.584466 0.938506
0.522789 0.840177 0.949523
0.548058 0.842649 0.950195
0.637110 0.850553 0.952758
0.724819 0.820035 0.949248
0.894530 0.762692 0.936828
0.540520 0.924987 0.931090
0.561120 0.925933 0.931487
0.639246 0.930022 0.933165
0.765743 0.937926 0.936767
0.911681 0.944274 0.937011
