luts/日系自然[一麻]06.cube
# Created by Adobe Lightroom plugin Export LUT (1.24.0)
# www.johnrellis.com/lightroom/exportlut.htm
# Preset: 日系自然[一麻]06
# Color profile: C:\Program Files (x86)\Common Files\Adobe\Color\Profiles\Recommended\VideoHD.icc
LUT_3D_SIZE 32
DOMAIN_MIN 0.0 0.0 0.0
DOMAIN_MAX 1.0 1.0 1.0
0.000000 0.000000 0.000000
0.008209 0.001282 0.000793
0.041444 0.002075 0.000000
0.091249 0.008698 0.000000
0.123751 0.016480 0.000000
0.161959 0.026246 0.000000
0.201419 0.046479 0.000000
0.240909 0.070222 0.000000
0.280156 0.089296 0.000000
0.318730 0.099977 0.000000
0.358099 0.110048 0.000000
0.398138 0.120272 0.000000
0.439551 0.129824 0.000000
0.482094 0.139528 0.000000
0.525597 0.148867 0.000000
0.569879 0.156741 0.000000
0.615229 0.165927 0.000000
0.660792 0.173251 0.000000
0.704829 0.179843 0.000000
0.747189 0.185885 0.000000
0.787686 0.190494 0.000000
0.829465 0.195712 0.000000
0.869688 0.199527 0.000000
0.906554 0.202976 0.000000
0.940703 0.205570 0.000000
0.972686 0.207858 0.000000
1.000000 0.209659 0.000000
1.000000 0.210819 0.000000
1.000000 0.211124 0.000000
1.000000 0.211276 0.000000
1.000000 0.210575 0.000000
1.000000 0.209079 0.000000
0.000000 0.010132 0.003174
0.003082 0.013092 0.000000
0.037690 0.013642 0.000000
0.090394 0.017853 0.000000
0.123262 0.025666 0.000000
0.161257 0.039033 0.000000
0.200595 0.057313 0.000000
0.239597 0.079774 0.000000
0.278843 0.093751 0.000000
0.317327 0.103639 0.000000
0.356329 0.113893 0.000000
0.396338 0.122988 0.000000
0.437507 0.132601 0.000000
0.479713 0.141909 0.000000
0.522972 0.150973 0.000000
0.567468 0.159518 0.000000
0.612787 0.167819 0.000000
0.658350 0.175357 0.000000
0.702327 0.181430 0.000000
0.744717 0.186923 0.000000
0.785275 0.192477 0.000000
0.826535 0.196323 0.000000
0.866056 0.200626 0.000000
0.902525 0.204349 0.000000
0.936492 0.206729 0.000000
0.968383 0.209018 0.000000
0.998840 0.210239 0.000000
1.000000 0.211460 0.000000
1.000000 0.212070 0.000000
1.000000 0.211978 0.000000
1.000000 0.211246 0.000000
1.000000 0.209659 0.000000
0.000000 0.048096 0.014984
0.000916 0.047425 0.017243
0.022675 0.067933 0.000000
0.085359 0.066133 0.000000
0.121736 0.072297 0.000000
0.160342 0.086427 0.000000
0.200046 0.094209 0.000000
0.239414 0.102693 0.000000
0.278141 0.111666 0.000000
0.316594 0.119112 0.000000
0.355657 0.127993 0.000000
0.395819 0.136294 0.000000
0.436591 0.144228 0.000000
0.478828 0.153079 0.000000
0.522210 0.161074 0.000000
0.566430 0.169345 0.000000
0.611780 0.177005 0.000000
0.657221 0.183871 0.000000
0.701350 0.189700 0.000000
0.743801 0.194736 0.000000
0.784298 0.199649 0.000000
0.825834 0.204227 0.000000
0.864836 0.207980 0.000000
0.900969 0.210971 0.000000
0.934600 0.213260 0.000000
0.966522 0.215000 0.000000
0.996887 0.216312 0.000000
1.000000 0.217411 0.000000
1.000000 0.217624 0.000000
1.000000 0.217227 0.000000
1.000000 0.215854 0.000000
1.000000 0.214572 0.000000
0.000000 0.098726 0.042023
0.000000 0.098970 0.043000
0.007782 0.102571 0.034455
0.061036 0.114900 0.000000
0.116487 0.116945 0.000000
0.159121 0.121401 0.000000
0.199985 0.127199 0.000000
0.239200 0.133486 0.000000
0.278416 0.139986 0.000000
0.317205 0.146029 0.000000
0.356207 0.152621 0.000000
0.396063 0.158694 0.000000
0.437110 0.165988 0.000000
0.479164 0.173556 0.000000
0.522271 0.180270 0.000000
0.566247 0.187198 0.000000
0.611292 0.193545 0.000000
0.656336 0.199588 0.000000
0.700099 0.205203 0.000000
0.742184 0.209781 0.000000
0.782437 0.213474 0.000000
0.824063 0.217319 0.000000
0.862303 0.220340 0.000000
0.898283 0.223087 0.000000
0.932219 0.224704 0.000000
0.964508 0.226566 0.000000
0.995544 0.227634 0.000000
1.000000 0.227817 0.000000
1.000000 0.227756 0.000000
1.000000 0.227115 0.000000
1.000000 0.226017 0.000000
1.000000 0.223941 0.000000
0.000000 0.133425 0.079866
0.000000 0.133516 0.080476
0.004761 0.133516 0.082368
0.025513 0.144350 0.050233
0.103548 0.160281 0.000000
0.150179 0.162417 0.000000
0.194705 0.166567 0.000000
0.238407 0.169497 0.000000
0.278172 0.173770 0.000000
0.317082 0.178256 0.000000
0.356115 0.182834 0.000000
0.396460 0.188357 0.000000
0.437446 0.193698 0.000000
0.479561 0.199954 0.000000
0.522789 0.205844 0.000000
0.566857 0.212070 0.000000
0.612390 0.217197 0.000000
0.657496 0.222385 0.000000
0.701198 0.227237 0.000000
0.743191 0.230961 0.000000
0.784115 0.234104 0.000000
0.825254 0.237186 0.000000
0.862699 0.239597 0.000000
0.898344 0.240970 0.000000
0.932128 0.242313 0.000000
0.964446 0.243534 0.000000
0.995300 0.243809 0.000000
1.000000 0.243626 0.000000
1.000000 0.243412 0.000000
1.000000 0.242252 0.000000
1.000000 0.240482 0.000000
1.000000 0.238376 0.000000
0.000000 0.171237 0.098146
0.000000 0.171511 0.098817
0.000000 0.171420 0.100160
0.009369 0.175723 0.095216
0.072419 0.190372 0.047150
0.137118 0.208011 0.000000
0.183902 0.208621 0.000000
0.230686 0.211612 0.000000
0.275456 0.213870 0.000000
0.318395 0.215915 0.000000
0.358343 0.219181 0.000000
0.398901 0.223362 0.000000
0.440253 0.227543 0.000000
0.482734 0.232212 0.000000
0.526238 0.237156 0.000000
0.570886 0.241855 0.000000
0.616602 0.246983 0.000000
0.661463 0.251011 0.000000
0.704860 0.254490 0.000000
0.746578 0.257206 0.000000
0.789090 0.260258 0.000000
0.829129 0.262791 0.000000
0.887297 0.267979 0.000000
0.922515 0.269047 0.000000
0.955444 0.268894 0.000000
0.986389 0.268956 0.000000
1.000000 0.268040 0.000000
1.000000 0.266911 0.000000
1.000000 0.265812 0.000000
1.000000 0.263890 0.000000
1.000000 0.261631 0.000000
1.000000 0.258732 0.000000
0.000000 0.214572 0.117922
0.000000 0.214755 0.117830
0.000000 0.214786 0.119142
0.000000 0.215457 0.122377
0.036194 0.226108 0.104219
0.113466 0.241611 0.040101
0.174777 0.259068 0.000000
0.222934 0.257908 0.000000
0.270634 0.260258 0.000000
0.317510 0.261845 0.000000
0.364996 0.263157 0.000000
0.409247 0.265354 0.000000
0.451606 0.268559 0.000000
0.494759 0.271794 0.000000
0.538628 0.275608 0.000000
0.583246 0.279210 0.000000
0.628779 0.282567 0.000000
0.672999 0.285801 0.000000
0.715755 0.288243 0.000000
0.758846 0.290257 0.000000
0.803159 0.292821 0.000000
0.844083 0.294530 0.000000
0.882353 0.295079 0.000000
0.918639 0.295323 0.000000
0.952544 0.294987 0.000000
0.984100 0.294347 0.000000
1.000000 0.293034 0.000000
1.000000 0.291081 0.000000
1.000000 0.289220 0.000000
1.000000 0.286564 0.000000
1.000000 0.283757 0.000000
1.000000 0.280674 0.000000
0.000000 0.254612 0.138979
0.000000 0.254612 0.139620
0.000000 0.255039 0.140780
0.000000 0.255528 0.143557
0.021668 0.259892 0.139895
0.093324 0.272923 0.112001
0.147707 0.288121 0.034821
0.209873 0.304479 0.000000
0.257633 0.302373 0.000000
0.306615 0.303624 0.000000
0.355444 0.305608 0.000000
0.404608 0.307286 0.000000
0.454780 0.308995 0.000000
0.499092 0.311223 0.000000
0.543450 0.314031 0.000000
0.588006 0.316594 0.000000
0.633265 0.319310 0.000000
0.677058 0.321263 0.000000
0.720241 0.322942 0.000000
0.765255 0.325048 0.000000
0.807065 0.326421 0.000000
0.846403 0.326543 0.000000
0.883421 0.326085 0.000000
0.918791 0.325536 0.000000
0.952178 0.324498 0.000000
0.983307 0.322759 0.000000
1.000000 0.320531 0.000000
1.000000 0.318059 0.000000
1.000000 0.315404 0.000000
1.000000 0.312352 0.000000
1.000000 0.308690 0.000000
1.000000 0.305089 0.000000
0.000000 0.295140 0.164492
0.000000 0.295232 0.164828
0.000000 0.295354 0.165774
0.000000 0.296056 0.168093
0.019013 0.297002 0.172091
0.084535 0.306279 0.155581
0.129763 0.319188 0.124239
0.184787 0.333928 0.039734
0.246342 0.349401 0.000000
0.294804 0.346685 0.000000
0.345281 0.347936 0.000000
0.396002 0.350378 0.000000
0.447181 0.352331 0.000000
0.498970 0.353948 0.000000
0.550500 0.355505 0.000000
0.595636 0.357549 0.000000
0.640345 0.359106 0.000000
0.684840 0.360418 0.000000
0.730007 0.362005 0.000000
0.772580 0.362493 0.000000
0.812772 0.362310 0.000000
0.850401 0.361425 0.000000
0.886198 0.359747 0.000000
0.920775 0.358190 0.000000
0.953491 0.356115 0.000000
0.984100 0.353674 0.000000
1.000000 0.350652 0.000000
1.000000 0.347417 0.000000
1.000000 0.343908 0.000000
1.000000 0.340185 0.000000
1.000000 0.336278 0.000000
1.000000 0.331640 0.000000
0.000000 0.335607 0.191318
0.000000 0.335546 0.191470
0.000000 0.335760 0.192538
0.000000 0.336370 0.194675
0.005829 0.337377 0.198001
0.095857 0.340978 0.196414
0.124331 0.352331 0.172366
0.168429 0.365454 0.136690
0.223392 0.379522 0.049592
0.285405 0.394202 0.000000
0.333684 0.391028 0.000000
0.385260 0.391821 0.000000
0.437964 0.394537 0.000000
0.490578 0.397009 0.000000
0.544701 0.399115 0.000000
0.599359 0.400855 0.000000
0.651484 0.402502 0.000000
0.696986 0.403449 0.000000
0.740352 0.403235 0.000000
0.781186 0.402441 0.000000
0.819425 0.400519 0.000000
0.855192 0.398047 0.000000
0.889311 0.395300 0.000000
0.922301 0.392401 0.000000
0.953704 0.389166 0.000000
0.983459 0.385657 0.000000
1.000000 0.381964 0.000000
1.000000 0.377874 0.000000
1.000000 0.373785 0.000000
1.000000 0.369299 0.000000
1.000000 0.364599 0.000000
1.000000 0.359625 0.000000
0.000000 0.375494 0.218296
0.000000 0.375555 0.218509
0.000000 0.376043 0.219516
0.000000 0.376654 0.221408
0.006897 0.377691 0.224613
0.107820 0.379339 0.228916
0.133150 0.387549 0.215305
0.164950 0.399390 0.188602
0.209903 0.412482 0.149355
0.265568 0.426490 0.061341
0.328557 0.440650 0.000000
0.376410 0.437293 0.000000
0.428687 0.437079 0.000000
0.483406 0.440284 0.000000
0.540185 0.444648 0.000000
0.597406 0.448005 0.000000
0.652674 0.449104 0.000000
0.705745 0.448096 0.000000
0.750088 0.446204 0.000000
0.789059 0.443305 0.000000
0.825589 0.439857 0.000000
0.860197 0.436072 0.000000
0.893431 0.432288 0.000000
0.925505 0.428138 0.000000
0.956207 0.423743 0.000000
0.985443 0.419409 0.000000
1.000000 0.414771 0.000000
1.000000 0.409949 0.000000
1.000000 0.405035 0.000000
1.000000 0.400000 0.000000
1.000000 0.394690 0.000000
1.000000 0.389166 0.000000
0.000000 0.417426 0.246128
0.000000 0.417487 0.246311
0.000000 0.417823 0.247196
0.000000 0.418463 0.249058
0.027375 0.419745 0.251774
0.116915 0.421424 0.255863
0.153719 0.425452 0.255924
0.173861 0.436133 0.233982
0.208164 0.448310 0.204837
0.255009 0.461494 0.161471
0.311864 0.475166 0.068788
0.376562 0.490486 0.000000
0.441901 0.501915 0.000000
0.495674 0.499702 0.000000
0.555413 0.504265 0.000000
0.613245 0.506676 0.000000
0.668391 0.506554 0.000000
0.721096 0.504784 0.000000
0.770291 0.500694 0.000000
0.816068 0.495003 0.000000
0.850584 0.489143 0.000000
0.882963 0.483192 0.000000
0.914183 0.476936 0.000000
0.944091 0.471138 0.000000
0.972686 0.465156 0.000000
1.000000 0.458991 0.000000
1.000000 0.452705 0.000000
1.000000 0.446632 0.000000
1.000000 0.440345 0.000000
1.000000 0.434089 0.000000
1.000000 0.427771 0.000000
1.000000 0.421118 0.000000
0.000000 0.465431 0.277501
0.000000 0.465431 0.277745
0.000000 0.465614 0.278447
0.000000 0.466133 0.279820
0.082765 0.466957 0.282200
0.133639 0.468208 0.285710
0.174563 0.470344 0.290532
0.196262 0.479072 0.279332
0.222019 0.491585 0.255314
0.260838 0.505364 0.222965
0.311437 0.520592 0.176699
0.371893 0.536645 0.087190
0.440131 0.552758 0.000000
0.497749 0.555138 0.000000
0.547448 0.548302 0.000000
0.605371 0.550591 0.000000
0.660365 0.550378 0.000000
0.712276 0.548058 0.000000
0.760769 0.543633 0.000000
0.805722 0.537682 0.000000
0.847684 0.530205 0.000000
0.885344 0.522332 0.000000
0.915679 0.515068 0.000000
0.945098 0.508080 0.000000
0.973358 0.500969 0.000000
1.000000 0.494057 0.000000
1.000000 0.486976 0.000000
1.000000 0.480018 0.000000
1.000000 0.473091 0.000000
1.000000 0.466224 0.000000
1.000000 0.459174 0.000000
1.000000 0.452003 0.000000
0.000000 0.512322 0.307561
0.000000 0.512322 0.307713
0.000000 0.512383 0.308385
0.050172 0.512932 0.309728
0.116060 0.513848 0.312108
0.154940 0.515312 0.315343
0.192935 0.517601 0.320104
0.225162 0.521782 0.321752
0.242191 0.532799 0.300786
0.271458 0.545495 0.273991
0.313237 0.559594 0.238468
0.365789 0.574487 0.188235
0.426917 0.589410 0.093172
0.494423 0.603449 0.000000
0.553735 0.606470 0.000000
0.597070 0.594018 0.000000
0.651179 0.592828 0.000000
0.702876 0.590082 0.000000
0.751095 0.585595 0.000000
0.795834 0.579217 0.000000
0.837827 0.571740 0.000000
0.877684 0.563439 0.000000
0.915435 0.554650 0.000000
0.947723 0.545983 0.000000
0.975494 0.537926 0.000000
1.000000 0.530022 0.000000
1.000000 0.522179 0.000000
1.000000 0.514366 0.000000
1.000000 0.506554 0.000000
1.000000 0.499031 0.000000
1.000000 0.491279 0.000000
1.000000 0.483467 0.000000
0.045716 0.559808 0.337987
0.054932 0.559808 0.337987
0.088197 0.559930 0.338506
0.116670 0.560143 0.339605
0.147677 0.560662 0.341619
0.179934 0.561730 0.344396
0.213718 0.563622 0.348577
0.248478 0.566308 0.353918
0.269078 0.573999 0.343877
0.290745 0.585626 0.320073
0.323308 0.598108 0.290898
0.367041 0.611383 0.252781
0.419654 0.624720 0.200259
0.479927 0.637537 0.102296
0.545983 0.649287 0.000000
0.604944 0.651789 0.000000
0.643427 0.635981 0.000000
0.693690 0.631312 0.000000
0.741787 0.626398 0.000000
0.786679 0.619867 0.000000
0.828641 0.612268 0.000000
0.868681 0.604089 0.000000
0.906737 0.595178 0.000000
0.942718 0.585687 0.000000
0.976806 0.575586 0.000000
1.000000 0.566491 0.000000
1.000000 0.557763 0.000000
1.000000 0.549310 0.000000
1.000000 0.540764 0.000000
1.000000 0.532403 0.000000
1.000000 0.524132 0.000000
1.000000 0.515709 0.000000
0.128054 0.604425 0.366979
0.130678 0.604517 0.367224
0.140658 0.604791 0.367956
0.157809 0.605219 0.368994
0.181430 0.605951 0.371069
0.209049 0.607141 0.373846
0.239475 0.609155 0.378058
0.271733 0.611872 0.383520
0.303105 0.615900 0.387427
0.317906 0.625940 0.366552
0.341955 0.636622 0.341283
0.376165 0.647761 0.309789
0.419715 0.659113 0.268986
0.471199 0.670069 0.213657
0.528954 0.680201 0.114168
0.591913 0.689235 0.000000
0.649714 0.690791 0.000000
0.684810 0.673121 0.000000
0.731289 0.665675 0.000000
0.776455 0.659022 0.000000
0.819272 0.651575 0.000000
0.859831 0.643458 0.000000
0.898283 0.634791 0.000000
0.934844 0.625452 0.000000
0.969390 0.615290 0.000000
1.000000 0.604852 0.000000
1.000000 0.594018 0.000000
1.000000 0.584619 0.000000
1.000000 0.575341 0.000000
1.000000 0.566125 0.000000
1.000000 0.556939 0.000000
1.000000 0.547784 0.000000
0.178347 0.645106 0.396460
0.180270 0.645136 0.396551
0.186587 0.645289 0.397070
0.199283 0.645747 0.398230
0.217594 0.646448 0.400305
0.240665 0.647700 0.403235
0.267063 0.649378 0.407111
0.296696 0.651637 0.412268
0.328038 0.654597 0.418647
0.347967 0.661158 0.410132
0.364752 0.670588 0.387884
0.390631 0.680537 0.360601
0.425330 0.690608 0.327214
0.468055 0.700282 0.284825
0.518212 0.709499 0.227665
0.573846 0.717769 0.133486
0.634546 0.725093 0.000000
0.691249 0.726070 0.000000
0.723690 0.707668 0.000000
0.766995 0.697688 0.000000
0.810117 0.690394 0.000000
0.851316 0.682155 0.000000
0.890288 0.673335 0.000000
0.927153 0.663996 0.000000
0.962005 0.654078 0.000000
0.995056 0.643519 0.000000
1.000000 0.632563 0.000000
1.000000 0.621149 0.000000
1.000000 0.609949 0.000000
1.000000 0.600031 0.000000
1.000000 0.590112 0.000000
1.000000 0.580102 0.000000
0.227146 0.683742 0.427680
0.228428 0.683864 0.427832
0.248051 0.694667 0.438056
0.257237 0.695125 0.439246
0.271275 0.695735 0.441169
0.290257 0.696590 0.443977
0.312230 0.697841 0.447639
0.337804 0.699550 0.452461
0.366186 0.701839 0.458717
0.395178 0.704921 0.464302
0.405463 0.712917 0.444007
0.423041 0.721218 0.419684
0.448402 0.729580 0.390112
0.481880 0.737636 0.354376
0.522637 0.745174 0.310399
0.570245 0.752071 0.252995
0.623285 0.758175 0.164248
0.681178 0.763424 0.000000
0.736233 0.763485 0.000000
0.766690 0.744259 0.000000
0.806821 0.732021 0.000000
0.847684 0.723262 0.000000
0.886473 0.713924 0.000000
0.923095 0.703914 0.000000
0.957488 0.693355 0.000000
0.990021 0.682338 0.000000
1.000000 0.670863 0.000000
1.000000 0.659083 0.000000
1.000000 0.646967 0.000000
1.000000 0.634607 0.000000
1.000000 0.623194 0.000000
1.000000 0.612360 0.000000
0.279698 0.721675 0.462745
0.281956 0.722652 0.463844
0.287449 0.723781 0.465400
0.296605 0.724941 0.467445
0.308965 0.726070 0.469917
0.324956 0.727169 0.472969
0.344182 0.728267 0.476570
0.366522 0.729641 0.480995
0.391730 0.731380 0.486763
0.419043 0.733639 0.493812
0.435798 0.738705 0.487037
0.446937 0.746120 0.465431
0.464607 0.753567 0.439246
0.489815 0.760983 0.408484
0.522210 0.768093 0.371984
0.562036 0.774807 0.327245
0.607996 0.780880 0.270237
0.659449 0.786282 0.185550
0.715877 0.790951 0.000000
0.770260 0.791257 0.000000
0.799832 0.772732 0.000000
0.838529 0.759762 0.000000
0.877714 0.750393 0.000000
0.914672 0.740352 0.000000
0.949584 0.729641 0.000000
0.982391 0.718532 0.000000
1.000000 0.707027 0.000000
1.000000 0.695125 0.000000
1.000000 0.683070 0.000000
1.000000 0.670558 0.000000
1.000000 0.657740 0.000000
1.000000 0.644251 0.000000
0.325292 0.751766 0.494331
0.327642 0.752651 0.495521
0.332464 0.753780 0.497261
0.339940 0.754879 0.499153
0.350530 0.755978 0.501671
0.363989 0.756893 0.504540
0.380133 0.757870 0.507958
0.399695 0.758968 0.512078
0.421424 0.760433 0.517296
0.445563 0.762234 0.523552
0.471351 0.764431 0.530571
0.477882 0.770993 0.511803
0.489326 0.777768 0.488746
0.506981 0.784665 0.461402
0.531579 0.791318 0.429572
0.562890 0.797696 0.392248
0.601221 0.803525 0.346685
0.645624 0.808835 0.289158
0.695308 0.813535 0.208774
0.749813 0.817563 0.000000
0.803372 0.817807 0.000000
0.832395 0.800046 0.000000
0.869505 0.786648 0.000000
0.906523 0.775967 0.000000
0.941680 0.765286 0.000000
0.974914 0.753994 0.000000
1.000000 0.742367 0.000000
1.000000 0.730465 0.000000
1.000000 0.718135 0.000000
1.000000 0.705562 0.000000
1.000000 0.692622 0.000000
1.000000 0.679164 0.000000
0.370977 0.780423 0.526787
0.373053 0.781186 0.527886
0.376806 0.782071 0.529168
0.383032 0.782986 0.531090
0.392004 0.783902 0.533471
0.403388 0.784695 0.536065
0.417304 0.785519 0.539086
0.433570 0.786465 0.542870
0.452735 0.787747 0.547601
0.474006 0.789273 0.553246
0.497292 0.791012 0.559991
0.511803 0.794919 0.555322
0.519036 0.800992 0.536004
0.530907 0.807187 0.513054
0.548486 0.813474 0.485237
0.572107 0.819577 0.452705
0.602533 0.825467 0.414618
0.639826 0.830991 0.368536
0.682979 0.836118 0.312078
0.731624 0.840604 0.235111
0.784878 0.844480 0.025238
0.838254 0.845182 0.000000
0.868009 0.828946 0.000000
0.903166 0.814694 0.000000
0.938293 0.802853 0.000000
0.971862 0.791562 0.000000
1.000000 0.779751 0.000000
1.000000 0.767483 0.000000
1.000000 0.755032 0.000000
1.000000 0.742153 0.000000
1.000000 0.728847 0.000000
1.000000 0.715114 0.000000
0.423255 0.811551 0.564752
0.424109 0.811856 0.565179
0.426581 0.812161 0.565942
0.430976 0.812467 0.567071
0.437720 0.812863 0.568658
0.446632 0.813230 0.570550
0.458289 0.813748 0.573266
0.472236 0.814481 0.576593
0.488777 0.815457 0.580804
0.507469 0.816739 0.586053
0.527947 0.818235 0.592004
0.549981 0.819913 0.598901
0.554772 0.825223 0.582910
0.562310 0.830777 0.563287
0.574212 0.836515 0.539788
0.591241 0.842100 0.512139
0.613977 0.847562 0.479713
0.642878 0.852720 0.440833
0.677974 0.857542 0.394507
0.719295 0.861845 0.337163
0.765896 0.865537 0.261540
0.816892 0.868498 0.126162
0.868833 0.868742 0.000000
0.899748 0.854307 0.000000
0.931029 0.838285 0.000000
0.964050 0.825223 0.000000
0.995941 0.813352 0.000000
1.000000 0.801083 0.000000
1.000000 0.788418 0.000000
1.000000 0.775448 0.000000
1.000000 0.761990 0.000000
1.000000 0.748074 0.000000
0.465339 0.835966 0.596033
0.466377 0.836240 0.596460
0.468513 0.836454 0.597192
0.472297 0.836790 0.598199
0.477943 0.837064 0.599542
0.485634 0.837400 0.601373
0.495491 0.837858 0.603815
0.507713 0.838468 0.606836
0.521904 0.839292 0.610742
0.538354 0.840299 0.615381
0.556451 0.841520 0.620722
0.576074 0.842924 0.626856
0.588800 0.845945 0.624201
0.593256 0.851072 0.607263
0.601099 0.856352 0.587304
0.613031 0.861631 0.563928
0.629877 0.866880 0.536706
0.651972 0.871916 0.504479
0.679683 0.876707 0.466102
0.713405 0.881102 0.419165
0.752926 0.885008 0.361730
0.797757 0.888243 0.287938
0.847288 0.890715 0.167849
0.898070 0.890898 0.000000
0.928191 0.876677 0.000000
0.956298 0.859464 0.000000
0.987610 0.845518 0.000000
1.000000 0.833280 0.000000
1.000000 0.820523 0.000000
1.000000 0.807370 0.000000
1.000000 0.793942 0.000000
1.000000 0.779904 0.000000
0.510155 0.860685 0.629541
0.511315 0.861021 0.630091
0.512963 0.861204 0.630640
0.515953 0.861295 0.631342
0.520195 0.861326 0.632197
0.526207 0.861326 0.633478
0.534173 0.861387 0.635126
0.543847 0.861509 0.637354
0.555535 0.861875 0.640192
0.569207 0.862394 0.643824
0.584497 0.863066 0.648066
0.601495 0.863951 0.653101
0.619684 0.864988 0.658839
0.623407 0.869078 0.645930
0.627863 0.873625 0.628443
0.635554 0.878294 0.608179
0.647181 0.882994 0.584405
0.663355 0.887724 0.556970
0.684810 0.892363 0.524498
0.711666 0.896818 0.486488
0.744137 0.900938 0.439979
0.782132 0.904479 0.382361
0.825132 0.907286 0.308110
0.872770 0.909178 0.193668
0.922240 0.909087 0.000000
0.955962 0.898100 0.000000
0.980987 0.879759 0.000000
1.000000 0.864805 0.000000
1.000000 0.851865 0.000000
1.000000 0.838651 0.000000
1.000000 0.824918 0.000000
1.000000 0.810758 0.000000
0.545586 0.880186 0.656123
0.546502 0.880461 0.656672
0.548089 0.880705 0.657191
0.550683 0.880827 0.657923
0.554833 0.880949 0.658930
0.560296 0.881132 0.660243
0.567407 0.881376 0.662104
0.576379 0.881712 0.664454
0.587121 0.882170 0.667323
0.599420 0.882780 0.670893
0.613123 0.883452 0.674952
0.628473 0.884245 0.679652
0.644678 0.885130 0.684810
0.655756 0.887236 0.683070
0.658289 0.891386 0.668360
0.663111 0.895628 0.650935
0.670985 0.899962 0.630762
0.682490 0.904387 0.607416
0.698360 0.908782 0.580102
0.718959 0.913115 0.548241
0.744686 0.917144 0.510338
0.775631 0.920806 0.464240
0.811734 0.923949 0.406134
0.853117 0.926329 0.331914
0.899168 0.927886 0.221500
0.947723 0.927733 0.000000
0.983215 0.918639 0.000000
1.000000 0.899565 0.000000
1.000000 0.883787 0.000000
1.000000 0.870329 0.000000
1.000000 0.856352 0.000000
1.000000 0.841917 0.000000
0.582055 0.899657 0.683528
0.582513 0.899779 0.683833
0.583734 0.899901 0.684199
0.585992 0.899962 0.684840
0.589349 0.900023 0.685542
0.594018 0.900114 0.686763
0.600183 0.900237 0.688289
0.607782 0.900481 0.690211
0.617029 0.900786 0.692744
0.627802 0.901183 0.695827
0.639887 0.901671 0.699275
0.653315 0.902251 0.703365
0.667811 0.902922 0.707912
0.683162 0.903593 0.712795
0.686580 0.906950 0.702571
0.689418 0.910887 0.687648
0.694636 0.914885 0.670405
0.702785 0.919005 0.650416
0.714321 0.923186 0.627680
0.729885 0.927306 0.600732
0.749660 0.931304 0.568933
0.774289 0.934997 0.530846
0.803647 0.938262 0.484535
0.838254 0.940917 0.426398
0.877958 0.942870 0.350011
0.922362 0.944030 0.238621
0.969970 0.943755 0.000000
1.000000 0.936248 0.000000
1.000000 0.916564 0.000000
1.000000 0.900542 0.000000
1.000000 0.886198 0.000000
1.000000 0.871641 0.000000
0.614313 0.916777 0.707881
0.614801 0.916899 0.708125
0.615900 0.916991 0.708522
0.617914 0.917082 0.709071
0.621027 0.917235 0.709987
0.625574 0.917418 0.711299
0.631525 0.917815 0.713100
0.639094 0.918303 0.715572
0.648035 0.918944 0.718471
0.658320 0.919646 0.721889
0.669917 0.920439 0.725795
0.682521 0.921233 0.730037
0.696040 0.922026 0.734585
0.710170 0.922759 0.739345
0.720394 0.924437 0.739040
0.722072 0.928161 0.726528
0.725338 0.931914 0.712001
0.730831 0.935729 0.695338
0.739010 0.939605 0.676051
0.750301 0.943542 0.653590
0.765194 0.947295 0.627436
0.783902 0.950896 0.596185
0.806851 0.954131 0.558038
0.834531 0.956909 0.511711
0.867155 0.959136 0.453712
0.904875 0.960693 0.376318
0.947723 0.961425 0.265202
0.994232 0.960998 0.000000
1.000000 0.954986 0.000000
1.000000 0.934874 0.000000
1.000000 0.918303 0.000000
1.000000 0.902647 0.000000
0.651423 0.935271 0.735775
0.651606 0.935271 0.735866
0.652399 0.935271 0.736049
0.653864 0.935271 0.736355
0.656336 0.935241 0.736934
0.659907 0.935271 0.737881
0.664576 0.935363 0.739071
0.670466 0.935485 0.740719
0.677638 0.935668 0.742763
0.685969 0.935912 0.745144
0.695521 0.936187 0.748043
0.705989 0.936522 0.751217
0.717464 0.936889 0.754757
0.729763 0.937224 0.758602
