luts/日系自然[一麻]02.cube
# Created by Adobe Lightroom plugin Export LUT (1.24.0)
# www.johnrellis.com/lightroom/exportlut.htm
# Preset: 日系自然[一麻]02
# Color profile: C:\Program Files (x86)\Common Files\Adobe\Color\Profiles\Recommended\VideoHD.icc
LUT_3D_SIZE 32
DOMAIN_MIN 0.0 0.0 0.0
DOMAIN_MAX 1.0 1.0 1.0
0.000000 0.000000 0.000000
0.009216 0.000092 0.000000
0.045411 0.001617 0.000000
0.096925 0.006897 0.000000
0.130465 0.015534 0.000000
0.169558 0.025483 0.000000
0.210300 0.047181 0.000000
0.251865 0.073976 0.000000
0.293584 0.093172 0.000000
0.335058 0.108370 0.000000
0.377203 0.123171 0.000000
0.420356 0.139101 0.000000
0.465003 0.155398 0.000000
0.511254 0.172763 0.000000
0.559228 0.190738 0.000000
0.608972 0.208133 0.000000
0.660456 0.226261 0.000000
0.712062 0.244358 0.000000
0.761746 0.261692 0.000000
0.809384 0.278721 0.000000
0.853788 0.294011 0.000000
0.894255 0.308354 0.000000
0.931243 0.321141 0.000000
0.966247 0.333318 0.000000
0.999390 0.344701 0.000000
1.000000 0.355444 0.000000
1.000000 0.365454 0.000000
1.000000 0.374670 0.000000
1.000000 0.383215 0.000000
1.000000 0.391211 0.000000
1.000000 0.398474 0.000000
1.000000 0.405035 0.000000
0.000000 0.008942 0.002167
0.007935 0.008057 0.000000
0.044678 0.011780 0.000000
0.097017 0.015869 0.000000
0.130678 0.023285 0.000000
0.169558 0.037812 0.000000
0.210483 0.057099 0.000000
0.251835 0.081910 0.000000
0.293523 0.097871 0.000000
0.335088 0.111879 0.000000
0.377111 0.126986 0.000000
0.420294 0.142092 0.000000
0.464973 0.158328 0.000000
0.511284 0.175265 0.000000
0.559228 0.192355 0.000000
0.608972 0.209812 0.000000
0.660456 0.228000 0.000000
0.712093 0.245792 0.000000
0.761807 0.263188 0.000000
0.809354 0.279606 0.000000
0.853666 0.295293 0.000000
0.894255 0.309117 0.000000
0.931182 0.322118 0.000000
0.966186 0.334173 0.000000
0.999359 0.345617 0.000000
1.000000 0.356085 0.000000
1.000000 0.366064 0.000000
1.000000 0.375341 0.000000
1.000000 0.383795 0.000000
1.000000 0.391699 0.000000
1.000000 0.398932 0.000000
1.000000 0.405554 0.000000
0.000000 0.043977 0.006531
0.001465 0.044282 0.008606
0.040528 0.045624 0.004303
0.096681 0.051637 0.000000
0.131350 0.063233 0.000000
0.170169 0.080049 0.000000
0.211002 0.092592 0.000000
0.252110 0.102541 0.000000
0.293614 0.114412 0.000000
0.334844 0.126375 0.000000
0.376867 0.139651 0.000000
0.420203 0.153414 0.000000
0.464790 0.168399 0.000000
0.511131 0.183749 0.000000
0.559167 0.199954 0.000000
0.608972 0.216678 0.000000
0.660487 0.234104 0.000000
0.712001 0.251560 0.000000
0.761685 0.268467 0.000000
0.809201 0.284733 0.000000
0.853544 0.299901 0.000000
0.893950 0.313664 0.000000
0.930938 0.326177 0.000000
0.966003 0.337957 0.000000
0.999145 0.349065 0.000000
1.000000 0.359350 0.000000
1.000000 0.369177 0.000000
1.000000 0.378210 0.000000
1.000000 0.386664 0.000000
1.000000 0.394385 0.000000
1.000000 0.401251 0.000000
1.000000 0.407752 0.000000
0.000000 0.095613 0.020752
0.000000 0.095796 0.020569
0.024353 0.095827 0.019989
0.093233 0.096925 0.011139
0.133120 0.102693 0.000000
0.171023 0.112062 0.000000
0.211765 0.120150 0.000000
0.252262 0.128756 0.000000
0.293645 0.138125 0.000000
0.334905 0.148196 0.000000
0.377050 0.159365 0.000000
0.420050 0.171298 0.000000
0.464851 0.184543 0.000000
0.511131 0.198795 0.000000
0.559167 0.213687 0.000000
0.608911 0.229648 0.000000
0.660487 0.246006 0.000000
0.711818 0.262943 0.000000
0.761440 0.279210 0.000000
0.808927 0.294591 0.000000
0.853208 0.308995 0.000000
0.893523 0.322057 0.000000
0.930571 0.333989 0.000000
0.965576 0.345251 0.000000
0.998718 0.355932 0.000000
1.000000 0.365759 0.000000
1.000000 0.375158 0.000000
1.000000 0.383917 0.000000
1.000000 0.391882 0.000000
1.000000 0.399298 0.000000
1.000000 0.406043 0.000000
1.000000 0.412207 0.000000
0.000000 0.131746 0.038087
0.000000 0.131533 0.038056
0.009949 0.131228 0.041016
0.081270 0.132204 0.033356
0.129030 0.134676 0.018708
0.173922 0.140688 0.000000
0.212711 0.149691 0.000000
0.252506 0.159548 0.000000
0.293706 0.167208 0.000000
0.334936 0.175540 0.000000
0.376867 0.184756 0.000000
0.420081 0.195254 0.000000
0.464759 0.206729 0.000000
0.511162 0.219730 0.000000
0.559106 0.233524 0.000000
0.608728 0.248325 0.000000
0.660395 0.263920 0.000000
0.711574 0.279698 0.000000
0.761013 0.295018 0.000000
0.808499 0.309300 0.000000
0.852689 0.322820 0.000000
0.892912 0.334966 0.000000
0.929839 0.346075 0.000000
0.964965 0.356512 0.000000
0.998108 0.366400 0.000000
1.000000 0.375891 0.000000
1.000000 0.384619 0.000000
1.000000 0.392737 0.000000
1.000000 0.400275 0.000000
1.000000 0.407172 0.000000
1.000000 0.413458 0.000000
1.000000 0.419287 0.000000
0.000000 0.169375 0.050599
0.000000 0.169223 0.051698
0.000000 0.168643 0.052705
0.036286 0.168521 0.052644
0.117372 0.170840 0.040925
0.166110 0.173404 0.022614
0.214542 0.179507 0.000000
0.254063 0.188022 0.000000
0.293828 0.197421 0.000000
0.334539 0.206638 0.000000
0.376562 0.214542 0.000000
0.419837 0.223880 0.000000
0.464607 0.234104 0.000000
0.510857 0.245823 0.000000
0.558892 0.258396 0.000000
0.608698 0.272038 0.000000
0.659998 0.286656 0.000000
0.711269 0.301152 0.000000
0.760708 0.315129 0.000000
0.807919 0.328527 0.000000
0.851865 0.340978 0.000000
0.891905 0.352178 0.000000
0.928954 0.362188 0.000000
0.963989 0.371893 0.000000
0.997192 0.380896 0.000000
1.000000 0.389471 0.000000
1.000000 0.397284 0.000000
1.000000 0.404761 0.000000
1.000000 0.411688 0.000000
1.000000 0.417975 0.000000
1.000000 0.423713 0.000000
1.000000 0.428962 0.000000
0.000000 0.206973 0.067048
0.000000 0.206973 0.066865
0.000000 0.206485 0.068971
0.000000 0.205936 0.071626
0.094606 0.206699 0.065888
0.152529 0.209110 0.047150
0.203342 0.212284 0.024201
0.255650 0.218448 0.000000
0.295140 0.226627 0.000000
0.334997 0.235538 0.000000
0.376410 0.245762 0.000000
0.419471 0.255192 0.000000
0.464240 0.264622 0.000000
0.510643 0.275273 0.000000
0.558740 0.286931 0.000000
0.608423 0.299474 0.000000
0.659937 0.313115 0.000000
0.710964 0.326635 0.000000
0.760037 0.339605 0.000000
0.807126 0.351904 0.000000
0.850675 0.363073 0.000000
0.890593 0.372961 0.000000
0.927611 0.382025 0.000000
0.962829 0.390692 0.000000
0.996002 0.398779 0.000000
1.000000 0.406470 0.000000
1.000000 0.413519 0.000000
1.000000 0.419989 0.000000
1.000000 0.426184 0.000000
1.000000 0.431708 0.000000
1.000000 0.436744 0.000000
1.000000 0.441291 0.000000
0.000000 0.244419 0.088258
0.000000 0.244297 0.088655
0.000000 0.243900 0.089448
0.000000 0.243534 0.089967
0.018189 0.242527 0.092195
0.132357 0.244755 0.084504
0.188205 0.247684 0.065064
0.240299 0.251133 0.036164
0.294224 0.257328 0.000000
0.335698 0.265293 0.000000
0.376989 0.274449 0.000000
0.419562 0.285130 0.000000
0.463813 0.297215 0.000000
0.510185 0.307378 0.000000
0.558373 0.318364 0.000000
0.608118 0.330114 0.000000
0.659541 0.343053 0.000000
0.710292 0.355596 0.000000
0.759274 0.367407 0.000000
0.805966 0.378607 0.000000
0.849180 0.388617 0.000000
0.888975 0.397375 0.000000
0.926055 0.405280 0.000000
0.961212 0.412818 0.000000
0.994507 0.420020 0.000000
1.000000 0.426612 0.000000
1.000000 0.432685 0.000000
1.000000 0.438331 0.000000
1.000000 0.443519 0.000000
1.000000 0.448249 0.000000
1.000000 0.452430 0.000000
1.000000 0.456306 0.000000
0.000000 0.281498 0.104097
0.000000 0.281498 0.104036
0.000000 0.281163 0.105013
0.000000 0.280644 0.105837
0.000000 0.279973 0.107546
0.101503 0.280247 0.106935
0.169345 0.282872 0.099672
0.224796 0.286290 0.089235
0.277317 0.290074 0.060761
0.332952 0.297154 0.012421
0.377508 0.305089 0.000000
0.420142 0.314977 0.000000
0.464302 0.326085 0.000000
0.510094 0.338628 0.000000
0.557977 0.351904 0.000000
0.607782 0.363256 0.000000
0.659174 0.375463 0.000000
0.709560 0.387121 0.000000
0.758053 0.397955 0.000000
0.804440 0.408118 0.000000
0.847410 0.416999 0.000000
0.886961 0.424628 0.000000
0.924041 0.431464 0.000000
0.959319 0.437873 0.000000
0.992676 0.443977 0.000000
1.000000 0.449531 0.000000
1.000000 0.454627 0.000000
1.000000 0.459419 0.000000
1.000000 0.463661 0.000000
1.000000 0.467384 0.000000
1.000000 0.470771 0.000000
1.000000 0.473640 0.000000
0.000000 0.318791 0.121736
0.000000 0.318730 0.121736
0.000000 0.318456 0.122255
0.000000 0.318090 0.123445
0.000000 0.317479 0.124544
0.008576 0.316503 0.126650
0.143984 0.318517 0.122621
0.206607 0.321904 0.114870
0.261784 0.325566 0.105013
0.315160 0.329870 0.090181
0.373083 0.338109 0.036683
0.420508 0.346258 0.000000
0.464790 0.356786 0.000000
0.510460 0.368688 0.000000
0.558221 0.381903 0.000000
0.607660 0.396307 0.000000
0.658259 0.409888 0.000000
0.708156 0.420630 0.000000
0.756344 0.430701 0.000000
0.802426 0.439857 0.000000
0.845121 0.447639 0.000000
0.884581 0.454078 0.000000
0.921691 0.459937 0.000000
0.957000 0.465461 0.000000
0.990417 0.470436 0.000000
1.000000 0.475044 0.000000
1.000000 0.479042 0.000000
1.000000 0.482734 0.000000
1.000000 0.486061 0.000000
1.000000 0.488869 0.000000
1.000000 0.491279 0.000000
1.000000 0.493263 0.000000
0.000000 0.356695 0.140047
0.000000 0.356725 0.139986
0.000000 0.356573 0.140352
0.000000 0.356146 0.141176
0.000000 0.355657 0.142519
0.000000 0.354955 0.144198
0.105898 0.354864 0.144839
0.184726 0.358038 0.138735
0.244663 0.361761 0.131075
0.300053 0.366186 0.120394
0.354650 0.370855 0.105196
0.411597 0.378332 0.073671
0.464759 0.388739 0.000000
0.510948 0.400244 0.000000
0.558343 0.412848 0.000000
0.607691 0.426764 0.000000
0.657740 0.441077 0.000000
0.706630 0.454841 0.000000
0.754391 0.465217 0.000000
0.800046 0.473335 0.000000
0.842405 0.479957 0.000000
0.881743 0.485451 0.000000
0.918944 0.490455 0.000000
0.954284 0.494850 0.000000
0.987762 0.498817 0.000000
1.000000 0.502373 0.000000
1.000000 0.505516 0.000000
1.000000 0.508232 0.000000
1.000000 0.510552 0.000000
1.000000 0.512444 0.000000
1.000000 0.513939 0.000000
1.000000 0.515038 0.000000
0.000000 0.395483 0.158022
0.000000 0.395453 0.157992
0.000000 0.395270 0.158145
0.000000 0.394965 0.159182
0.000000 0.394568 0.160128
0.000000 0.393835 0.161776
0.000000 0.393103 0.163424
0.155581 0.394873 0.160830
0.224369 0.398749 0.154421
0.283543 0.403082 0.146365
0.339513 0.407935 0.135103
0.394781 0.413275 0.120638
0.450813 0.419043 0.098634
0.510460 0.432563 0.005707
0.558343 0.445014 0.000000
0.607843 0.458534 0.000000
0.657130 0.471901 0.000000
0.705653 0.484840 0.000000
0.752651 0.497017 0.000000
0.797208 0.508080 0.000000
0.839261 0.513787 0.000000
0.878447 0.518334 0.000000
0.915740 0.522271 0.000000
0.951141 0.525872 0.000000
0.984680 0.528923 0.000000
1.000000 0.531548 0.000000
1.000000 0.533593 0.000000
1.000000 0.535454 0.000000
1.000000 0.536767 0.000000
1.000000 0.537743 0.000000
1.000000 0.538293 0.000000
1.000000 0.538506 0.000000
0.000000 0.435157 0.175601
0.000000 0.435157 0.175570
0.000000 0.434974 0.176059
0.000000 0.434760 0.176425
0.000000 0.434272 0.177432
0.000000 0.433722 0.178988
0.000000 0.432990 0.180606
0.108522 0.432410 0.182254
0.199161 0.436194 0.177127
0.264469 0.440436 0.170199
0.323308 0.445472 0.161105
0.380041 0.450935 0.149783
0.436439 0.457008 0.134463
0.493721 0.463355 0.113466
0.557885 0.477852 0.031220
0.607477 0.491188 0.000000
0.656580 0.504082 0.000000
0.704433 0.516014 0.000000
0.750942 0.527306 0.000000
0.794949 0.537285 0.000000
0.835966 0.545708 0.000000
0.874784 0.552300 0.000000
0.912108 0.555444 0.000000
0.947631 0.558129 0.000000
0.981262 0.560266 0.000000
1.000000 0.562005 0.000000
1.000000 0.563226 0.000000
1.000000 0.564050 0.000000
1.000000 0.564508 0.000000
1.000000 0.564630 0.000000
1.000000 0.564263 0.000000
1.000000 0.563561 0.000000
0.000000 0.475715 0.192081
0.000000 0.475746 0.192050
0.000000 0.475624 0.192569
0.000000 0.475349 0.193088
0.000000 0.475013 0.193790
0.000000 0.474464 0.195193
0.000000 0.473823 0.196719
0.000000 0.472969 0.198367
0.163485 0.474434 0.197024
0.240940 0.478828 0.191135
0.304692 0.483833 0.183719
0.363806 0.489326 0.174685
0.421790 0.495491 0.162814
0.479530 0.502190 0.147311
0.538323 0.509392 0.125612
0.604883 0.523247 0.082918
0.655268 0.536675 0.000000
0.702815 0.548058 0.000000
0.748867 0.558526 0.000000
0.792172 0.567376 0.000000
0.832822 0.574823 0.000000
0.871519 0.581506 0.000000
0.908385 0.587701 0.000000
0.943694 0.591333 0.000000
0.977356 0.592645 0.000000
1.000000 0.593561 0.000000
1.000000 0.593957 0.000000
1.000000 0.593896 0.000000
1.000000 0.593439 0.000000
1.000000 0.592645 0.000000
1.000000 0.591455 0.000000
1.000000 0.589929 0.000000
0.000000 0.517327 0.207828
0.000000 0.517266 0.207828
0.000000 0.517266 0.208011
0.000000 0.516960 0.208194
0.000000 0.516686 0.209079
0.000000 0.516167 0.210208
0.000000 0.515587 0.211612
0.000000 0.514855 0.213321
0.102754 0.513878 0.215091
0.210452 0.517937 0.210513
0.282597 0.522942 0.204257
0.346044 0.528557 0.196353
0.405829 0.534752 0.186557
0.464942 0.541558 0.174289
0.524010 0.548669 0.157900
0.583703 0.555932 0.136904
0.650324 0.569268 0.098116
0.700679 0.580438 0.000000
0.746273 0.590082 0.000000
0.789212 0.598108 0.000000
0.829557 0.604730 0.000000
0.868162 0.610712 0.000000
0.905028 0.616114 0.000000
0.940002 0.620935 0.000000
0.973114 0.625086 0.000000
1.000000 0.625910 0.000000
1.000000 0.625483 0.000000
1.000000 0.624628 0.000000
1.000000 0.623377 0.000000
1.000000 0.621729 0.000000
1.000000 0.619745 0.000000
1.000000 0.617334 0.000000
0.000000 0.560021 0.221958
0.000000 0.560052 0.221927
0.000000 0.559930 0.222141
0.000000 0.559747 0.222538
0.000000 0.559442 0.223239
0.000000 0.558953 0.224125
0.000000 0.558434 0.225376
0.000000 0.557794 0.226932
0.000000 0.556909 0.228855
0.165347 0.557885 0.228397
0.254673 0.562676 0.223087
0.324559 0.567987 0.216281
0.387640 0.573816 0.208103
0.448219 0.580102 0.198184
0.507378 0.586664 0.185519
0.566827 0.593561 0.169894
0.627039 0.600671 0.148806
0.693202 0.613428 0.113619
0.743038 0.621851 0.000000
0.785580 0.629053 0.000000
0.825925 0.635126 0.000000
0.864469 0.640467 0.000000
0.901335 0.645197 0.000000
0.936339 0.649287 0.000000
0.969451 0.652705 0.000000
1.000000 0.655604 0.000000
1.000000 0.657649 0.000000
1.000000 0.656031 0.000000
1.000000 0.653986 0.000000
1.000000 0.651606 0.000000
1.000000 0.648829 0.000000
1.000000 0.645655 0.000000
0.000000 0.602136 0.235752
0.000000 0.602045 0.235874
0.000000 0.601984 0.236057
0.000000 0.601831 0.236393
0.000000 0.601495 0.236942
0.000000 0.601129 0.237736
0.000000 0.600580 0.238834
0.000000 0.599878 0.240391
0.000000 0.599084 0.242069
0.089265 0.598138 0.244114
0.217716 0.601434 0.240848
0.298070 0.606378 0.235172
0.365881 0.611749 0.228367
0.428534 0.617456 0.220066
0.489021 0.623529 0.209873
0.548547 0.629908 0.197696
0.607935 0.636530 0.182071
0.667811 0.643214 0.162539
0.733120 0.655055 0.131228
0.781491 0.659998 0.076600
0.821897 0.665766 0.000000
0.860655 0.670558 0.000000
0.897429 0.674708 0.000000
0.932403 0.678126 0.000000
0.965484 0.680934 0.000000
0.996826 0.683070 0.000000
1.000000 0.684657 0.000000
1.000000 0.685695 0.000000
1.000000 0.685176 0.000000
1.000000 0.682063 0.000000
1.000000 0.678553 0.000000
1.000000 0.674586 0.000000
0.000000 0.642390 0.250095
0.000000 0.642359 0.250095
0.000000 0.642237 0.250248
0.000000 0.642084 0.250584
0.000000 0.641840 0.251072
0.000000 0.641444 0.251926
0.000000 0.640955 0.252903
0.000000 0.640284 0.254154
0.000000 0.639551 0.255802
0.000000 0.638666 0.257603
0.163516 0.638727 0.258396
0.265537 0.643153 0.253788
0.340398 0.648066 0.247837
0.406592 0.653376 0.240970
0.468574 0.658961 0.232883
0.528466 0.664729 0.223087
0.587579 0.670619 0.211307
0.646418 0.676631 0.196811
0.705104 0.682521 0.178988
0.769680 0.693721 0.150912
0.817624 0.696315 0.116182
0.856260 0.700862 0.041108
0.893248 0.704463 0.000000
0.928161 0.707332 0.000000
0.961273 0.709438 0.000000
0.992554 0.710964 0.000000
1.000000 0.711910 0.000000
1.000000 0.712306 0.000000
1.000000 0.712245 0.000000
1.000000 0.711696 0.000000
1.000000 0.708705 0.000000
1.000000 0.704097 0.000000
0.000000 0.681209 0.264622
0.000000 0.681239 0.264775
0.000000 0.681178 0.264927
0.000000 0.680964 0.265232
0.000000 0.680720 0.265782
0.000000 0.680385 0.266484
0.000000 0.679927 0.267460
0.000000 0.679347 0.268498
0.000000 0.678645 0.269963
0.000000 0.677882 0.271763
0.079255 0.677058 0.273747
0.224308 0.679286 0.272038
0.311070 0.683680 0.267063
0.382116 0.688350 0.261387
0.446296 0.693324 0.254887
0.507378 0.698482 0.247105
0.566583 0.703822 0.237736
0.624781 0.709163 0.226871
0.682765 0.714534 0.213748
0.740444 0.719783 0.197787
0.804410 0.730617 0.172885
0.851774 0.730922 0.146639
0.888579 0.734188 0.114443
0.923644 0.736538 0.042329
0.956786 0.738186 0.000000
0.988067 0.739162 0.000000
1.000000 0.739498 0.000000
1.000000 0.739284 0.000000
1.000000 0.738582 0.000000
1.000000 0.737392 0.000000
1.000000 0.735714 0.000000
1.000000 0.733547 0.000000
0.000000 0.719020 0.280461
0.000000 0.718990 0.280461
0.000000 0.718959 0.280583
0.000000 0.718807 0.280858
0.000000 0.718593 0.281437
0.000000 0.718288 0.282078
0.000000 0.717922 0.282902
0.000000 0.717403 0.284092
0.000000 0.716793 0.285496
0.000000 0.716091 0.286992
0.000000 0.715297 0.288914
0.167880 0.714687 0.290776
0.277348 0.718532 0.286748
0.355627 0.722683 0.282017
0.423224 0.727016 0.276738
0.485573 0.731594 0.270542
0.545373 0.736294 0.263096
0.603449 0.741085 0.254276
0.660670 0.745876 0.244297
0.717403 0.750637 0.232273
0.773953 0.755245 0.217990
0.835264 0.764126 0.197024
0.882719 0.763088 0.182650
0.918730 0.765774 0.151949
0.951934 0.766964 0.123476
0.983398 0.767453 0.079744
1.000000 0.767300 0.000000
1.000000 0.766567 0.000000
1.000000 0.765286 0.000000
1.000000 0.763485 0.000000
1.000000 0.761227 0.000000
1.000000 0.758419 0.000000
0.000000 0.755489 0.297612
0.000000 0.755489 0.297612
0.000000 0.755459 0.297704
0.000000 0.755306 0.297978
0.000000 0.755123 0.298436
0.000000 0.754849 0.299168
0.000000 0.754543 0.299840
0.000000 0.754055 0.301030
0.000000 0.753536 0.302281
0.000000 0.752926 0.303807
0.000000 0.752163 0.305669
0.108400 0.751369 0.307805
0.237675 0.752621 0.307225
0.326543 0.756191 0.303380
0.398840 0.760006 0.299199
0.463355 0.764034 0.293889
0.523827 0.768154 0.288029
0.582238 0.772335 0.280949
0.638941 0.776547 0.273167
0.694942 0.780758 0.263554
0.750362 0.784817 0.252873
0.805478 0.788724 0.240116
0.863157 0.794949 0.222904
0.911559 0.794491 0.212436
0.946838 0.795590 0.184848
0.978241 0.795712 0.163973
1.000000 0.795102 0.138552
1.000000 0.793881 0.109346
1.000000 0.792111 0.035523
1.000000 0.789822 0.000000
1.000000 0.786984 0.000000
1.000000 0.783597 0.000000
0.000000 0.790646 0.316350
0.000000 0.790646 0.316411
0.000000 0.790585 0.316533
0.000000 0.790463 0.316777
0.000000 0.790311 0.317266
0.000000 0.790066 0.317845
0.000000 0.789761 0.318761
0.000000 0.789364 0.319829
0.000000 0.788846 0.320867
0.000000 0.788327 0.322454
0.000000 0.787655 0.324132
0.000000 0.786954 0.326177
0.193027 0.786160 0.328405
0.295750 0.788846 0.325811
0.373754 0.792172 0.322087
0.440894 0.795651 0.317906
0.502678 0.799191 0.313085
0.561120 0.802792 0.307591
0.617609 0.806485 0.301152
0.672999 0.810117 0.293706
0.727596 0.813657 0.285069
0.781430 0.817075 0.275303
0.835050 0.820279 0.263676
0.889403 0.824247 0.249424
0.938293 0.824887 0.239109
0.972930 0.823789 0.215457
1.000000 0.822812 0.198398
1.000000 0.821195 0.178714
1.000000 0.818997 0.156558
1.000000 0.816220 0.129580
1.000000 0.812924 0.083925
1.000000 0.808988 0.000000
0.000000 0.824338 0.337102
0.000000 0.824338 0.337072
0.000000 0.824247 0.337346
0.000000 0.824216 0.337469
0.000000 0.824033 0.337926
0.000000 0.823819 0.338506
0.000000 0.823484 0.339300
0.000000 0.823148 0.340154
0.000000 0.822721 0.341405
0.000000 0.822202 0.342931
0.000000 0.821683 0.344518
0.000000 0.821012 0.346532
0.162417 0.820279 0.348516
0.263676 0.820645 0.349218
0.348669 0.823453 0.346380
0.418921 0.826383 0.342901
0.482063 0.829435 0.339055
0.540948 0.832517 0.334478
0.597284 0.835630 0.329290
0.652003 0.838712 0.323247
0.705684 0.841733 0.316411
0.758511 0.844663 0.308507
0.810880 0.847410 0.299351
0.862791 0.849973 0.288640
0.914427 0.852293 0.276280
0.963256 0.853666 0.265751
0.997131 0.850248 0.245029
1.000000 0.848417 0.230289
1.000000 0.845792 0.213016
1.000000 0.842557 0.193362
1.000000 0.838834 0.172549
1.000000 0.834470 0.143008
0.000000 0.856596 0.359686
0.000000 0.856535 0.359869
0.000000 0.856504 0.359930
0.000000 0.856413 0.360113
0.000000 0.856291 0.360510
0.000000 0.856077 0.361120
0.000000 0.855833 0.361944
0.000000 0.855528 0.362890
0.000000 0.855131 0.364111
0.000000 0.854704 0.365515
0.000000 0.854185 0.367163
0.000000 0.853605 0.368963
0.134951 0.852934 0.371130
0.239963 0.852232 0.373541
0.325597 0.853819 0.372229
0.398657 0.856229 0.369390
0.462989 0.858762 0.366155
0.522271 0.861357 0.362432
0.578363 0.863951 0.358099
0.632471 0.866514 0.353277
0.685176 0.869047 0.347539
0.736904 0.871458 0.341131
0.787991 0.873777 0.333593
0.838529 0.875914 0.325078
0.888670 0.877806 0.315007
0.938598 0.879515 0.303502
0.986389 0.880735 0.292821
1.000000 0.875212 0.273808
1.000000 0.872374 0.260075
1.000000 0.868864 0.244541
1.000000 0.864652 0.226658
1.000000 0.859892 0.208133
0.000000 0.887327 0.384894
0.000000 0.887327 0.384863
0.000000 0.887297 0.385077
0.000000 0.887236 0.385229
0.000000 0.887114 0.385657
0.000000 0.886931 0.386267
0.000000 0.886687 0.387091
0.000000 0.886412 0.387945
0.000000 0.886046 0.389105
0.000000 0.885649 0.390448
0.000000 0.885191 0.392096
0.000000 0.884642 0.394018
0.123903 0.884092 0.396155
0.234195 0.883452 0.398535
0.307134 0.883207 0.400244
0.382361 0.885191 0.397925
0.447089 0.887236 0.395239
0.506126 0.889372 0.392004
0.561669 0.891478 0.388495
0.614923 0.893553 0.384314
0.666682 0.895598 0.379553
0.717220 0.897581 0.374060
0.766903 0.899443 0.367864
0.816037 0.901122 0.360632
0.864622 0.902647 0.352300
0.912963 0.903960 0.342779
0.960937 0.904997 0.331640
1.000000 0.906249 0.320928
1.000000 0.898589 0.302464
1.000000 0.894865 0.289647
1.000000 0.890379 0.275425
1.000000 0.885039 0.258671
0.000000 0.916655 0.412726
0.000000 0.916655 0.412726
0.000000 0.916625 0.412726
0.000000 0.916564 0.413153
0.000000 0.916442 0.413489
0.000000 0.916289 0.414099
0.000000 0.916075 0.414862
0.000000 0.915831 0.415717
0.000000 0.915526 0.416907
0.000000 0.915160 0.418372
0.000000 0.914702 0.419959
0.000000 0.914244 0.421851
0.142061 0.913725 0.423957
0.240513 0.913176 0.426307
0.307164 0.912505 0.429023
0.372534 0.913207 0.428931
0.436316 0.914855 0.426642
0.494331 0.916533 0.423865
0.548760 0.918212 0.420844
0.600641 0.919829 0.417212
0.650874 0.921447 0.413184
0.700008 0.922972 0.408484
0.748074 0.924407 0.403021
0.795621 0.925689 0.396826
0.842679 0.926787 0.389746
0.889220 0.927733 0.381415
0.935607 0.928435 0.371984
0.981659 0.928862 0.361059
1.000000 0.930144 0.349645
1.000000 0.920195 0.337926
1.000000 0.915526 0.318914
1.000000 0.909728 0.304692
0.000000 0.944549 0.443793
0.000000 0.944549 0.443854
0.000000 0.944518 0.443915
0.000000 0.944457 0.444251
0.000000 0.944366 0.444648
0.000000 0.944213 0.445228
0.000000 0.944030 0.445930
0.000000 0.943816 0.446967
0.000000 0.943542 0.448188
0.000000 0.943206 0.449531
0.000000 0.942840 0.451301
0.000000 0.942412 0.453162
0.185885 0.941955 0.455390
0.263005 0.941436 0.457801
0.322210 0.940856 0.460578
0.373236 0.940307 0.463416
0.433783 0.941558 0.461402
0.489265 0.942809 0.458991
0.541253 0.944060 0.456306
0.591089 0.945312 0.453162
0.639338 0.946471 0.449500
0.686458 0.947601 0.445411
0.732601 0.948577 0.440467
0.778195 0.949462 0.435035
0.823209 0.950225 0.428687
0.867979 0.950774 0.421393
0.912413 0.951080 0.413062
0.956603 0.951202 0.403540
1.000000 0.950927 0.392126
1.000000 0.952117 0.379553
1.000000 0.939757 0.373053
1.000000 0.933867 0.347723
0.000000 0.970855 0.478798
0.000000 0.970855 0.478798
0.000000 0.970825 0.478950
0.000000 0.970794 0.479194
0.000000 0.970703 0.479622
0.000000 0.970550 0.480262
0.000000 0.970428 0.481086
0.000000 0.970214 0.482033
0.000000 0.969940 0.483253
0.000000 0.969665 0.484688
0.000000 0.969329 0.486427
0.165316 0.968963 0.488319
0.242588 0.968536 0.490547
0.300450 0.968048 0.492988
