luts/日系自然[一麻]09.cube
# Created by Adobe Lightroom plugin Export LUT (1.24.0)
# www.johnrellis.com/lightroom/exportlut.htm
# Preset: 日系自然[一麻]09
# Color profile: C:\Program Files (x86)\Common Files\Adobe\Color\Profiles\Recommended\VideoHD.icc
LUT_3D_SIZE 5
DOMAIN_MIN 0.000000 0.000000 0.000000
DOMAIN_MAX 0.903226 0.903226 0.903226
0.000000 0.000000 0.000000
0.327367 0.070893 0.000000
0.686915 0.129549 0.000000
0.988006 0.155184 0.000000
1.000000 0.162631 0.000000
0.000000 0.315251 0.150790
0.288609 0.347723 0.000000
0.670954 0.336584 0.000000
0.976684 0.325566 0.000000
1.000000 0.296788 0.000000
0.337835 0.659754 0.353246
0.411963 0.657435 0.363043
0.668421 0.693782 0.000000
0.957153 0.609857 0.000000
1.000000 0.527459 0.000000
0.620478 0.860258 0.566766
0.646296 0.860380 0.574487
0.700069 0.869596 0.528832
0.881132 0.878660 0.250370
1.000000 0.787930 0.000000
0.787991 0.966461 0.731258
0.797238 0.966033 0.734371
0.827237 0.961608 0.740505
0.860166 0.977539 0.655726
1.000000 0.987396 0.400092
0.000000 0.006653 0.284306
0.302953 0.000000 0.279698
0.655970 0.000000 0.224765
0.958160 0.147311 0.189456
1.000000 0.172183 0.124819
0.013275 0.319982 0.255100
0.276249 0.333806 0.258183
0.645319 0.324071 0.215244
0.951202 0.318334 0.171084
1.000000 0.298161 0.101534
0.361669 0.645441 0.397253
0.432563 0.647211 0.409796
0.644587 0.671046 0.259098
0.935546 0.595575 0.036622
1.000000 0.529076 0.000000
0.641688 0.859312 0.595605
0.666285 0.860105 0.603510
0.722011 0.867582 0.580743
0.880491 0.876310 0.358770
1.000000 0.787228 0.000000
0.797055 0.967010 0.746242
0.805753 0.966522 0.748989
0.840360 0.965240 0.761929
0.871031 0.978393 0.690089
1.000000 0.988586 0.467384
0.000000 0.038422 0.544427
0.282109 0.015991 0.540795
0.620844 0.000000 0.526940
0.923461 0.000000 0.490150
1.000000 0.074128 0.421302
0.000000 0.336889 0.530755
0.241215 0.313085 0.528557
0.619806 0.298192 0.519463
0.918791 0.283330 0.475807
1.000000 0.322820 0.426886
0.263828 0.619715 0.495827
0.380713 0.618799 0.497841
0.610071 0.632746 0.500755
0.898924 0.599329 0.465095
1.000000 0.566979 0.438880
0.675380 0.851835 0.663111
0.692226 0.851682 0.665644
0.772335 0.859220 0.696468
0.877684 0.869169 0.573968
1.000000 0.789792 0.433570
0.816190 0.968627 0.788785
0.825406 0.968627 0.792325
0.859037 0.968048 0.805386
0.893370 0.974945 0.778378
1.000000 0.986023 0.615991
0.000000 0.123140 0.767758
0.209873 0.121462 0.766354
0.569543 0.091798 0.761776
0.880186 0.000000 0.749416
1.000000 0.112398 0.686519
0.000000 0.308721 0.761563
0.175051 0.307073 0.760128
0.561303 0.296300 0.753658
0.873625 0.270695 0.740536
1.000000 0.302464 0.681849
0.000000 0.607874 0.736355
0.196231 0.604181 0.735317
0.555169 0.589502 0.731075
0.857755 0.580072 0.721126
1.000000 0.583642 0.683589
0.544305 0.830716 0.714626
0.581201 0.828885 0.714992
0.702937 0.826535 0.723354
0.845029 0.837217 0.730831
1.000000 0.802457 0.697658
0.815061 0.971160 0.839017
0.828489 0.971557 0.844541
0.880217 0.974243 0.870054
0.929137 0.975433 0.889525
1.000000 0.985229 0.792782
0.000000 0.167727 0.977905
0.000000 0.166781 0.977173
0.475105 0.155459 0.973968
0.787259 0.106874 0.968536
1.000000 0.000000 0.961334
0.000000 0.308782 0.975525
0.000000 0.307958 0.974853
0.473335 0.302770 0.971954
0.786038 0.288029 0.966827
1.000000 0.270237 0.959930
0.000000 0.592767 0.964355
0.204715 0.586816 0.964385
0.497322 0.570886 0.963256
0.786679 0.564202 0.959258
1.000000 0.553033 0.953460
0.315129 0.824125 0.947662
0.378943 0.822751 0.948089
0.551537 0.814572 0.949584
0.787625 0.800931 0.948913
1.000000 0.792142 0.944427
0.698726 0.985290 0.922057
0.717891 0.984771 0.923186
0.788571 0.982605 0.928008
0.896422 0.980377 0.940520
0.989990 0.985992 0.960449
