luts/日系自然[一麻]04.cube
# Created by Adobe Lightroom plugin Export LUT (1.24.0)
# www.johnrellis.com/lightroom/exportlut.htm
# Preset: 日系自然[一麻]04
# Color profile: C:\Program Files (x86)\Common Files\Adobe\Color\Profiles\Recommended\VideoHD.icc
LUT_3D_SIZE 5
DOMAIN_MIN 0.000000 0.000000 0.000000
DOMAIN_MAX 0.903226 0.903226 0.903226
0.000000 0.000000 0.000000
0.268070 0.015473 0.000000
0.546868 0.088411 0.000000
0.826749 0.128939 0.000000
1.000000 0.143648 0.000000
0.000000 0.253422 0.079438
0.253208 0.280186 0.000000
0.538689 0.266941 0.000000
0.825681 0.279728 0.000000
1.000000 0.271733 0.000000
0.000000 0.518730 0.195254
0.153292 0.512230 0.202884
0.535332 0.585687 0.000000
0.823514 0.541711 0.000000
1.000000 0.493568 0.000000
0.000000 0.765438 0.310643
0.000000 0.763546 0.315831
0.418494 0.777279 0.269566
0.770169 0.815976 0.000000
1.000000 0.749386 0.000000
0.185306 0.949859 0.489296
0.280217 0.948852 0.492744
0.469032 0.940154 0.498116
0.652186 0.960998 0.357366
0.949248 0.970550 0.000000
0.000000 0.000000 0.272892
0.254154 0.000000 0.270909
0.525536 0.000000 0.245029
0.807431 0.000000 0.215579
1.000000 0.103822 0.181216
0.000000 0.255589 0.261631
0.232486 0.262791 0.257939
0.520562 0.252903 0.233402
0.805478 0.257847 0.208957
1.000000 0.256626 0.174777
0.000000 0.517906 0.292821
0.157900 0.513451 0.296910
0.512383 0.562982 0.203189
0.802457 0.522057 0.174380
1.000000 0.490181 0.144961
0.000000 0.765957 0.376257
0.000000 0.764492 0.380468
0.427192 0.771267 0.364446
0.765713 0.812009 0.121706
1.000000 0.745876 0.000000
0.231174 0.949706 0.525566
0.307347 0.948486 0.528283
0.492317 0.944701 0.542168
0.664088 0.961578 0.437873
0.951507 0.972076 0.000000
0.000000 0.000000 0.538872
0.202731 0.000000 0.537377
0.504051 0.000000 0.530785
0.765743 0.000000 0.518334
1.000000 0.000000 0.472023
0.000000 0.262852 0.534356
0.149935 0.246525 0.532647
0.497566 0.233402 0.526787
0.765896 0.217685 0.511131
1.000000 0.176608 0.464851
0.000000 0.511040 0.520195
0.140017 0.512505 0.517540
0.464576 0.517967 0.505852
0.763088 0.512688 0.492256
1.000000 0.504448 0.475837
0.157839 0.764553 0.581598
0.284916 0.761105 0.578393
0.462348 0.758572 0.558343
0.749233 0.797299 0.501366
1.000000 0.737484 0.462531
0.301579 0.948974 0.630518
0.360449 0.948272 0.633143
0.520684 0.944732 0.642664
0.690852 0.951568 0.617731
0.947753 0.967834 0.444312
0.000000 0.006104 0.774166
0.000000 0.000000 0.773739
0.458595 0.000000 0.771206
0.736873 0.000000 0.765255
0.978637 0.000000 0.740810
0.000000 0.241245 0.770993
0.000000 0.238499 0.770199
0.446509 0.225864 0.766995
0.730617 0.196109 0.759976
0.973510 0.170809 0.735775
0.000000 0.519066 0.756832
0.000000 0.514427 0.756039
0.403113 0.490639 0.754879
0.715358 0.482094 0.748318
0.960235 0.480262 0.726406
0.000000 0.739284 0.750759
0.150362 0.739406 0.748836
0.450080 0.743404 0.744472
0.692531 0.745632 0.730709
0.959228 0.747738 0.730129
0.387335 0.950042 0.804044
0.434638 0.949432 0.803220
0.582940 0.947784 0.802060
0.728878 0.944640 0.788418
0.945220 0.962860 0.738155
0.000000 0.041657 0.965362
0.000000 0.016724 0.964843
0.375708 0.000000 0.963531
0.668788 0.000000 0.960754
0.934051 0.000000 0.957061
0.000000 0.232670 0.963439
0.000000 0.230198 0.963073
0.363500 0.219577 0.961730
0.664363 0.190677 0.958984
0.932311 0.114626 0.955535
0.000000 0.492073 0.957641
0.000000 0.472023 0.958190
0.320256 0.466194 0.956878
0.649531 0.456825 0.954162
0.928099 0.442054 0.951659
0.000000 0.728206 0.948638
0.000000 0.728817 0.948150
0.314366 0.731350 0.947112
0.639918 0.716701 0.947326
0.923522 0.710903 0.945373
0.260868 0.923125 0.942870
0.329198 0.924010 0.942626
0.509148 0.928283 0.942290
0.716762 0.935363 0.940887
0.919005 0.939055 0.932769
