luts/日系自然[一麻]05.cube
# Created by Adobe Lightroom plugin Export LUT (1.24.0)
# www.johnrellis.com/lightroom/exportlut.htm
# Preset: 日系自然[一麻]05
# Color profile: C:\Program Files (x86)\Common Files\Adobe\Color\Profiles\Recommended\VideoHD.icc
LUT_3D_SIZE 8
DOMAIN_MIN 0.000000 0.000000 0.000000
DOMAIN_MAX 0.903226 0.903226 0.903226
0.000000 0.000000 0.000000
0.142550 0.003479 0.000000
0.314244 0.023011 0.000000
0.474678 0.066255 0.000000
0.639796 0.103822 0.000000
0.799283 0.124880 0.000000
0.943023 0.139437 0.000000
1.000000 0.144656 0.000000
0.049348 0.129397 0.082704
0.135409 0.146731 0.013458
0.308354 0.152346 0.000000
0.466346 0.160372 0.000000
0.630335 0.173892 0.000000
0.790677 0.184390 0.000000
0.931487 0.190433 0.000000
1.000000 0.189548 0.000000
0.127901 0.289311 0.170535
0.176638 0.290745 0.178500
0.294041 0.318151 0.023560
0.467048 0.313939 0.000000
0.630671 0.311131 0.000000
0.797513 0.317357 0.000000
0.938323 0.314153 0.000000
1.000000 0.304173 0.000000
0.226017 0.459998 0.285954
0.254795 0.461341 0.290867
0.326177 0.476265 0.272557
0.469032 0.504173 0.120302
0.654627 0.499458 0.000000
0.804959 0.470680 0.000000
0.935271 0.451698 0.000000
1.000000 0.432898 0.000000
0.331823 0.642817 0.406073
0.352483 0.644190 0.409949
0.427741 0.652155 0.428534
0.495949 0.667536 0.356451
0.637385 0.674525 0.184482
0.792996 0.643519 0.000000
0.922423 0.602899 0.000000
1.000000 0.561395 0.000000
0.467750 0.778805 0.536248
0.483680 0.782284 0.542657
0.531884 0.786130 0.556786
0.586603 0.793942 0.548882
0.644312 0.801236 0.451759
0.773098 0.802060 0.280522
0.916838 0.766323 0.000000
1.000000 0.718166 0.000000
0.607385 0.878813 0.662013
0.615106 0.879637 0.664790
0.642695 0.880888 0.673030
0.692653 0.883940 0.690059
0.714107 0.890043 0.644984
0.767727 0.895933 0.551812
0.881224 0.896422 0.383429
1.000000 0.859983 0.000000
0.718502 0.948333 0.759335
0.722438 0.948363 0.760433
0.739101 0.948669 0.765530
0.770382 0.949462 0.775814
0.794766 0.949645 0.768551
0.814176 0.957610 0.719387
0.865904 0.964538 0.635492
0.967681 0.966644 0.472145
0.000000 0.000916 0.152590
0.142061 0.000000 0.151644
0.306310 0.000000 0.141726
0.461158 0.000000 0.122103
0.625269 0.051301 0.099184
0.786191 0.097658 0.020508
0.925780 0.121187 0.000000
1.000000 0.130465 0.000000
0.000000 0.140169 0.143038
0.131533 0.149264 0.146761
0.301183 0.146395 0.135409
0.458991 0.148898 0.117952
0.622705 0.159548 0.092836
0.784360 0.170382 0.002564
0.920378 0.178256 0.000000
1.000000 0.179934 0.000000
0.135317 0.290745 0.207980
0.180636 0.292607 0.214908
0.287999 0.314092 0.161715
0.458869 0.304662 0.101595
0.621546 0.303563 0.038270
0.784787 0.308293 0.000000
0.920775 0.305364 0.000000
1.000000 0.296971 0.000000
0.223911 0.452216 0.301671
0.252506 0.454231 0.306462
0.327337 0.468269 0.304265
0.453986 0.490028 0.189425
0.632868 0.481971 0.000000
0.783474 0.455390 0.000000
0.916350 0.442023 0.000000
1.000000 0.426307 0.000000
0.329107 0.636927 0.415717
0.349096 0.637873 0.419074
0.422827 0.644923 0.436286
0.490181 0.657893 0.376684
0.625116 0.663172 0.227451
0.781003 0.633936 0.000000
0.912566 0.595666 0.000000
1.000000 0.557305 0.000000
0.463600 0.773129 0.539483
0.476539 0.774319 0.543145
0.525200 0.778714 0.557336
0.585657 0.787533 0.558373
0.640589 0.795743 0.466499
0.768002 0.797940 0.308110
0.911467 0.762448 0.000000
1.000000 0.714778 0.000000
0.603388 0.875090 0.662348
0.609461 0.874968 0.663691
0.637110 0.876310 0.671809
0.688167 0.880034 0.689631
0.713710 0.887083 0.651484
0.765438 0.892943 0.561578
0.876646 0.892699 0.398352
1.000000 0.856291 0.000000
0.716060 0.946593 0.759487
0.720760 0.946960 0.761227
0.737362 0.947265 0.766262
0.768917 0.948211 0.776669
0.800626 0.950805 0.777615
0.817319 0.957946 0.728115
0.866453 0.964141 0.644862
0.966888 0.966247 0.486793
0.000000 0.000000 0.319463
0.117861 0.000000 0.319097
0.296391 0.000000 0.315190
0.448219 0.000000 0.307713
0.618219 0.000000 0.287327
0.788022 0.000000 0.255192
0.925200 0.068086 0.256443
1.000000 0.114412 0.238529
0.000000 0.153475 0.315953
0.079744 0.143893 0.315526
0.291417 0.139101 0.311620
0.445350 0.133059 0.302251
0.615900 0.037140 0.277317
0.780453 0.134524 0.266209
0.920043 0.157626 0.252903
1.000000 0.169894 0.234745
0.000000 0.290196 0.295232
0.133303 0.293462 0.296361
0.270390 0.305180 0.299351
0.442939 0.297429 0.285313
0.615869 0.296605 0.273747
0.781552 0.298619 0.262181
0.918822 0.298741 0.248539
1.000000 0.294011 0.230442
0.214878 0.444190 0.358282
0.245884 0.448432 0.362493
0.332128 0.463447 0.377600
0.443214 0.484108 0.323064
0.625116 0.470222 0.269108
0.779965 0.452583 0.252903
0.916075 0.442206 0.239689
1.000000 0.427619 0.220920
0.316350 0.627588 0.453620
0.338811 0.629633 0.457771
0.416724 0.639246 0.476295
0.501030 0.655787 0.467781
0.619928 0.661097 0.352239
0.776211 0.628931 0.249210
0.908721 0.590509 0.229129
1.000000 0.559350 0.203433
0.467262 0.768612 0.569726
0.480446 0.770108 0.573419
0.528527 0.775113 0.587457
0.607813 0.784787 0.614801
0.646784 0.792691 0.539361
0.762142 0.794522 0.408057
0.905425 0.759396 0.248356
1.000000 0.713497 0.203494
0.612787 0.875669 0.685847
0.618891 0.875731 0.687282
0.645563 0.876982 0.694759
0.694972 0.880766 0.711421
0.730037 0.887144 0.695277
0.772671 0.893187 0.617762
0.876341 0.893828 0.482002
1.000000 0.857908 0.232242
0.722774 0.947478 0.774472
0.726345 0.947387 0.775265
0.742733 0.947784 0.780148
0.774868 0.949310 0.791226
0.814542 0.950866 0.802976
0.827787 0.958190 0.758938
0.871702 0.964508 0.685084
0.966613 0.966735 0.547662
0.000000 0.000000 0.471901
0.000000 0.000000 0.472602
0.274571 0.000000 0.469673
0.440162 0.000000 0.465156
0.593042 0.000000 0.459571
0.758419 0.000000 0.451026
0.908080 0.000000 0.421424
1.000000 0.000000 0.381781
0.000000 0.142580 0.472084
0.000000 0.140871 0.471565
0.267338 0.134279 0.468971
0.438972 0.119661 0.464820
0.592645 0.103487 0.458167
0.759182 0.000000 0.448249
0.907378 0.000000 0.417700
1.000000 0.000000 0.378515
0.000000 0.314153 0.462501
0.000000 0.310735 0.462043
0.233646 0.293187 0.460822
0.427039 0.287694 0.456611
0.589685 0.287846 0.452644
0.764767 0.266911 0.436805
0.914611 0.254093 0.407324
1.000000 0.312749 0.409583
0.000000 0.432258 0.438300
0.121401 0.433783 0.438697
0.263462 0.441352 0.441291
0.406165 0.455390 0.445075
0.593194 0.450202 0.434516
0.756313 0.448341 0.426184
0.899321 0.445869 0.417304
1.000000 0.438178 0.403693
0.265049 0.596277 0.505211
0.289830 0.598627 0.506889
0.377722 0.609857 0.517754
0.499977 0.636347 0.549615
0.599817 0.647364 0.488380
0.758816 0.615961 0.432502
0.897215 0.587243 0.415351
1.000000 0.569268 0.399420
0.472084 0.754940 0.615351
0.481605 0.759060 0.617945
0.517723 0.766171 0.624079
0.602808 0.779232 0.652522
0.665858 0.791836 0.643366
0.753658 0.790646 0.539300
0.894774 0.755795 0.437018
1.000000 0.712886 0.405768
0.612634 0.872770 0.713985
0.620203 0.873594 0.716426
0.649775 0.876585 0.725734
0.701625 0.882231 0.743557
0.762631 0.890013 0.763790
0.786893 0.894957 0.700557
0.874144 0.894347 0.592828
1.000000 0.858915 0.433753
0.731136 0.949920 0.798825
0.735042 0.950011 0.799924
0.751644 0.950500 0.804776
0.782742 0.951720 0.814664
0.824674 0.953338 0.828916
0.845823 0.958679 0.807736
0.880247 0.964965 0.746304
0.966003 0.967590 0.636255
0.000000 0.000000 0.625116
0.000000 0.000000 0.625513
0.236393 0.000000 0.623346
0.424537 0.000000 0.620081
0.587640 0.000000 0.615778
0.739925 0.000000 0.608179
0.874022 0.000000 0.588983
1.000000 0.000000 0.563622
0.000000 0.140352 0.624781
0.000000 0.138582 0.625330
0.227054 0.130312 0.623499
0.420844 0.109590 0.619287
0.587366 0.039765 0.615991
0.739193 0.000000 0.607080
0.873960 0.000000 0.587732
1.000000 0.000000 0.562127
0.000000 0.304631 0.618982
0.000000 0.290501 0.619532
0.174838 0.285924 0.617456
0.405371 0.279820 0.615137
0.580194 0.270054 0.610956
0.730251 0.264958 0.598169
0.871153 0.260166 0.580529
1.000000 0.244694 0.555077
0.000000 0.460609 0.606500
0.000000 0.460761 0.606836
0.056733 0.459907 0.608850
0.372290 0.441108 0.607507
0.567773 0.435798 0.602960
0.718410 0.436744 0.588891
0.871244 0.429969 0.572625
1.000000 0.423224 0.549584
0.000000 0.569940 0.576776
0.106264 0.571313 0.577478
0.258549 0.576165 0.579095
0.401709 0.585718 0.581903
0.541588 0.598230 0.584161
0.712825 0.595758 0.578180
0.864530 0.593805 0.572534
0.997345 0.586755 0.562432
0.341619 0.708156 0.627253
0.359899 0.710079 0.628931
0.424903 0.716762 0.635187
0.528740 0.732418 0.652705
0.646479 0.761318 0.690242
0.725856 0.770138 0.640192
0.869352 0.742580 0.586542
0.997375 0.710292 0.563684
0.575067 0.853696 0.733272
0.583276 0.854307 0.734707
0.617823 0.858366 0.742550
0.668330 0.869444 0.755032
0.749996 0.882444 0.785794
0.798520 0.892027 0.777310
0.865354 0.889677 0.689509
0.988251 0.855039 0.585657
0.719661 0.946960 0.817472
0.721981 0.947356 0.817441
0.737087 0.948608 0.820523
0.775418 0.951476 0.833341
0.823270 0.954437 0.849638
0.868772 0.958343 0.861936
0.889036 0.964324 0.811398
0.962646 0.966583 0.722164
0.000000 0.005310 0.758480
0.000000 0.000000 0.758602
0.164126 0.000000 0.756374
0.388037 0.000000 0.753719
0.561700 0.000000 0.752987
0.720119 0.000000 0.748775
0.868315 0.000000 0.739376
0.993927 0.000000 0.715480
0.000000 0.141421 0.754177
0.000000 0.139651 0.753780
0.147646 0.133333 0.752224
0.382696 0.117250 0.750637
0.557092 0.072175 0.748684
0.716060 0.000000 0.744869
0.864164 0.000000 0.735592
0.990417 0.000000 0.712581
0.000000 0.286137 0.753780
0.000000 0.285863 0.753475
0.000000 0.283299 0.752926
0.367010 0.277195 0.749538
0.549218 0.268315 0.746395
0.712459 0.256229 0.742367
0.861021 0.247959 0.732204
0.986999 0.249119 0.709743
0.000000 0.462135 0.748074
0.000000 0.460365 0.747494
0.000000 0.453803 0.746731
0.339239 0.435462 0.747890
0.537987 0.431769 0.745205
0.708370 0.425910 0.740627
0.855253 0.425330 0.728084
0.982635 0.425391 0.708125
0.000000 0.591241 0.727382
0.000000 0.591699 0.727535
0.000000 0.593866 0.728542
0.322179 0.598474 0.731167
0.513909 0.585687 0.729549
0.689723 0.580499 0.725368
0.833371 0.579278 0.713313
0.976074 0.575097 0.699611
0.174868 0.692348 0.699916
0.210391 0.694026 0.701015
0.303655 0.696864 0.701625
0.418799 0.702724 0.703090
0.542077 0.711421 0.705104
0.670527 0.725032 0.709895
0.834592 0.728939 0.711849
0.972503 0.727291 0.708766
0.433845 0.819760 0.749538
0.446967 0.821347 0.750942
0.493812 0.826017 0.755032
0.575311 0.835843 0.764767
0.681819 0.852964 0.785367
0.796292 0.881285 0.826352
0.853269 0.882750 0.777798
0.973632 0.852445 0.721279
0.664698 0.937041 0.833188
0.670283 0.937285 0.833921
0.695430 0.939239 0.838468
0.744594 0.944244 0.850034
0.802487 0.952300 0.865171
0.869596 0.959136 0.889647
0.905119 0.965148 0.881468
0.960143 0.966583 0.810208
0.000000 0.037934 0.869657
0.000000 0.032044 0.869596
0.000000 0.006409 0.869017
0.338140 0.000000 0.867887
0.517540 0.000000 0.865629
0.679744 0.000000 0.862608
0.832395 0.000000 0.859068
0.981262 0.000000 0.853605
0.000000 0.145205 0.869200
0.000000 0.144167 0.869108
0.000000 0.138949 0.868437
0.334173 0.126497 0.867155
0.515526 0.100069 0.865019
0.678584 0.000000 0.862058
0.831785 0.000000 0.858549
0.980529 0.000000 0.852873
0.000000 0.280156 0.867277
0.000000 0.279881 0.867094
0.000000 0.277806 0.866423
0.317144 0.273472 0.865110
0.507378 0.266300 0.863035
0.673945 0.254429 0.860258
0.829557 0.238926 0.856870
0.978180 0.220920 0.850278
0.000000 0.443091 0.862242
0.000000 0.436072 0.862150
0.000000 0.422797 0.862272
0.286656 0.420661 0.861021
0.493416 0.417090 0.859129
0.665827 0.411841 0.856565
0.825071 0.405066 0.853391
0.972015 0.399451 0.844877
0.000000 0.592798 0.854063
0.000000 0.592279 0.853941
0.000000 0.590326 0.853666
0.301946 0.587518 0.853056
0.479286 0.570123 0.852842
0.655512 0.566003 0.850523
0.817960 0.560693 0.847562
0.961517 0.557580 0.837034
0.000000 0.710994 0.837766
0.000000 0.711543 0.837949
0.088411 0.713497 0.838651
0.323888 0.717098 0.840146
0.481361 0.721981 0.842741
0.645045 0.712001 0.842344
0.809079 0.707607 0.839384
0.946868 0.705348 0.828702
0.293370 0.807279 0.817624
0.309270 0.807797 0.817716
0.367559 0.809720 0.818173
0.457465 0.813718 0.819150
0.564172 0.819944 0.820737
0.679438 0.828611 0.823301
0.797757 0.839719 0.827207
0.947539 0.845121 0.832364
0.514458 0.917601 0.858793
0.523156 0.918120 0.859129
0.558526 0.920409 0.860899
0.622919 0.925139 0.865080
0.711238 0.933257 0.874205
0.816251 0.946349 0.893919
0.916442 0.964813 0.929870
0.957671 0.966644 0.891447
0.000000 0.080415 0.975677
0.000000 0.076997 0.975586
0.000000 0.054505 0.975128
0.275242 0.007141 0.974273
0.472663 0.000000 0.972961
0.637446 0.000000 0.971283
0.794522 0.000000 0.969177
0.944121 0.000000 0.966827
0.000000 0.150881 0.975280
0.000000 0.149935 0.975189
0.000000 0.145541 0.974762
0.270787 0.136080 0.973938
0.470832 0.116945 0.972656
0.636439 0.060822 0.970977
0.793851 0.000000 0.968902
0.943816 0.000000 0.966491
0.000000 0.277440 0.973907
0.000000 0.276829 0.973816
0.000000 0.275303 0.973388
0.253422 0.271946 0.972625
0.463691 0.265568 0.971435
0.632380 0.255589 0.969787
0.791470 0.239078 0.967773
0.942718 0.216800 0.965454
0.000000 0.415991 0.971221
0.000000 0.415808 0.971130
0.000000 0.414954 0.970764
0.222751 0.413245 0.970062
0.452155 0.410132 0.968963
0.625574 0.405310 0.967437
0.787228 0.397528 0.965545
0.940398 0.387823 0.963317
0.000000 0.584619 0.964935
0.000000 0.584497 0.964904
0.000000 0.584436 0.964752
0.200595 0.560266 0.965972
0.443366 0.557977 0.964965
0.619471 0.554437 0.963561
0.782193 0.549157 0.961852
0.937041 0.542535 0.959716
0.000000 0.713527 0.957824
0.000000 0.713771 0.957946
0.000000 0.714626 0.958404
0.239414 0.714382 0.958556
0.468482 0.713802 0.958129
0.617975 0.699489 0.958282
0.778836 0.695735 0.956634
0.933196 0.690700 0.954559
0.048463 0.824613 0.945251
0.136049 0.824979 0.945312
0.254734 0.826383 0.945617
0.378393 0.829160 0.946380
0.504601 0.833341 0.947692
0.633265 0.838285 0.950011
0.778653 0.830594 0.950286
0.930144 0.826230 0.948333
0.426429 0.916167 0.931640
0.435248 0.916442 0.931640
0.470466 0.917662 0.931853
0.532738 0.920043 0.932280
0.615625 0.923888 0.932952
0.712367 0.929290 0.934203
0.818662 0.936492 0.936278
0.928099 0.946105 0.940429
