luts/日系自然[一麻]09.cube
# Created by Adobe Lightroom plugin Export LUT (1.24.0)
# www.johnrellis.com/lightroom/exportlut.htm
# Preset: 日系自然[一麻]09
# Color profile: C:\Program Files (x86)\Common Files\Adobe\Color\Profiles\Recommended\VideoHD.icc
LUT_3D_SIZE 32
DOMAIN_MIN 0.0 0.0 0.0
DOMAIN_MAX 1.0 1.0 1.0
0.000000 0.000000 0.000000
0.018433 0.000183 0.000000
0.075471 0.000458 0.000000
0.115358 0.006744 0.000000
0.161532 0.015351 0.000000
0.218112 0.027008 0.000000
0.274144 0.047639 0.000000
0.327367 0.070893 0.000000
0.378302 0.087587 0.000000
0.427985 0.096223 0.000000
0.478523 0.103792 0.000000
0.529473 0.111574 0.000000
0.581292 0.118166 0.000000
0.634058 0.124208 0.000000
0.686915 0.129549 0.000000
0.736934 0.134127 0.000000
0.783841 0.139071 0.000000
0.827970 0.143496 0.000000
0.868864 0.146059 0.000000
0.908354 0.149477 0.000000
0.951446 0.151949 0.000000
0.988006 0.155184 0.000000
1.000000 0.157443 0.000000
1.000000 0.159579 0.000000
1.000000 0.160800 0.000000
1.000000 0.162570 0.000000
1.000000 0.163394 0.000000
1.000000 0.163180 0.000000
1.000000 0.162631 0.000000
1.000000 0.162234 0.000000
1.000000 0.160433 0.000000
1.000000 0.157595 0.000000
0.000000 0.013306 0.003845
0.008606 0.015808 0.000000
0.069764 0.019043 0.000000
0.114778 0.019287 0.000000
0.161044 0.029114 0.000000
0.216739 0.047456 0.000000
0.272160 0.067231 0.000000
0.324773 0.084321 0.000000
0.375402 0.094301 0.000000
0.424903 0.102266 0.000000
0.474617 0.110323 0.000000
0.525414 0.116976 0.000000
0.577111 0.123507 0.000000
0.629603 0.128450 0.000000
0.682277 0.134279 0.000000
0.732601 0.139040 0.000000
0.779934 0.143191 0.000000
0.824247 0.146517 0.000000
0.865293 0.149783 0.000000
0.904967 0.152102 0.000000
0.947143 0.155550 0.000000
0.983093 0.157565 0.000000
1.000000 0.160189 0.000000
1.000000 0.161959 0.000000
1.000000 0.163333 0.000000
1.000000 0.164401 0.000000
1.000000 0.164370 0.000000
1.000000 0.164767 0.000000
1.000000 0.164340 0.000000
1.000000 0.162997 0.000000
1.000000 0.161349 0.000000
1.000000 0.158602 0.000000
0.002136 0.066285 0.016907
0.010040 0.067567 0.018830
0.046693 0.084077 0.000732
0.110994 0.084443 0.000000
0.160433 0.090425 0.000000
0.215793 0.099855 0.000000
0.270329 0.108156 0.000000
0.322606 0.114351 0.000000
0.372778 0.120790 0.000000
0.422004 0.126467 0.000000
0.471778 0.132082 0.000000
0.522515 0.136934 0.000000
0.573846 0.142367 0.000000
0.626032 0.147250 0.000000
0.678737 0.151369 0.000000
0.728969 0.155245 0.000000
0.776425 0.158877 0.000000
0.820981 0.161593 0.000000
0.862394 0.163302 0.000000
0.903044 0.165499 0.000000
0.944579 0.167941 0.000000
0.980224 0.169802 0.000000
1.000000 0.171420 0.000000
1.000000 0.172396 0.000000
1.000000 0.173404 0.000000
1.000000 0.173434 0.000000
1.000000 0.173770 0.000000
1.000000 0.173251 0.000000
1.000000 0.172671 0.000000
1.000000 0.170962 0.000000
1.000000 0.168338 0.000000
1.000000 0.166201 0.000000
0.011322 0.113222 0.047547
0.016297 0.113375 0.048493
0.034638 0.117342 0.041596
0.099611 0.129091 0.000549
0.158633 0.138277 0.000000
0.214786 0.142550 0.000000
0.269108 0.148135 0.000000
0.320073 0.153292 0.000000
0.370489 0.157351 0.000000
0.419684 0.160739 0.000000
0.469245 0.164889 0.000000
0.519310 0.168338 0.000000
0.570611 0.172519 0.000000
0.622370 0.176669 0.000000
0.674800 0.179538 0.000000
0.724727 0.182681 0.000000
0.772000 0.184298 0.000000
0.816312 0.186404 0.000000
0.857633 0.187472 0.000000
0.899321 0.188998 0.000000
0.939239 0.189517 0.000000
0.974121 0.190616 0.000000
1.000000 0.190799 0.000000
1.000000 0.190890 0.000000
1.000000 0.190738 0.000000
1.000000 0.190707 0.000000
1.000000 0.190097 0.000000
1.000000 0.189059 0.000000
1.000000 0.187289 0.000000
1.000000 0.185550 0.000000
1.000000 0.182986 0.000000
1.000000 0.179843 0.000000
0.001099 0.160647 0.081605
0.010742 0.160464 0.082277
0.039887 0.160616 0.086122
0.088594 0.170993 0.050477
0.143954 0.185275 0.000000
0.210178 0.194400 0.000000
0.264134 0.196231 0.000000
0.315923 0.194430 0.000000
0.365789 0.197116 0.000000
0.414649 0.200107 0.000000
0.463905 0.202579 0.000000
0.514092 0.205417 0.000000
0.565087 0.208255 0.000000
0.617151 0.211215 0.000000
0.669581 0.213931 0.000000
0.719844 0.216373 0.000000
0.767697 0.217288 0.000000
0.812650 0.217899 0.000000
0.854276 0.218326 0.000000
0.897704 0.218692 0.000000
0.936584 0.218906 0.000000
0.971008 0.218235 0.000000
1.000000 0.217716 0.000000
1.000000 0.216709 0.000000
1.000000 0.215366 0.000000
1.000000 0.214420 0.000000
1.000000 0.212833 0.000000
1.000000 0.210941 0.000000
1.000000 0.208621 0.000000
1.000000 0.206088 0.000000
1.000000 0.202976 0.000000
1.000000 0.199435 0.000000
0.000000 0.211276 0.101411
0.000000 0.211337 0.101717
0.028077 0.211032 0.104097
0.082460 0.215457 0.097230
0.128420 0.227512 0.044709
0.190982 0.240970 0.000000
0.259220 0.248783 0.000000
0.312230 0.246983 0.000000
0.362219 0.243931 0.000000
0.411627 0.241520 0.000000
0.461158 0.243290 0.000000
0.511406 0.245487 0.000000
0.562585 0.247532 0.000000
0.614527 0.250248 0.000000
0.667170 0.252201 0.000000
0.717739 0.253513 0.000000
0.765530 0.254307 0.000000
0.810697 0.254063 0.000000
0.855131 0.253849 0.000000
0.898039 0.253269 0.000000
0.936126 0.252659 0.000000
0.970123 0.251072 0.000000
1.000000 0.254063 0.000000
1.000000 0.252171 0.000000
1.000000 0.249607 0.000000
1.000000 0.247288 0.000000
1.000000 0.244205 0.000000
1.000000 0.241428 0.000000
1.000000 0.238254 0.000000
1.000000 0.234867 0.000000
1.000000 0.230930 0.000000
1.000000 0.226535 0.000000
0.000000 0.267918 0.125338
0.000000 0.268009 0.125795
0.022766 0.267735 0.127535
0.094545 0.267887 0.131197
0.125338 0.276860 0.108186
0.177340 0.287877 0.036316
0.243046 0.299290 0.000000
0.313237 0.304784 0.000000
0.366613 0.302037 0.000000
0.417548 0.298100 0.000000
0.468360 0.293523 0.000000
0.519554 0.291783 0.000000
0.571435 0.293431 0.000000
0.623987 0.295048 0.000000
0.676020 0.296300 0.000000
0.725460 0.296269 0.000000
0.772488 0.295872 0.000000
0.818204 0.294713 0.000000
0.865995 0.294835 0.000000
0.908782 0.293553 0.000000
0.947478 0.291752 0.000000
0.982849 0.289158 0.000000
1.000000 0.286931 0.000000
1.000000 0.284123 0.000000
1.000000 0.281041 0.000000
1.000000 0.277928 0.000000
1.000000 0.274235 0.000000
1.000000 0.270542 0.000000
1.000000 0.266484 0.000000
1.000000 0.262303 0.000000
1.000000 0.257725 0.000000
1.000000 0.252781 0.000000
0.000000 0.315251 0.150790
0.008209 0.315312 0.151553
0.054658 0.315099 0.152712
0.107515 0.315068 0.155795
0.134920 0.318791 0.148470
0.170565 0.328099 0.120089
0.223270 0.337835 0.044892
0.288609 0.347723 0.000000
0.355871 0.351537 0.000000
0.412909 0.349554 0.000000
0.464637 0.345342 0.000000
0.515923 0.341039 0.000000
0.567224 0.336431 0.000000
0.619196 0.335637 0.000000
0.670954 0.336584 0.000000
0.720058 0.336217 0.000000
0.768276 0.335515 0.000000
0.818173 0.335454 0.000000
0.863188 0.333806 0.000000
0.904143 0.331609 0.000000
0.941802 0.328893 0.000000
0.976684 0.325566 0.000000
1.000000 0.321996 0.000000
1.000000 0.318364 0.000000
1.000000 0.314702 0.000000
1.000000 0.310521 0.000000
1.000000 0.306096 0.000000
1.000000 0.301427 0.000000
1.000000 0.296788 0.000000
1.000000 0.291997 0.000000
1.000000 0.286717 0.000000
1.000000 0.281437 0.000000
0.080140 0.361578 0.179232
0.088563 0.361608 0.179507
0.104494 0.361547 0.180697
0.130556 0.361578 0.183291
0.159915 0.361578 0.187076
0.181033 0.369116 0.165866
0.218692 0.377447 0.134890
0.271763 0.386358 0.065827
0.335302 0.395117 0.000000
0.400732 0.397620 0.000000
0.462104 0.397131 0.000000
0.514336 0.393072 0.000000
0.566308 0.388678 0.000000
0.617823 0.383886 0.000000
0.668055 0.377844 0.000000
0.720027 0.377935 0.000000
0.770901 0.378119 0.000000
0.817929 0.376562 0.000000
0.860929 0.373877 0.000000
0.900725 0.370520 0.000000
0.937621 0.366735 0.000000
0.971862 0.362768 0.000000
1.000000 0.358373 0.000000
1.000000 0.353918 0.000000
1.000000 0.349279 0.000000
1.000000 0.344244 0.000000
1.000000 0.339178 0.000000
1.000000 0.333867 0.000000
1.000000 0.328527 0.000000
1.000000 0.322972 0.000000
1.000000 0.317266 0.000000
1.000000 0.311254 0.000000
0.126986 0.407904 0.207645
0.130434 0.407721 0.207797
0.140322 0.407599 0.208652
0.159335 0.407599 0.210666
0.183291 0.407691 0.213901
0.203189 0.410864 0.206180
0.228641 0.417945 0.183230
0.268193 0.425910 0.149508
0.320592 0.433783 0.091157
0.383154 0.441413 0.000000
0.446723 0.442817 0.000000
0.511437 0.443427 0.000000
0.564324 0.439551 0.000000
0.619074 0.436561 0.000000
0.672816 0.432563 0.000000
0.723415 0.426581 0.000000
0.771359 0.420111 0.000000
0.817105 0.417700 0.000000
0.859373 0.414313 0.000000
0.898314 0.410101 0.000000
0.934234 0.405402 0.000000
0.967285 0.400153 0.000000
0.998291 0.394720 0.000000
1.000000 0.389441 0.000000
1.000000 0.383703 0.000000
1.000000 0.378180 0.000000
1.000000 0.372198 0.000000
1.000000 0.366217 0.000000
1.000000 0.360296 0.000000
1.000000 0.354284 0.000000
1.000000 0.348150 0.000000
1.000000 0.341650 0.000000
0.164614 0.452583 0.233890
0.166323 0.452583 0.234104
0.174472 0.452735 0.234958
0.189517 0.452796 0.236728
0.209293 0.453040 0.239414
0.232822 0.453712 0.242679
0.249363 0.460182 0.223697
0.278111 0.467353 0.198367
0.319738 0.474861 0.163027
0.372839 0.482429 0.102510
0.436255 0.490333 0.000000
0.501915 0.493996 0.000000
0.571008 0.495979 0.000000
0.625788 0.492287 0.000000
0.677333 0.486915 0.000000
0.726375 0.480049 0.000000
0.772671 0.471809 0.000000
0.815824 0.462165 0.000000
0.856321 0.454108 0.000000
0.894347 0.449042 0.000000
0.929656 0.443336 0.000000
0.962341 0.437415 0.000000
0.993286 0.431434 0.000000
1.000000 0.425116 0.000000
1.000000 0.418830 0.000000
1.000000 0.412573 0.000000
1.000000 0.406104 0.000000
1.000000 0.399664 0.000000
1.000000 0.393042 0.000000
1.000000 0.386419 0.000000
1.000000 0.379889 0.000000
1.000000 0.372992 0.000000
0.201968 0.500008 0.260197
0.203464 0.500008 0.260472
0.209415 0.500053 0.261143
0.221805 0.500389 0.262760
0.238956 0.500816 0.265293
0.260746 0.501274 0.268864
0.278935 0.505791 0.261540
0.300816 0.513725 0.241367
0.334142 0.522332 0.214511
0.379431 0.531212 0.176638
0.435309 0.539361 0.113405
0.498878 0.546838 0.000000
0.591852 0.571466 0.000000
0.657679 0.566979 0.000000
0.709346 0.559380 0.000000
0.757015 0.549981 0.000000
0.800839 0.539055 0.000000
0.841642 0.527214 0.000000
0.879423 0.514488 0.000000
0.914519 0.501335 0.000000
0.947601 0.491463 0.000000
0.978393 0.483925 0.000000
1.000000 0.476051 0.000000
1.000000 0.468360 0.000000
1.000000 0.460700 0.000000
1.000000 0.452888 0.000000
1.000000 0.444953 0.000000
1.000000 0.437293 0.000000
1.000000 0.429633 0.000000
1.000000 0.421942 0.000000
1.000000 0.414282 0.000000
1.000000 0.406531 0.000000
0.251469 0.564935 0.294926
0.252506 0.564965 0.295171
0.257511 0.564630 0.295659
0.268101 0.564752 0.297002
0.283207 0.564843 0.299168
0.302892 0.565332 0.302434
0.325628 0.566613 0.305058
0.340642 0.572839 0.286839
0.365728 0.580102 0.264073
0.402350 0.587915 0.233982
0.450263 0.596216 0.192721
0.507774 0.604303 0.126711
0.572412 0.611200 0.000000
0.642237 0.616236 0.000000
0.702754 0.607935 0.000000
0.752743 0.599420 0.000000
0.796109 0.588067 0.000000
0.835904 0.575311 0.000000
0.872892 0.561852 0.000000
0.907164 0.548211 0.000000
0.939208 0.534112 0.000000
0.969512 0.520134 0.000000
0.998627 0.511131 0.000000
1.000000 0.502953 0.000000
1.000000 0.494728 0.000000
1.000000 0.486580 0.000000
1.000000 0.478370 0.000000
1.000000 0.470161 0.000000
1.000000 0.462074 0.000000
1.000000 0.454047 0.000000
1.000000 0.446021 0.000000
1.000000 0.437842 0.000000
0.294743 0.615564 0.324193
0.295323 0.615320 0.324132
0.299596 0.614954 0.324590
0.307897 0.614405 0.325566
0.320531 0.613916 0.327092
0.337285 0.613611 0.329595
0.358465 0.613794 0.333227
0.374548 0.616876 0.325109
0.392096 0.622644 0.304936
0.419562 0.629267 0.279973
0.457557 0.636347 0.247898
0.505150 0.643458 0.205814
0.561181 0.649989 0.139467
0.623041 0.654994 0.000000
0.688808 0.657954 0.000000
0.743557 0.646662 0.000000
0.791226 0.635798 0.000000
0.830472 0.622553 0.000000
0.867033 0.608576 0.000000
0.900877 0.594141 0.000000
0.932586 0.579767 0.000000
0.962921 0.565332 0.000000
0.991852 0.551110 0.000000
1.000000 0.537652 0.000000
1.000000 0.529015 0.000000
1.000000 0.520531 0.000000
1.000000 0.511864 0.000000
1.000000 0.503288 0.000000
1.000000 0.494667 0.000000
1.000000 0.486305 0.000000
1.000000 0.477852 0.000000
1.000000 0.469306 0.000000
0.337835 0.659754 0.353246
0.338842 0.659663 0.353277
0.341680 0.659236 0.353429
0.348547 0.658534 0.354040
0.359014 0.657710 0.355230
0.373388 0.657008 0.357397
0.391485 0.656794 0.360418
0.411963 0.657435 0.363043
0.423377 0.662196 0.344793
0.443153 0.667842 0.323339
0.471870 0.674006 0.297063
0.510155 0.680293 0.264134
0.556451 0.686091 0.220462
0.610040 0.690761 0.155306
0.668421 0.693782 0.000000
0.730159 0.694728 0.000000
0.779873 0.681575 0.000000
0.825681 0.669062 0.000000
0.861845 0.654475 0.000000
0.895445 0.639521 0.000000
0.926940 0.624567 0.000000
0.957153 0.609857 0.000000
0.986023 0.595270 0.000000
1.000000 0.580774 0.000000
1.000000 0.566400 0.000000
1.000000 0.554101 0.000000
1.000000 0.545098 0.000000
1.000000 0.536309 0.000000
1.000000 0.527459 0.000000
1.000000 0.518761 0.000000
1.000000 0.510155 0.000000
1.000000 0.501335 0.000000
0.380194 0.697688 0.382025
0.380987 0.697749 0.382238
0.384100 0.697627 0.382544
0.389746 0.697383 0.383459
0.399329 0.697078 0.384985
0.412024 0.696895 0.387182
0.428412 0.697169 0.390478
0.448310 0.697902 0.395209
0.462074 0.700832 0.387579
0.474983 0.705684 0.368383
0.495064 0.710567 0.345159
0.523064 0.715419 0.316899
0.559319 0.719753 0.282078
0.602655 0.723201 0.237797
0.652033 0.725460 0.173617
0.706386 0.726467 0.000000
0.764736 0.726040 0.000000
0.810849 0.712245 0.000000
0.855406 0.698634 0.000000
0.889067 0.683375 0.000000
0.920958 0.668269 0.000000
0.951446 0.653285 0.000000
0.980591 0.638544 0.000000
1.000000 0.623896 0.000000
1.000000 0.609369 0.000000
1.000000 0.594812 0.000000
1.000000 0.580438 0.000000
1.000000 0.569482 0.000000
1.000000 0.560296 0.000000
1.000000 0.551110 0.000000
1.000000 0.541955 0.000000
1.000000 0.532677 0.000000
0.422461 0.730739 0.411627
0.423194 0.730709 0.411780
0.425574 0.730617 0.412116
0.430640 0.730526 0.413062
0.438727 0.730373 0.414557
0.449592 0.730404 0.416724
0.463935 0.730587 0.420020
0.481331 0.730983 0.424231
0.499702 0.731960 0.427649
0.507042 0.736049 0.410285
0.520073 0.740383 0.389624
0.540002 0.744717 0.364935
0.567041 0.748745 0.335637
0.601312 0.752010 0.300145
0.642390 0.754452 0.255283
0.689204 0.755734 0.193454
0.740627 0.756008 0.032654
0.796109 0.755062 0.000000
0.839994 0.741238 0.000000
0.883513 0.726741 0.000000
0.915465 0.711330 0.000000
0.946075 0.696010 0.000000
0.975341 0.680995 0.000000
1.000000 0.666133 0.000000
1.000000 0.651362 0.000000
1.000000 0.636744 0.000000
1.000000 0.622156 0.000000
1.000000 0.607691 0.000000
1.000000 0.593194 0.000000
1.000000 0.583398 0.000000
1.000000 0.573877 0.000000
1.000000 0.564172 0.000000
0.466529 0.761471 0.443458
0.467140 0.761654 0.443732
0.487892 0.773678 0.457893
0.491798 0.773587 0.458778
0.498390 0.773465 0.460151
0.507317 0.773281 0.462135
0.518639 0.773220 0.464729
0.532769 0.773251 0.468299
0.549310 0.773587 0.472877
0.559411 0.775784 0.465797
0.566674 0.779416 0.447578
0.578759 0.782956 0.425666
0.596368 0.786130 0.399207
0.620569 0.788754 0.367468
0.651575 0.790555 0.330266
0.689052 0.791470 0.284947
0.732387 0.791318 0.224674
0.780423 0.790249 0.126070
0.832395 0.788205 0.000000
0.873899 0.774228 0.000000
0.915160 0.757748 0.000000
0.946014 0.742000 0.000000
0.974731 0.726040 0.000000
1.000000 0.710292 0.000000
1.000000 0.694545 0.000000
1.000000 0.679133 0.000000
1.000000 0.663874 0.000000
1.000000 0.648707 0.000000
1.000000 0.633845 0.000000
1.000000 0.619135 0.000000
1.000000 0.605493 0.000000
1.000000 0.595361 0.000000
0.512444 0.792081 0.478218
0.514580 0.793057 0.479591
0.517998 0.794125 0.481361
0.523033 0.795010 0.483192
0.529656 0.795621 0.485420
0.537621 0.795773 0.487465
0.547631 0.795773 0.489998
0.559594 0.795712 0.492988
0.573785 0.795834 0.497078
0.588830 0.796353 0.500328
0.592767 0.799588 0.484321
0.600580 0.802853 0.465736
0.612604 0.805905 0.443183
0.629908 0.808621 0.416571
0.652949 0.810849 0.384710
0.682399 0.812406 0.347173
0.718196 0.813199 0.301823
0.759579 0.813138 0.244327
0.805966 0.812375 0.157931
0.856138 0.810788 0.000000
0.896971 0.798093 0.000000
0.937285 0.781765 0.000000
0.968231 0.766262 0.000000
0.995727 0.750240 0.000000
1.000000 0.734310 0.000000
1.000000 0.718593 0.000000
1.000000 0.703059 0.000000
1.000000 0.687678 0.000000
1.000000 0.672694 0.000000
1.000000 0.657771 0.000000
1.000000 0.643000 0.000000
1.000000 0.627955 0.000000
0.546929 0.814389 0.505272
0.548760 0.815335 0.506584
0.552026 0.816373 0.508415
0.556481 0.817227 0.510338
0.562402 0.817838 0.512413
0.569390 0.818051 0.514427
0.577752 0.818051 0.516594
0.588128 0.817960 0.519524
0.600336 0.817990 0.522972
0.614313 0.818112 0.527245
0.621973 0.819852 0.520897
0.626490 0.822843 0.504692
0.634272 0.825742 0.485298
0.646265 0.828550 0.462470
0.663111 0.830930 0.435737
0.685359 0.832883 0.404456
0.713375 0.834226 0.366522
0.747219 0.834928 0.321294
0.786587 0.834958 0.266209
0.830991 0.834318 0.187839
0.879301 0.832914 0.000000
0.919402 0.821561 0.000000
0.958038 0.805417 0.000000
0.989349 0.789487 0.000000
1.000000 0.773404 0.000000
1.000000 0.757351 0.000000
1.000000 0.741573 0.000000
1.000000 0.726009 0.000000
1.000000 0.710689 0.000000
1.000000 0.695613 0.000000
1.000000 0.680568 0.000000
1.000000 0.665400 0.000000
0.580560 0.835721 0.532769
0.582330 0.836515 0.534051
0.584894 0.837339 0.535515
0.588800 0.838010 0.537285
0.593683 0.838499 0.539055
0.599664 0.838682 0.540856
0.606836 0.838682 0.542840
0.615717 0.838651 0.545434
0.626215 0.838651 0.548547
0.638331 0.838712 0.552331
0.650996 0.839017 0.555596
0.653498 0.841733 0.541466
0.658228 0.844511 0.524681
0.666133 0.847166 0.504875
0.678187 0.849729 0.482155
0.694636 0.852049 0.455879
0.716304 0.854032 0.425055
0.743496 0.855711 0.388373
0.776181 0.856931 0.344823
0.814542 0.857664 0.291691
0.857572 0.857725 0.220768
0.904662 0.857084 0.055024
0.945830 0.848264 0.000000
0.982116 0.831510 0.000000
1.000000 0.815183 0.000000
1.000000 0.799069 0.000000
1.000000 0.782986 0.000000
1.000000 0.767117 0.000000
1.000000 0.751553 0.000000
1.000000 0.736049 0.000000
1.000000 0.720485 0.000000
1.000000 0.704921 0.000000
0.620478 0.860258 0.566766
0.621241 0.860594 0.567285
0.622675 0.860807 0.567834
0.624964 0.860899 0.568597
0.628473 0.860868 0.569635
0.632959 0.860716 0.570733
0.638911 0.860563 0.572351
0.646296 0.860380 0.574487
0.655177 0.860319 0.577081
0.665644 0.860380 0.580529
0.677455 0.860502 0.584588
0.684047 0.861967 0.579736
0.686885 0.864530 0.565332
0.692012 0.867124 0.548486
0.700069 0.869596 0.528832
0.711604 0.871977 0.506004
0.727382 0.874052 0.479469
0.747860 0.875883 0.449104
0.773556 0.877348 0.413214
0.804440 0.878355 0.370459
0.840391 0.878813 0.317906
0.881132 0.878660 0.250370
0.925811 0.877684 0.138247
0.967376 0.870695 0.000000
1.000000 0.852811 0.000000
1.000000 0.835904 0.000000
1.000000 0.819791 0.000000
1.000000 0.803769 0.000000
1.000000 0.787930 0.000000
1.000000 0.772244 0.000000
1.000000 0.756497 0.000000
1.000000 0.740597 0.000000
0.649226 0.878355 0.592248
0.649775 0.878569 0.592584
0.651087 0.878752 0.593194
0.653101 0.878874 0.593927
0.656123 0.878843 0.594873
0.659998 0.878782 0.595880
0.665126 0.878630 0.597406
0.671534 0.878477 0.599176
0.679286 0.878416 0.601678
0.688411 0.878447 0.604700
0.698665 0.878538 0.608301
0.709895 0.878660 0.612238
0.711452 0.881102 0.599756
0.714717 0.883635 0.585107
0.720302 0.886168 0.568322
0.728664 0.888609 0.549096
0.740383 0.890959 0.526726
0.755856 0.893126 0.500786
0.775723 0.895048 0.470863
0.800351 0.896635 0.436164
0.829862 0.897765 0.394903
0.864225 0.898375 0.344244
0.903166 0.898344 0.279149
0.946075 0.897642 0.182773
0.985992 0.890562 0.000000
1.000000 0.871946 0.000000
1.000000 0.854673 0.000000
1.000000 0.838743 0.000000
1.000000 0.822782 0.000000
1.000000 0.806882 0.000000
1.000000 0.790982 0.000000
1.000000 0.775051 0.000000
0.680079 0.897520 0.620661
0.680934 0.897826 0.621332
0.681910 0.897978 0.621820
0.683375 0.897887 0.622156
0.685451 0.897642 0.622492
0.688350 0.897246 0.623072
0.692103 0.896788 0.623743
0.696925 0.896300 0.624750
0.703029 0.895872 0.626337
0.710323 0.895537 0.628412
0.718685 0.895201 0.631006
0.728237 0.894957 0.634150
0.733791 0.895872 0.630335
0.735409 0.898009 0.617243
0.738613 0.900145 0.602106
0.744015 0.902312 0.584771
0.752224 0.904448 0.565087
0.763668 0.906615 0.542718
0.779019 0.908721 0.517144
0.798520 0.910735 0.487800
0.822354 0.912444 0.453803
0.850767 0.913725 0.413367
0.883635 0.914366 0.364141
0.920684 0.914275 0.300237
0.961730 0.913359 0.209110
1.000000 0.910155 0.000000
1.000000 0.890929 0.000000
1.000000 0.872862 0.000000
1.000000 0.856870 0.000000
1.000000 0.840757 0.000000
1.000000 0.824765 0.000000
1.000000 0.808865 0.000000
0.701991 0.911742 0.641718
0.702815 0.912016 0.642359
0.703792 0.912230 0.642908
0.705226 0.912230 0.643366
0.707271 0.912139 0.643977
0.710079 0.911955 0.644678
0.713832 0.911803 0.645808
0.718563 0.911650 0.647211
0.724361 0.911528 0.649042
0.731136 0.911406 0.651362
0.738766 0.911284 0.653925
0.747372 0.911162 0.657038
0.756588 0.911040 0.660365
0.757961 0.912963 0.649775
0.759884 0.915068 0.636439
0.763516 0.917174 0.621454
0.769223 0.919310 0.604334
0.777554 0.921477 0.584771
0.789120 0.923705 0.563134
0.804166 0.925872 0.538262
0.823026 0.927855 0.509453
0.845884 0.929564 0.475959
0.872923 0.930846 0.436439
0.904234 0.931579 0.388464
0.939696 0.931640 0.327214
0.979248 0.930999 0.242039
1.000000 0.929625 0.000000
1.000000 0.910338 0.000000
1.000000 0.891905 0.000000
1.000000 0.875822 0.000000
1.000000 0.859678 0.000000
1.000000 0.843503 0.000000
0.725521 0.926665 0.664973
0.725887 0.926818 0.665248
0.726528 0.926879 0.665522
0.727718 0.926848 0.665888
0.729458 0.926726 0.666407
0.731838 0.926574 0.667018
0.735012 0.926360 0.667872
0.739071 0.926146 0.669032
0.743984 0.925933 0.670588
0.749783 0.925780 0.672480
0.756558 0.925566 0.674800
0.764065 0.925414 0.677455
0.772335 0.925231 0.680446
0.777707 0.925902 0.678157
0.778836 0.927947 0.666621
0.781125 0.930022 0.653346
0.785122 0.932158 0.638300
0.791226 0.934356 0.621332
0.799924 0.936614 0.602533
0.811521 0.938872 0.580957
0.826322 0.941100 0.556786
0.844602 0.943084 0.528649
0.866392 0.944732 0.495735
0.892180 0.945953 0.456153
0.922057 0.946624 0.408728
0.956023 0.946746 0.348669
0.994324 0.946227 0.265507
1.000000 0.945006 0.104005
1.000000 0.927184 0.000000
1.000000 0.909087 0.000000
1.000000 0.892302 0.000000
1.000000 0.876158 0.000000
0.745418 0.939788 0.685481
0.745785 0.939879 0.685725
0.746456 0.939940 0.686061
0.747555 0.939940 0.686458
0.749294 0.939971 0.687129
0.751766 0.939971 0.688014
0.755215 0.940124 0.689540
0.759548 0.940337 0.691402
0.764767 0.940612 0.693721
0.770809 0.940917 0.696437
0.777615 0.941222 0.699489
0.785031 0.941497 0.702785
0.792966 0.941680 0.706294
0.801205 0.941741 0.709773
0.803433 0.943664 0.702235
0.805173 0.945830 0.691096
0.808042 0.947997 0.678340
0.812467 0.950256 0.663813
0.818936 0.952544 0.647822
0.827665 0.954925 0.629541
0.838956 0.957214 0.608881
0.853117 0.959380 0.585290
0.870359 0.961303 0.557855
0.890990 0.962921 0.525750
0.915251 0.964141 0.487434
0.943572 0.964874 0.440711
0.976165 0.965057 0.382422
1.000000 0.964630 0.304326
1.000000 0.963622 0.175204
1.000000 0.946868 0.000000
1.000000 0.928527 0.000000
1.000000 0.910491 0.000000
0.770657 0.955138 0.712093
0.770718 0.955138 0.712123
0.771145 0.955108 0.712215
0.771878 0.955016 0.712398
0.773190 0.954894 0.712734
0.774990 0.954742 0.713191
0.777523 0.954620 0.714046
0.780697 0.954498 0.715114
0.784604 0.954376 0.716457
0.789273 0.954314 0.718196
0.794583 0.954162 0.720180
0.800534 0.954070 0.722469
0.807034 0.953918 0.725002
0.814054 0.953704 0.727687
