luts/日系自然[一麻]01.cube
# Created by Adobe Lightroom plugin Export LUT (1.24.0)
# www.johnrellis.com/lightroom/exportlut.htm
# Preset: 日系自然[一麻]01
# Color profile: C:\Program Files (x86)\Common Files\Adobe\Color\Profiles\Recommended\VideoHD.icc
LUT_3D_SIZE 5
DOMAIN_MIN 0.000000 0.000000 0.000000
DOMAIN_MAX 0.903226 0.903226 0.903226
0.000000 0.000000 0.000000
0.290715 0.017456 0.000000
0.606744 0.096345 0.000000
0.904509 0.136568 0.000000
1.000000 0.154726 0.000000
0.000000 0.291417 0.089265
0.261601 0.308385 0.000000
0.638178 0.314183 0.000000
0.923125 0.311162 0.000000
1.000000 0.292149 0.000000
0.000000 0.633997 0.249363
0.000000 0.635187 0.285863
0.564111 0.652094 0.000000
0.926268 0.607172 0.000000
1.000000 0.541741 0.000000
0.000000 0.876646 0.448005
0.000000 0.877073 0.471626
0.369818 0.881132 0.445563
0.781033 0.869902 0.000000
1.000000 0.782376 0.000000
0.233219 0.999786 0.635828
0.327764 0.998535 0.646754
0.522942 0.991669 0.683436
0.622705 1.000000 0.558495
0.919799 0.993835 0.000000
0.000000 0.000000 0.290440
0.270726 0.000000 0.288090
0.557946 0.000000 0.260136
0.857481 0.049592 0.235935
1.000000 0.156954 0.218479
0.000000 0.275669 0.278477
0.247166 0.279179 0.273991
0.570306 0.278721 0.257694
0.878019 0.291234 0.243198
1.000000 0.293645 0.225162
0.000000 0.604486 0.369604
0.000000 0.613062 0.358984
0.543328 0.624781 0.237949
0.911406 0.598596 0.260685
1.000000 0.549065 0.269657
0.000000 0.867979 0.513207
0.000000 0.870390 0.521965
0.442603 0.874968 0.538415
0.780179 0.865324 0.252323
1.000000 0.783658 0.211490
0.324163 0.997986 0.664912
0.384619 0.996979 0.672969
0.563409 0.992370 0.713191
0.657679 0.998566 0.622827
0.923949 0.994049 0.209171
0.000000 0.000000 0.571344
0.214359 0.000000 0.569451
0.534569 0.000000 0.561883
0.803037 0.000000 0.543450
1.000000 0.000000 0.491707
0.000000 0.279240 0.565728
0.161318 0.262119 0.563989
0.527733 0.247959 0.557794
0.802152 0.238010 0.536248
1.000000 0.226780 0.487678
0.000000 0.537804 0.540002
0.000000 0.539635 0.539269
0.493111 0.548089 0.535149
0.810452 0.565637 0.545129
1.000000 0.573541 0.547723
0.011872 0.827359 0.638392
0.323766 0.826780 0.648798
0.544121 0.846006 0.674830
0.777127 0.846098 0.579553
1.000000 0.806943 0.596857
0.499458 0.989075 0.756283
0.526390 0.989319 0.758541
0.623011 0.989136 0.772427
0.744411 0.989624 0.769863
0.933806 0.988647 0.563653
0.000000 0.026764 0.802945
0.000000 0.003784 0.802335
0.477211 0.000000 0.799802
0.765438 0.000000 0.793362
1.000000 0.000000 0.762905
0.000000 0.258000 0.799557
0.000000 0.255833 0.798856
0.466255 0.245701 0.795590
0.759274 0.222538 0.788266
1.000000 0.219974 0.758358
0.000000 0.544427 0.785275
0.000000 0.541436 0.784787
0.435004 0.522301 0.783200
0.744808 0.517082 0.777249
0.982422 0.517205 0.751003
0.000000 0.755825 0.758938
0.000000 0.756161 0.757839
0.392523 0.760861 0.756863
0.720516 0.771389 0.756832
0.983093 0.799649 0.784268
0.000000 0.983612 0.810544
0.302861 0.982666 0.815671
0.614405 0.979767 0.842802
0.820096 0.982238 0.882200
0.950561 0.981933 0.807828
0.000000 0.103243 0.987091
0.000000 0.098848 0.986694
0.389197 0.058350 0.985077
0.686732 0.000000 0.982086
0.955840 0.000000 0.977966
0.000000 0.257267 0.985595
0.000000 0.256016 0.985229
0.382208 0.250614 0.983673
0.683955 0.236545 0.980835
0.954650 0.207889 0.976806
0.000000 0.526390 0.978485
0.000000 0.508568 0.979248
0.370520 0.505577 0.978027
0.677790 0.502007 0.975433
0.949737 0.492439 0.971862
0.000000 0.751095 0.967407
0.000000 0.753445 0.967193
0.403479 0.762966 0.966369
0.680537 0.751919 0.965789
0.943114 0.744961 0.962585
0.000000 0.942412 0.953887
0.000000 0.942931 0.953674
0.302464 0.945098 0.952636
0.664851 0.948760 0.950622
0.939940 0.955200 0.950378
