luts/日系自然[一麻]08.cube
# Created by Adobe Lightroom plugin Export LUT (1.24.0)
# www.johnrellis.com/lightroom/exportlut.htm
# Preset: 日系自然[一麻]08
# Color profile: C:\Program Files (x86)\Common Files\Adobe\Color\Profiles\Recommended\VideoHD.icc
LUT_3D_SIZE 8
DOMAIN_MIN 0.000000 0.000000 0.000000
DOMAIN_MAX 0.903226 0.903226 0.903226
0.000000 0.000000 0.000000
0.165072 0.000000 0.000000
0.375555 0.000000 0.000000
0.564294 0.000000 0.000000
0.754604 0.000000 0.000000
0.910399 0.000000 0.000000
1.000000 0.000000 0.000000
1.000000 0.000000 0.000000
0.000000 0.165225 0.053925
0.160098 0.176364 0.000000
0.367163 0.176791 0.000000
0.553307 0.177310 0.000000
0.743130 0.183169 0.000000
0.900328 0.181521 0.000000
1.000000 0.163272 0.000000
1.000000 0.100374 0.000000
0.000000 0.356786 0.127749
0.000000 0.356847 0.131075
0.343420 0.377539 0.000000
0.553918 0.366827 0.000000
0.739925 0.357488 0.000000
0.903197 0.346044 0.000000
1.000000 0.325444 0.000000
1.000000 0.297185 0.000000
0.000000 0.536797 0.220981
0.000000 0.537041 0.222812
0.272618 0.548119 0.211673
0.536950 0.583642 0.000000
0.757870 0.567437 0.000000
0.903380 0.520348 0.000000
1.000000 0.481422 0.000000
1.000000 0.443977 0.000000
0.000000 0.708370 0.308232
0.000000 0.708644 0.309728
0.211154 0.711910 0.317693
0.455543 0.726162 0.276768
0.695918 0.742061 0.108156
0.882536 0.702968 0.000000
1.000000 0.644526 0.000000
1.000000 0.588342 0.000000
0.000000 0.827634 0.409064
0.000000 0.830198 0.413672
0.233402 0.831235 0.420356
0.431128 0.834318 0.426368
0.606378 0.843565 0.362829
0.814694 0.851164 0.236851
0.986084 0.810880 0.000000
1.000000 0.747280 0.000000
0.247990 0.921233 0.528069
0.277195 0.921660 0.529992
0.362615 0.921324 0.534417
0.479561 0.921172 0.544091
0.594018 0.923857 0.524376
0.732448 0.929320 0.458167
0.908568 0.931365 0.335729
1.000000 0.889006 0.011597
0.468391 0.991150 0.646204
0.477241 0.990997 0.646784
0.513420 0.990478 0.649958
0.576806 0.989532 0.656672
0.648768 0.985260 0.657588
0.726253 0.989014 0.618708
0.834806 0.991028 0.551232
0.979217 0.987915 0.420111
0.100832 0.003357 0.168734
0.195041 0.000000 0.129152
0.368933 0.000000 0.109102
0.548760 0.000000 0.108125
0.739620 0.000000 0.000000
0.898283 0.000000 0.000000
1.000000 0.000000 0.000000
1.000000 0.000000 0.000000
0.000000 0.171786 0.170504
0.153841 0.174166 0.171267
0.360693 0.161166 0.144228
0.545586 0.156893 0.104555
0.736172 0.157931 0.000000
0.895659 0.155337 0.000000
1.000000 0.144533 0.000000
1.000000 0.116030 0.000000
0.000000 0.353460 0.215763
0.084535 0.354742 0.209995
0.336522 0.371344 0.170230
0.543450 0.355993 0.098085
0.731106 0.346807 0.000000
0.892760 0.333959 0.000000
1.000000 0.312291 0.000000
1.000000 0.284489 0.000000
0.000000 0.528222 0.262242
0.000000 0.529015 0.264103
0.274327 0.538598 0.264744
0.521477 0.568627 0.170535
0.735897 0.550774 0.000000
0.883665 0.507012 0.000000
1.000000 0.472450 0.000000
1.000000 0.436439 0.000000
0.000000 0.703120 0.334173
0.000000 0.702998 0.335393
0.216587 0.705348 0.342351
0.450599 0.717159 0.311711
0.685328 0.732113 0.196567
0.871397 0.694942 0.000000
0.994415 0.638972 0.000000
1.000000 0.584894 0.000000
0.000000 0.822293 0.423713
0.000000 0.822782 0.425605
0.237552 0.824247 0.432715
0.432715 0.827817 0.443671
0.603571 0.838346 0.386450
0.810422 0.847593 0.280583
0.980926 0.808133 0.104677
1.000000 0.745144 0.000000
0.251377 0.917205 0.534508
0.275822 0.916686 0.534783
0.360632 0.916411 0.539025
0.478279 0.916808 0.549523
0.594690 0.920409 0.535637
0.730831 0.926268 0.473335
0.904662 0.928130 0.358923
1.000000 0.886381 0.160555
0.466163 0.989044 0.648341
0.476692 0.989197 0.649928
0.512413 0.988647 0.652827
0.576165 0.987854 0.659785
0.656641 0.986145 0.668788
0.730648 0.988952 0.631037
0.835904 0.990448 0.564355
0.978729 0.987488 0.440467
0.204776 0.000000 0.346410
0.298650 0.000000 0.350958
0.411078 0.000000 0.270237
0.545647 0.000000 0.186862
0.735317 0.000000 0.239780
0.898863 0.000000 0.265995
1.000000 0.000000 0.231022
1.000000 0.000000 0.159792
0.000000 0.174685 0.345647
0.230228 0.161929 0.348974
0.396765 0.147616 0.287419
0.537774 0.150118 0.234897
0.729305 0.000000 0.272190
0.893736 0.000000 0.268803
1.000000 0.000000 0.229007
1.000000 0.000000 0.157839
0.000000 0.349706 0.346136
0.096681 0.351415 0.347295
0.316411 0.356786 0.349462
0.524437 0.341802 0.326024
0.724971 0.331182 0.300786
0.889982 0.319249 0.271153
1.000000 0.300389 0.231693
1.000000 0.266026 0.160006
0.000000 0.521172 0.389410
0.000000 0.524132 0.390265
0.283757 0.535058 0.382635
0.512047 0.561547 0.354833
0.725307 0.539422 0.310826
0.878996 0.504540 0.278386
1.000000 0.473671 0.239872
1.000000 0.435554 0.168795
0.000000 0.695338 0.436591
0.000000 0.697139 0.427222
0.244694 0.701503 0.431739
0.459113 0.712642 0.433082
0.682185 0.730434 0.370275
0.864378 0.692012 0.308110
0.988830 0.638178 0.262547
1.000000 0.588159 0.188083
0.000000 0.817777 0.493019
0.062745 0.818509 0.495033
0.294774 0.820218 0.502220
0.460304 0.823545 0.516350
0.611902 0.833738 0.485206
0.806546 0.844602 0.414984
0.972930 0.807553 0.336584
1.000000 0.747127 0.253758
0.320500 0.915923 0.584436
0.338140 0.915587 0.584802
0.404944 0.915068 0.588373
0.507103 0.915343 0.597711
0.617029 0.917876 0.597772
0.740200 0.924895 0.549889
0.905150 0.928588 0.468605
1.000000 0.888945 0.353704
0.493324 0.988037 0.678065
0.500664 0.987762 0.678187
0.533898 0.987213 0.681056
0.595514 0.986847 0.688930
0.671870 0.985321 0.697719
0.745174 0.987640 0.673732
0.843259 0.989685 0.618982
0.978759 0.987243 0.520623
0.298161 0.000000 0.499428
0.357214 0.000000 0.503746
0.537041 0.000000 0.515953
0.606775 0.000000 0.399756
0.720058 0.000000 0.299382
0.883818 0.000000 0.304631
1.000000 0.000000 0.357000
1.000000 0.000000 0.402747
0.244999 0.162295 0.500786
0.316197 0.149203 0.503716
0.511101 0.000000 0.515648
0.600946 0.072358 0.410071
0.717464 0.123873 0.314580
0.881621 0.000000 0.329778
1.000000 0.000000 0.377050
1.000000 0.102327 0.404425
0.000000 0.382238 0.482826
0.000000 0.369268 0.488685
0.370520 0.332586 0.506462
0.564599 0.325689 0.445350
0.707240 0.332738 0.389105
0.873533 0.318975 0.419959
1.000000 0.325628 0.451606
1.000000 0.306462 0.414710
0.000000 0.510216 0.503319
0.000000 0.511284 0.503990
0.262730 0.517327 0.508385
0.475502 0.529503 0.517082
0.687678 0.518944 0.500175
0.851499 0.508080 0.482795
0.985962 0.490517 0.458717
1.000000 0.458381 0.418708
0.000000 0.678370 0.549248
0.000000 0.679194 0.549432
0.293004 0.684443 0.553826
0.475196 0.698451 0.560540
0.667750 0.719203 0.544060
0.840696 0.687098 0.509209
0.972076 0.646082 0.475227
1.000000 0.606592 0.432471
0.276493 0.807675 0.604730
0.313878 0.810086 0.608789
0.398169 0.812955 0.610620
0.499214 0.819852 0.611383
0.634668 0.829221 0.616022
0.802152 0.841550 0.574426
0.957336 0.809751 0.525322
1.000000 0.755703 0.468818
0.420844 0.910338 0.664698
0.425513 0.911101 0.662623
0.457588 0.913024 0.658930
0.548302 0.914458 0.669215
0.653895 0.916228 0.683619
0.757473 0.923461 0.655818
0.904814 0.928252 0.603388
1.000000 0.892943 0.532830
0.532952 0.987549 0.726650
0.540154 0.987427 0.727230
0.570245 0.986877 0.729915
0.624506 0.986053 0.735805
0.695491 0.984588 0.744198
0.767941 0.985290 0.737819
0.854765 0.988098 0.697841
0.978759 0.986847 0.630243
0.391180 0.000000 0.647700
0.431159 0.000000 0.650477
0.567559 0.000000 0.658503
0.767025 0.000000 0.664363
0.795621 0.000000 0.520134
0.873411 0.000000 0.419532
0.997498 0.000000 0.364446
1.000000 0.000000 0.412665
0.358618 0.147738 0.647486
0.403235 0.133242 0.650324
0.547265 0.000000 0.658442
0.760342 0.000000 0.670863
0.792355 0.000000 0.526787
0.870695 0.098146 0.428687
0.994903 0.134005 0.383917
1.000000 0.162081 0.429145
0.020905 0.334173 0.640833
0.216861 0.330877 0.642878
0.439765 0.313664 0.650965
0.692988 0.264256 0.668727
0.769772 0.292149 0.550805
0.852720 0.322210 0.464912
0.980896 0.329625 0.454719
1.000000 0.337377 0.490211
0.000000 0.530571 0.624567
0.000000 0.530907 0.625147
0.146304 0.532250 0.628687
0.515282 0.495094 0.656977
0.717586 0.501152 0.600702
0.820432 0.515312 0.547692
0.956512 0.515648 0.572198
1.000000 0.515801 0.595361
0.000000 0.652674 0.643030
0.000000 0.653681 0.643854
0.217441 0.657343 0.646632
0.440131 0.665492 0.652857
0.621790 0.678309 0.663203
0.791775 0.673518 0.655024
0.935821 0.663752 0.641993
1.000000 0.640070 0.615076
0.000000 0.782773 0.673030
0.140200 0.783444 0.673762
0.320439 0.785519 0.675959
0.489265 0.791867 0.684657
0.630762 0.805386 0.697261
0.783322 0.826047 0.693324
0.930114 0.804776 0.668330
1.000000 0.765194 0.631281
0.388617 0.899351 0.722499
0.405707 0.899199 0.722957
0.470771 0.899748 0.726741
0.582605 0.902800 0.741299
0.663142 0.909575 0.743404
0.768368 0.916442 0.748135
0.899779 0.924132 0.715908
1.000000 0.893431 0.668910
0.562280 0.981598 0.782193
0.573938 0.981323 0.784085
0.615717 0.980591 0.790768
0.636957 0.983368 0.781643
0.709499 0.982544 0.790921
0.789853 0.981170 0.802609
0.864836 0.984863 0.776089
0.976867 0.984833 0.730282
0.472847 0.000000 0.774807
0.501122 0.000000 0.776181
0.603937 0.000000 0.779599
0.770260 0.000000 0.787991
0.930175 0.000000 0.749477
0.948058 0.000000 0.617426
0.995911 0.000000 0.520165
1.000000 0.112123 0.433600
0.449195 0.144472 0.770230
0.478035 0.131838 0.771115
0.584405 0.000000 0.775174
0.754696 0.000000 0.784665
0.921538 0.000000 0.751247
0.940826 0.000000 0.619318
0.990173 0.135073 0.524834
1.000000 0.187076 0.441382
0.333440 0.325811 0.767666
0.373968 0.322515 0.768673
0.508049 0.306065 0.773678
0.697658 0.263096 0.781827
0.900694 0.179355 0.771359
0.924224 0.273167 0.638300
0.978851 0.328374 0.554253
1.000000 0.347265 0.494118
0.000000 0.518242 0.752651
0.000000 0.510887 0.754421
0.270512 0.481575 0.763668
0.565942 0.477516 0.775570
0.831357 0.455360 0.791836
0.889036 0.489052 0.680537
0.954925 0.513817 0.616205
1.000000 0.518853 0.597101
0.000000 0.658015 0.742824
0.000000 0.658259 0.742885
0.041169 0.660182 0.743526
0.373602 0.665278 0.745632
0.645960 0.644190 0.770840
0.822873 0.655970 0.726986
0.915221 0.662409 0.682887
1.000000 0.661097 0.700740
0.000000 0.765682 0.755489
0.000000 0.766934 0.756588
0.259678 0.768399 0.757626
0.430579 0.772000 0.760250
0.588281 0.778805 0.765835
0.745937 0.794308 0.780270
0.898802 0.795895 0.780270
1.000000 0.785519 0.768490
0.222934 0.886961 0.791684
0.259953 0.887663 0.792355
0.363287 0.888609 0.793057
0.497414 0.890959 0.795712
0.642298 0.895964 0.804105
0.772580 0.907134 0.820340
0.894408 0.919738 0.816037
1.000000 0.896147 0.789761
0.480537 0.980255 0.825193
0.491096 0.979950 0.825284
0.536889 0.979431 0.827176
0.618219 0.979156 0.833249
0.727657 0.978210 0.848692
0.800778 0.979583 0.853483
0.879393 0.981353 0.855924
0.975738 0.983337 0.828153
0.546532 0.013794 0.885130
0.567010 0.000000 0.885618
0.645808 0.000000 0.887633
0.779782 0.000000 0.891814
0.956939 0.000000 0.898100
1.000000 0.000000 0.808255
1.000000 0.000000 0.695491
1.000000 0.054017 0.602930
0.531151 0.169650 0.884154
0.551995 0.160525 0.884703
0.632868 0.106081 0.886656
0.768948 0.000000 0.890745
0.947723 0.000000 0.897215
1.000000 0.000000 0.812161
1.000000 0.000000 0.698817
1.000000 0.172030 0.608118
0.456672 0.327123 0.880400
0.481392 0.323827 0.880858
0.573358 0.308324 0.882902
0.721187 0.270420 0.887175
0.908415 0.175753 0.893980
1.000000 0.024903 0.829007
1.000000 0.255375 0.713954
1.000000 0.334142 0.630854
0.223911 0.484169 0.872313
0.279240 0.482368 0.872526
0.429419 0.476173 0.874815
0.616144 0.462287 0.879515
0.824613 0.436469 0.887053
1.000000 0.413031 0.860075
1.000000 0.465644 0.744930
1.000000 0.499733 0.675257
0.000000 0.680690 0.849393
0.000000 0.676997 0.850431
0.084077 0.660609 0.855192
0.410864 0.625605 0.865476
0.681483 0.617762 0.875303
0.937163 0.603326 0.888060
0.982208 0.632349 0.786740
1.000000 0.646815 0.732265
0.000000 0.776394 0.854185
0.000000 0.776516 0.854093
0.110719 0.776730 0.853910
0.351873 0.777218 0.853452
0.517205 0.778225 0.852964
0.762325 0.759152 0.873655
0.926757 0.773983 0.834867
1.000000 0.778561 0.797452
0.118532 0.872404 0.864347
0.174258 0.872587 0.864408
0.296757 0.872984 0.864561
0.433143 0.873960 0.865110
0.574182 0.876066 0.866606
0.718410 0.880797 0.870817
0.862211 0.893736 0.884092
0.985809 0.895415 0.885649
0.340581 0.977020 0.894926
0.357153 0.976959 0.895018
0.418494 0.976654 0.895445
0.524468 0.976043 0.895262
0.649500 0.975372 0.896452
0.780270 0.975189 0.903105
0.891905 0.977813 0.918456
0.975006 0.982147 0.914305
0.621820 0.196139 0.989776
0.637263 0.188724 0.989899
0.697902 0.150881 0.990326
0.805509 0.000000 0.991333
0.951781 0.000000 0.993042
1.000000 0.000000 0.995605
1.000000 0.000000 0.858335
1.000000 0.000000 0.767453
0.611200 0.242649 0.989075
0.626551 0.237400 0.989166
0.688045 0.210880 0.989654
0.796933 0.127718 0.990723
0.944213 0.000000 0.992462
1.000000 0.000000 0.995087
1.000000 0.000000 0.861814
1.000000 0.000000 0.770321
0.562280 0.363592 0.986389
0.579278 0.360510 0.986542
0.645228 0.346899 0.987060
0.759792 0.315435 0.988251
0.911894 0.248386 0.990143
1.000000 0.000000 0.992889
1.000000 0.000000 0.876249
1.000000 0.249454 0.782925
0.451118 0.508476 0.981231
0.472633 0.506798 0.981384
0.552911 0.499489 0.981994
0.682582 0.483650 0.983276
0.845548 0.455390 0.985351
1.000000 0.405890 0.988312
1.000000 0.394598 0.904295
1.000000 0.452613 0.808164
0.195590 0.659754 0.972076
0.237278 0.655818 0.972595
0.351080 0.638666 0.974762
0.546044 0.635859 0.975982
0.736599 0.620844 0.978332
0.939605 0.597040 0.981689
1.000000 0.579675 0.942840
1.000000 0.614099 0.842893
0.000000 0.812284 0.960204
0.000000 0.812222 0.960113
0.171084 0.811948 0.959777
0.373327 0.800595 0.961364
0.564416 0.761166 0.968536
0.802487 0.747616 0.973297
1.000000 0.733089 0.978363
1.000000 0.757229 0.885222
0.186221 0.890379 0.962371
0.216495 0.890379 0.962280
0.306310 0.890379 0.962036
0.421576 0.890349 0.961517
0.546532 0.890288 0.960571
0.675288 0.889891 0.959045
0.880797 0.869078 0.968261
1.000000 0.880491 0.930510
0.369299 0.968963 0.965637
0.382361 0.968963 0.965606
0.432959 0.968963 0.965484
0.516289 0.968902 0.965301
0.619867 0.968841 0.964965
0.734768 0.968719 0.964721
0.854490 0.969055 0.965179
0.964721 0.973968 0.971038
