luts/日系自然[一麻]01.cube
# Created by Adobe Lightroom plugin Export LUT (1.24.0)
# www.johnrellis.com/lightroom/exportlut.htm
# Preset: 日系自然[一麻]01
# Color profile: C:\Program Files (x86)\Common Files\Adobe\Color\Profiles\Recommended\VideoHD.icc
LUT_3D_SIZE 32
DOMAIN_MIN 0.0 0.0 0.0
DOMAIN_MAX 1.0 1.0 1.0
0.000000 0.000000 0.000000
0.014466 0.000610 0.000000
0.063294 0.000000 0.000000
0.109499 0.001221 0.000000
0.148501 0.004486 0.000000
0.195224 0.004913 0.000000
0.243534 0.012177 0.000000
0.290715 0.017456 0.000000
0.335943 0.025727 0.000000
0.380133 0.037079 0.000000
0.424140 0.046296 0.000000
0.468788 0.061646 0.000000
0.514061 0.077211 0.000000
0.560052 0.088746 0.000000
0.606744 0.096345 0.000000
0.654017 0.103334 0.000000
0.700862 0.111147 0.000000
0.745510 0.117037 0.000000
0.788266 0.121553 0.000000
0.828702 0.127321 0.000000
0.866239 0.132479 0.000000
0.904509 0.136568 0.000000
0.941009 0.140780 0.000000
0.974273 0.144442 0.000000
1.000000 0.147677 0.000000
1.000000 0.150576 0.000000
1.000000 0.152346 0.000000
1.000000 0.154086 0.000000
1.000000 0.154726 0.000000
1.000000 0.155642 0.000000
1.000000 0.154604 0.000000
1.000000 0.153414 0.000000
0.000000 0.012543 0.000610
0.006348 0.013855 0.000000
0.061128 0.012177 0.000000
0.108736 0.011597 0.000000
0.148348 0.014649 0.000000
0.195163 0.018463 0.000000
0.243046 0.023987 0.000000
0.289281 0.030823 0.000000
0.334783 0.039094 0.000000
0.378546 0.048402 0.000000
0.422309 0.063325 0.000000
0.466712 0.075654 0.000000
0.511803 0.086641 0.000000
0.557641 0.093446 0.000000
0.604211 0.101076 0.000000
0.651514 0.108980 0.000000
0.698512 0.115785 0.000000
0.743252 0.120943 0.000000
0.785885 0.125093 0.000000
0.826352 0.130861 0.000000
0.863890 0.135317 0.000000
0.901884 0.138582 0.000000
0.937804 0.143404 0.000000
0.970642 0.146822 0.000000
1.000000 0.150057 0.000000
1.000000 0.151949 0.000000
1.000000 0.154086 0.000000
1.000000 0.155825 0.000000
1.000000 0.156222 0.000000
1.000000 0.156222 0.000000
1.000000 0.155856 0.000000
1.000000 0.154147 0.000000
0.000000 0.057191 0.008301
0.000000 0.057282 0.011505
0.045686 0.067659 0.000000
0.107637 0.060182 0.000000
0.149905 0.061891 0.000000
0.196933 0.071809 0.000000
0.244297 0.079744 0.000000
0.290623 0.085206 0.000000
0.335393 0.090578 0.000000
0.378759 0.094270 0.000000
0.422644 0.098909 0.000000
0.466896 0.103334 0.000000
0.511650 0.108492 0.000000
0.557244 0.114382 0.000000
0.603967 0.119570 0.000000
0.650965 0.125429 0.000000
0.697780 0.131136 0.000000
0.742428 0.135470 0.000000
0.785275 0.140230 0.000000
0.825681 0.144442 0.000000
0.863218 0.147555 0.000000
0.901366 0.151522 0.000000
0.936797 0.154513 0.000000
0.969390 0.157656 0.000000
0.999420 0.160189 0.000000
1.000000 0.161471 0.000000
1.000000 0.163638 0.000000
1.000000 0.164736 0.000000
1.000000 0.164614 0.000000
1.000000 0.164950 0.000000
1.000000 0.163699 0.000000
1.000000 0.161868 0.000000
0.000000 0.106905 0.022095
0.000000 0.106630 0.024323
0.004669 0.108614 0.020539
0.098268 0.115175 0.000000
0.148592 0.114656 0.000000
0.199588 0.118502 0.000000
0.248234 0.122133 0.000000
0.293553 0.125093 0.000000
0.338262 0.127565 0.000000
0.381476 0.129976 0.000000
0.425147 0.133364 0.000000
0.468879 0.136233 0.000000
0.513542 0.139864 0.000000
0.558953 0.144503 0.000000
0.604944 0.148959 0.000000
0.651698 0.153262 0.000000
0.697963 0.157473 0.000000
0.742214 0.161013 0.000000
0.784512 0.164431 0.000000
0.824613 0.167514 0.000000
0.861875 0.169528 0.000000
0.900084 0.172824 0.000000
0.934844 0.174716 0.000000
0.967102 0.176547 0.000000
0.997375 0.178042 0.000000
1.000000 0.179446 0.000000
1.000000 0.179995 0.000000
1.000000 0.180484 0.000000
1.000000 0.180392 0.000000
1.000000 0.179629 0.000000
1.000000 0.178103 0.000000
1.000000 0.175937 0.000000
0.000000 0.149447 0.040955
0.000000 0.149020 0.043336
0.000000 0.147829 0.053498
0.040101 0.154421 0.021149
0.137942 0.162997 0.000000
0.193515 0.159915 0.000000
0.245090 0.164462 0.000000
0.297551 0.166598 0.000000
0.341558 0.168246 0.000000
0.384710 0.170108 0.000000
0.427710 0.171664 0.000000
0.471595 0.173800 0.000000
0.515923 0.176761 0.000000
0.561425 0.180423 0.000000
0.607385 0.183413 0.000000
0.654047 0.187320 0.000000
0.700313 0.190372 0.000000
0.744381 0.193393 0.000000
0.786465 0.195804 0.000000
0.826352 0.197147 0.000000
0.864042 0.198978 0.000000
0.901610 0.200320 0.000000
0.935546 0.201602 0.000000
0.967498 0.202426 0.000000
0.997559 0.203037 0.000000
1.000000 0.203372 0.000000
1.000000 0.203403 0.000000
1.000000 0.202579 0.000000
1.000000 0.201968 0.000000
1.000000 0.200534 0.000000
1.000000 0.198489 0.000000
1.000000 0.196139 0.000000
0.000000 0.195438 0.051759
0.000000 0.195285 0.053986
0.000000 0.193759 0.063600
0.000000 0.195621 0.057771
0.098726 0.204379 0.003998
0.180087 0.211429 0.000000
0.235752 0.204654 0.000000
0.288273 0.209140 0.000000
0.340764 0.212070 0.000000
0.390997 0.213382 0.000000
0.433936 0.214298 0.000000
0.477729 0.215854 0.000000
0.521965 0.217685 0.000000
0.567254 0.220096 0.000000
0.613428 0.222873 0.000000
0.660334 0.226139 0.000000
0.705989 0.228275 0.000000
0.749599 0.230167 0.000000
0.791318 0.231601 0.000000
0.830503 0.232364 0.000000
0.869352 0.233066 0.000000
0.905760 0.233860 0.000000
0.958129 0.238315 0.000000
0.989471 0.237980 0.000000
1.000000 0.237369 0.000000
1.000000 0.236332 0.000000
1.000000 0.235050 0.000000
1.000000 0.233402 0.000000
1.000000 0.231540 0.000000
1.000000 0.229709 0.000000
1.000000 0.226841 0.000000
1.000000 0.223423 0.000000
0.000000 0.246128 0.065797
0.000000 0.246098 0.069001
0.000000 0.245274 0.078126
0.000000 0.244144 0.090394
0.000000 0.249760 0.051575
0.141604 0.257542 0.000000
0.223484 0.263127 0.000000
0.280583 0.251621 0.000000
0.333806 0.256443 0.000000
0.387793 0.260105 0.000000
0.444160 0.262852 0.000000
0.493294 0.264164 0.000000
0.537987 0.265049 0.000000
0.583520 0.266697 0.000000
0.629694 0.268864 0.000000
0.675563 0.270542 0.000000
0.719905 0.271580 0.000000
0.762448 0.272129 0.000000
0.803006 0.272404 0.000000
0.842863 0.272648 0.000000
0.883299 0.273014 0.000000
0.920195 0.272801 0.000000
0.954345 0.272099 0.000000
0.986481 0.271183 0.000000
1.000000 0.269657 0.000000
1.000000 0.268070 0.000000
1.000000 0.265751 0.000000
1.000000 0.263310 0.000000
1.000000 0.260990 0.000000
1.000000 0.257603 0.000000
1.000000 0.254307 0.000000
1.000000 0.250553 0.000000
0.000000 0.291417 0.089265
0.000000 0.291264 0.090913
0.000000 0.290776 0.094575
0.000000 0.290074 0.102510
0.000000 0.291020 0.102022
0.049042 0.297581 0.045045
0.180972 0.304265 0.000000
0.261601 0.308385 0.000000
0.319249 0.296818 0.000000
0.372320 0.298131 0.000000
0.427985 0.303471 0.000000
0.485481 0.308049 0.000000
0.545068 0.311986 0.000000
0.592126 0.312963 0.000000
0.638178 0.314183 0.000000
0.683192 0.314824 0.000000
0.726589 0.314794 0.000000
0.768399 0.314458 0.000000
0.808835 0.313573 0.000000
0.850004 0.313451 0.000000
0.887907 0.312718 0.000000
0.923125 0.311162 0.000000
0.955993 0.309148 0.000000
0.987152 0.306859 0.000000
1.000000 0.304723 0.000000
1.000000 0.301946 0.000000
1.000000 0.299016 0.000000
1.000000 0.295537 0.000000
1.000000 0.292149 0.000000
1.000000 0.288304 0.000000
1.000000 0.284092 0.000000
1.000000 0.279667 0.000000
0.000000 0.335973 0.109773
0.000000 0.335851 0.110689
0.000000 0.335637 0.114290
0.000000 0.335180 0.121004
0.000000 0.334417 0.130709
0.000000 0.338567 0.112673
0.124422 0.344427 0.051545
0.221347 0.350317 0.000000
0.299626 0.353216 0.000000
0.358343 0.341588 0.000000
0.411536 0.340246 0.000000
0.468757 0.347143 0.000000
0.528069 0.353368 0.000000
0.589410 0.358709 0.000000
0.649348 0.362524 0.000000
0.693385 0.361883 0.000000
0.735927 0.360662 0.000000
0.777859 0.359442 0.000000
0.819608 0.358495 0.000000
0.858213 0.356786 0.000000
0.894072 0.354162 0.000000
0.927642 0.351476 0.000000
0.959319 0.348333 0.000000
0.989532 0.345098 0.000000
1.000000 0.341466 0.000000
1.000000 0.337835 0.000000
1.000000 0.333715 0.000000
1.000000 0.329656 0.000000
1.000000 0.325383 0.000000
1.000000 0.320470 0.000000
1.000000 0.315801 0.000000
1.000000 0.310552 0.000000
0.000000 0.381140 0.132509
0.000000 0.380957 0.133272
0.000000 0.380774 0.135836
0.000000 0.380468 0.141787
0.000000 0.380041 0.150179
0.000000 0.380804 0.153048
0.000000 0.385779 0.124514
0.172274 0.391302 0.056764
0.260899 0.396338 0.000000
0.338048 0.398016 0.000000
0.397589 0.386847 0.000000
0.450019 0.381750 0.000000
0.509056 0.390021 0.000000
0.570001 0.397833 0.000000
0.633265 0.404822 0.000000
0.694789 0.408942 0.000000
0.749111 0.410468 0.000000
0.791440 0.408453 0.000000
0.830777 0.405585 0.000000
0.867369 0.401862 0.000000
0.901305 0.397772 0.000000
0.932860 0.393164 0.000000
0.962768 0.388525 0.000000
0.991363 0.383825 0.000000
1.000000 0.379004 0.000000
1.000000 0.374304 0.000000
1.000000 0.369177 0.000000
1.000000 0.363989 0.000000
1.000000 0.359075 0.000000
1.000000 0.353765 0.000000
1.000000 0.348150 0.000000
1.000000 0.342351 0.000000
0.000000 0.425727 0.155062
0.000000 0.425757 0.155398
0.000000 0.425879 0.157870
0.000000 0.425818 0.163027
0.000000 0.425910 0.170657
0.000000 0.425849 0.181277
0.000000 0.429358 0.166842
0.100832 0.434363 0.134432
0.216281 0.439368 0.064759
0.302281 0.444007 0.000000
0.378515 0.444373 0.000000
0.439094 0.433783 0.000000
0.489906 0.423957 0.000000
0.551080 0.434028 0.000000
0.616114 0.444526 0.000000
0.680171 0.452308 0.000000
0.741451 0.456580 0.000000
0.799252 0.457527 0.000000
0.841032 0.453620 0.000000
0.875669 0.448096 0.000000
0.907958 0.441993 0.000000
0.938201 0.435950 0.000000
0.967010 0.430060 0.000000
0.994751 0.424018 0.000000
1.000000 0.417914 0.000000
1.000000 0.412146 0.000000
1.000000 0.406104 0.000000
1.000000 0.400122 0.000000
1.000000 0.394049 0.000000
1.000000 0.387915 0.000000
1.000000 0.381720 0.000000
1.000000 0.375250 0.000000
0.000000 0.473243 0.178164
0.000000 0.473243 0.178470
0.000000 0.473335 0.180514
0.000000 0.473426 0.185031
0.000000 0.473915 0.191714
0.000000 0.474250 0.201053
0.000000 0.475776 0.205447
0.000000 0.480293 0.179721
0.161776 0.485054 0.143099
0.261143 0.489723 0.061067
0.345190 0.493721 0.000000
0.422065 0.494331 0.000000
0.496376 0.495888 0.000000
0.549554 0.482399 0.000000
0.616114 0.495064 0.000000
0.680629 0.504082 0.000000
0.742306 0.509239 0.000000
0.799954 0.510796 0.000000
0.852628 0.508873 0.000000
0.900694 0.504356 0.000000
0.930816 0.495796 0.000000
0.958831 0.487434 0.000000
0.985595 0.479042 0.000000
1.000000 0.471015 0.000000
1.000000 0.463355 0.000000
1.000000 0.455543 0.000000
1.000000 0.447791 0.000000
1.000000 0.440314 0.000000
1.000000 0.432898 0.000000
1.000000 0.425452 0.000000
1.000000 0.417945 0.000000
1.000000 0.410468 0.000000
0.000000 0.528283 0.203006
0.000000 0.528252 0.203159
0.000000 0.528099 0.205081
0.000000 0.528161 0.208865
0.000000 0.528130 0.214481
0.000000 0.528283 0.222904
0.000000 0.529015 0.233524
0.000000 0.533165 0.222538
0.015351 0.538903 0.194064
0.217472 0.544732 0.152834
0.312871 0.550927 0.050904
0.398505 0.556664 0.000000
0.477424 0.557000 0.000000
0.542443 0.546563 0.000000
0.593500 0.527123 0.000000
0.658137 0.538201 0.000000
0.720058 0.545312 0.000000
0.777707 0.548272 0.000000
0.830777 0.547753 0.000000
0.879454 0.544274 0.000000
0.923857 0.538445 0.000000
0.961242 0.530724 0.000000
0.987182 0.520989 0.000000
1.000000 0.511772 0.000000
1.000000 0.502739 0.000000
1.000000 0.494087 0.000000
1.000000 0.485451 0.000000
1.000000 0.477089 0.000000
1.000000 0.468696 0.000000
1.000000 0.460456 0.000000
1.000000 0.452216 0.000000
1.000000 0.444007 0.000000
0.000000 0.582238 0.225467
0.000000 0.582177 0.225681
0.000000 0.582116 0.227573
0.000000 0.582116 0.231083
0.000000 0.582330 0.236301
0.000000 0.582849 0.243931
0.000000 0.583917 0.253941
0.000000 0.585779 0.260563
0.000000 0.590204 0.236301
0.147860 0.595056 0.204318
0.268040 0.600031 0.157504
0.359838 0.604730 0.032136
0.444800 0.608576 0.000000
0.522576 0.606806 0.000000
0.586786 0.595331 0.000000
0.636805 0.574090 0.000000
0.695949 0.577417 0.000000
0.754116 0.582238 0.000000
0.808225 0.583337 0.000000
0.857877 0.581201 0.000000
0.903441 0.576532 0.000000
0.945403 0.570397 0.000000
0.984344 0.562676 0.000000
1.000000 0.553185 0.000000
1.000000 0.543053 0.000000
1.000000 0.533349 0.000000
1.000000 0.523705 0.000000
1.000000 0.514275 0.000000
1.000000 0.505028 0.000000
1.000000 0.495918 0.000000
1.000000 0.486915 0.000000
1.000000 0.477852 0.000000
0.000000 0.633997 0.249363
0.000000 0.633875 0.249577
0.000000 0.633814 0.251133
0.000000 0.633509 0.253941
0.000000 0.633448 0.258701
0.000000 0.633509 0.265507
0.000000 0.634028 0.274601
0.000000 0.635187 0.285863
0.000000 0.638025 0.276402
0.000000 0.641901 0.249699
0.212192 0.645991 0.215122
0.316869 0.650141 0.164034
0.404974 0.653437 0.025299
0.487953 0.655634 0.000000
0.564111 0.652094 0.000000
0.627710 0.639368 0.000000
0.676967 0.617578 0.000000
0.730282 0.613245 0.000000
0.785183 0.616022 0.000000
0.836027 0.615442 0.000000
0.882658 0.612268 0.000000
0.926268 0.607172 0.000000
0.966522 0.600366 0.000000
1.000000 0.592432 0.000000
1.000000 0.583276 0.000000
1.000000 0.572686 0.000000
1.000000 0.562066 0.000000
1.000000 0.551812 0.000000
1.000000 0.541741 0.000000
1.000000 0.531823 0.000000
1.000000 0.522118 0.000000
1.000000 0.512413 0.000000
0.000000 0.679500 0.273045
0.000000 0.679622 0.273411
0.000000 0.679652 0.274907
0.000000 0.679622 0.277714
0.000000 0.679896 0.282109
0.000000 0.680171 0.288640
0.000000 0.681209 0.297093
0.000000 0.682399 0.308049
0.000000 0.684352 0.317357
0.000000 0.687526 0.294102
0.138308 0.690669 0.264836
0.269993 0.693477 0.227024
0.363897 0.695613 0.173342
0.447761 0.696895 0.030671
0.527184 0.696742 0.000000
0.600977 0.691341 0.000000
0.663905 0.678309 0.000000
0.712856 0.656886 0.000000
0.760433 0.645258 0.000000
0.812650 0.646479 0.000000
0.861204 0.645045 0.000000
0.906401 0.641413 0.000000
0.948302 0.635981 0.000000
0.986938 0.628992 0.000000
1.000000 0.620630 0.000000
1.000000 0.611231 0.000000
1.000000 0.601038 0.000000
1.000000 0.589654 0.000000
1.000000 0.578668 0.000000
1.000000 0.567926 0.000000
1.000000 0.557153 0.000000
1.000000 0.546502 0.000000
0.000000 0.720180 0.297856
0.000000 0.720150 0.298070
0.000000 0.720119 0.299443
0.000000 0.720272 0.301915
0.000000 0.720546 0.306218
0.000000 0.721035 0.312139
0.000000 0.721706 0.320104
0.000000 0.722683 0.330510
0.000000 0.723995 0.342443
0.000000 0.726131 0.335790
0.000000 0.728664 0.310796
0.218296 0.731075 0.279515
0.320317 0.732906 0.239811
0.406073 0.733913 0.184573
0.486183 0.733974 0.056367
0.563256 0.732815 0.000000
0.634730 0.726650 0.000000
0.697017 0.713832 0.000000
0.746578 0.693568 0.000000
0.789425 0.675410 0.000000
0.839384 0.675898 0.000000
0.886351 0.673640 0.000000
0.929686 0.669520 0.000000
0.969848 0.663508 0.000000
1.000000 0.656062 0.000000
1.000000 0.647364 0.000000
1.000000 0.637598 0.000000
1.000000 0.627008 0.000000
1.000000 0.615564 0.000000
1.000000 0.603876 0.000000
1.000000 0.592309 0.000000
1.000000 0.580774 0.000000
0.000000 0.757351 0.325078
0.000000 0.757504 0.325200
0.000000 0.767575 0.335241
0.000000 0.767636 0.337743
0.000000 0.767788 0.341711
0.000000 0.768032 0.347295
0.000000 0.768368 0.354681
0.000000 0.768948 0.364080
0.000000 0.769894 0.375433
0.000000 0.770993 0.386786
0.000000 0.772885 0.364416
0.183200 0.774655 0.338018
0.289036 0.775845 0.304753
0.374243 0.776303 0.263249
0.452796 0.775906 0.207309
0.528161 0.774411 0.111025
0.602350 0.771847 0.000000
0.672145 0.764523 0.000000
0.733303 0.751522 0.000000
0.783719 0.732570 0.000000
0.822385 0.708248 0.000000
0.870085 0.707210 0.000000
0.914549 0.703792 0.000000
0.955535 0.698360 0.000000
0.993194 0.691249 0.000000
1.000000 0.682795 0.000000
1.000000 0.673213 0.000000
1.000000 0.662745 0.000000
1.000000 0.651453 0.000000
1.000000 0.639582 0.000000
1.000000 0.627131 0.000000
1.000000 0.614710 0.000000
0.000000 0.793210 0.355871
0.000000 0.794064 0.357061
0.000000 0.795071 0.358984
0.000000 0.795895 0.362097
0.000000 0.796628 0.366461
0.000000 0.797055 0.371862
0.000000 0.797360 0.378912
0.000000 0.797757 0.387366
0.000000 0.798306 0.398016
0.000000 0.799069 0.410498
0.000000 0.800443 0.406073
0.150576 0.802090 0.382300
0.256687 0.803250 0.353948
0.339208 0.803922 0.319463
0.414618 0.804013 0.277012
0.487922 0.803189 0.221073
0.560052 0.801541 0.127779
0.631495 0.798917 0.000000
0.699580 0.791836 0.000000
0.760433 0.779995 0.000000
0.812558 0.763302 0.000000
0.848539 0.734951 0.000000
0.894469 0.733089 0.000000
0.937011 0.728939 0.000000
0.976196 0.722713 0.000000
1.000000 0.715084 0.000000
1.000000 0.706172 0.000000
1.000000 0.696162 0.000000
1.000000 0.685328 0.000000
1.000000 0.673732 0.000000
1.000000 0.661311 0.000000
1.000000 0.647974 0.000000
0.000000 0.821530 0.383001
0.000000 0.822324 0.384283
0.000000 0.823239 0.386481
0.000000 0.824002 0.389410
0.000000 0.824704 0.393622
0.000000 0.825101 0.398749
0.000000 0.825376 0.405035
0.000000 0.825589 0.413214
0.000000 0.825895 0.423163
0.000000 0.826383 0.434760
0.000000 0.826932 0.448249
0.158450 0.828519 0.426947
0.243137 0.829831 0.401129
0.316258 0.830747 0.371557
0.385657 0.831113 0.336004
0.454017 0.830869 0.293034
0.522698 0.829831 0.236332
0.591577 0.827939 0.147677
0.660517 0.825345 0.000000
0.726925 0.818418 0.000000
0.787076 0.807309 0.000000
0.840879 0.793179 0.000000
0.875914 0.764736 0.000000
0.918181 0.757870 0.000000
0.958801 0.752895 0.000000
0.996216 0.746090 0.000000
1.000000 0.737758 0.000000
1.000000 0.728298 0.000000
1.000000 0.717922 0.000000
1.000000 0.706600 0.000000
1.000000 0.694362 0.000000
1.000000 0.681300 0.000000
0.000000 0.848173 0.411933
0.000000 0.848844 0.413123
0.000000 0.849577 0.415045
0.000000 0.850187 0.417914
0.000000 0.850736 0.421668
0.000000 0.850980 0.426673
0.000000 0.851194 0.432685
0.000000 0.851286 0.440314
0.000000 0.851530 0.449561
0.000000 0.851774 0.460578
0.000000 0.852110 0.473243
0.201480 0.852995 0.470863
0.253819 0.854429 0.448066
0.309575 0.855497 0.421302
0.368414 0.856229 0.390265
0.428809 0.856535 0.353948
0.491615 0.856260 0.310063
0.556481 0.855406 0.253819
0.622553 0.853941 0.169680
0.689723 0.851713 0.000000
0.755215 0.845487 0.000000
0.815427 0.835630 0.000000
0.872221 0.824704 0.000000
0.906188 0.796323 0.000000
0.945251 0.784512 0.000000
0.984100 0.778653 0.000000
1.000000 0.771023 0.000000
1.000000 0.762051 0.000000
1.000000 0.752010 0.000000
1.000000 0.740871 0.000000
1.000000 0.728725 0.000000
1.000000 0.715633 0.000000
0.000000 0.876646 0.448005
0.000000 0.876890 0.448615
0.000000 0.877073 0.449928
0.000000 0.877195 0.451850
0.000000 0.877226 0.455085
0.000000 0.877165 0.459205
0.000000 0.877104 0.464820
0.000000 0.877073 0.471626
0.000000 0.877073 0.480049
0.000000 0.877226 0.490181
0.130617 0.877379 0.501488
0.257755 0.877592 0.514519
0.290623 0.878965 0.496437
0.327123 0.880156 0.472938
0.369818 0.881132 0.445563
0.418097 0.881743 0.413184
0.471687 0.881834 0.375128
0.529046 0.881407 0.330571
0.589715 0.880400 0.273564
0.652522 0.878691 0.192996
0.717739 0.876188 0.000000
0.781033 0.869902 0.000000
0.840421 0.860288 0.000000
0.896941 0.849973 0.000000
0.931456 0.823178 0.000000
0.967559 0.806912 0.000000
1.000000 0.800259 0.000000
1.000000 0.791989 0.000000
1.000000 0.782376 0.000000
1.000000 0.771664 0.000000
1.000000 0.759884 0.000000
1.000000 0.746944 0.000000
0.000000 0.898833 0.478370
0.000000 0.899016 0.478828
0.000000 0.899168 0.480110
0.000000 0.899290 0.481819
0.000000 0.899290 0.484749
0.000000 0.899229 0.488502
0.000000 0.899107 0.493446
0.000000 0.899016 0.499580
0.000000 0.898955 0.507286
0.000000 0.898955 0.516533
0.183902 0.899016 0.526909
0.279911 0.899046 0.538659
0.328985 0.899657 0.537865
0.352636 0.900999 0.517906
0.383215 0.902159 0.494484
0.419409 0.903105 0.466651
0.462074 0.903746 0.433997
0.509972 0.903990 0.394995
0.563073 0.903685 0.349157
0.620325 0.902739 0.292546
0.680903 0.901122 0.213046
0.743587 0.898802 0.000000
0.805966 0.892668 0.000000
0.864530 0.883787 0.000000
0.918639 0.872374 0.000000
0.954650 0.847684 0.000000
0.988434 0.827634 0.000000
1.000000 0.820310 0.000000
1.000000 0.811398 0.000000
1.000000 0.801114 0.000000
1.000000 0.789700 0.000000
1.000000 0.777127 0.000000
0.000000 0.921111 0.510887
0.000000 0.921355 0.511681
0.000000 0.921477 0.512749
0.000000 0.921386 0.514275
0.000000 0.921172 0.516289
0.000000 0.920836 0.519280
0.000000 0.920409 0.523339
0.000000 0.919982 0.528313
0.000000 0.919554 0.534844
0.105379 0.919158 0.542504
0.229465 0.918761 0.551476
0.304021 0.918456 0.561578
0.364965 0.918090 0.573114
0.382757 0.919127 0.557671
0.402167 0.920226 0.536370
0.428107 0.921111 0.512291
0.460395 0.921843 0.483558
0.498909 0.922362 0.449897
0.543023 0.922576 0.410315
0.592920 0.922393 0.363592
0.647272 0.921630 0.305699
0.705379 0.920165 0.226047
0.766232 0.917845 0.000000
0.826963 0.911833 0.000000
0.884611 0.903258 0.000000
0.940124 0.894011 0.000000
0.977661 0.871519 0.000000
1.000000 0.847898 0.000000
1.000000 0.839567 0.000000
1.000000 0.829801 0.000000
1.000000 0.818723 0.000000
1.000000 0.806455 0.000000
0.000000 0.938659 0.536614
0.000000 0.938903 0.537346
0.000000 0.939025 0.538293
0.000000 0.938994 0.539635
0.000000 0.938903 0.541955
0.000000 0.938689 0.545037
0.000000 0.938476 0.548852
0.000000 0.938231 0.553979
0.000000 0.937957 0.560266
0.198428 0.937713 0.567620
0.273747 0.937377 0.576043
0.334081 0.937011 0.585534
0.386847 0.936584 0.596033
0.420294 0.936767 0.596612
0.432227 0.937957 0.578271
0.449042 0.939025 0.556786
0.471901 0.939971 0.531853
0.500938 0.940764 0.503258
0.536065 0.941344 0.469490
0.576867 0.941650 0.429603
0.623346 0.941527 0.381384
0.674708 0.940856 0.322332
0.730434 0.939452 0.241337
0.789456 0.937194 0.019348
0.848905 0.931518 0.000000
0.906126 0.923613 0.000000
0.961730 0.915129 0.000000
1.000000 0.894987 0.000000
1.000000 0.868559 0.000000
1.000000 0.859251 0.000000
1.000000 0.848447 0.000000
1.000000 0.836362 0.000000
0.000000 0.956023 0.563684
0.000000 0.956115 0.563989
0.000000 0.956146 0.564752
0.000000 0.956054 0.566125
0.000000 0.955901 0.567987
0.000000 0.955688 0.570733
0.000000 0.955383 0.574151
0.040894 0.955047 0.578790
0.187686 0.954681 0.584253
0.255436 0.954314 0.590784
0.311406 0.953857 0.598413
0.361059 0.953368 0.606928
0.406409 0.952880 0.616297
0.449042 0.952270 0.626215
0.461738 0.953216 0.613947
0.472694 0.954406 0.595361
0.488167 0.955535 0.573541
0.509056 0.956573 0.548272
0.536065 0.957458 0.519402
0.568597 0.958190 0.485420
0.606958 0.958587 0.445228
0.650538 0.958526 0.395483
0.699306 0.957855 0.333989
0.752956 0.956481 0.250156
0.810117 0.954284 0.022339
0.868406 0.948852 0.000000
0.925078 0.941466 0.000000
0.980468 0.933562 0.000000
1.000000 0.915740 0.000000
1.000000 0.889433 0.000000
1.000000 0.876738 0.000000
1.000000 0.864958 0.000000
0.000000 0.971221 0.587457
0.000000 0.971283 0.587915
0.000000 0.971313 0.588617
0.000000 0.971283 0.589837
0.000000 0.971191 0.591638
0.000000 0.971069 0.594385
0.140719 0.971008 0.598169
0.208164 0.970947 0.603052
0.261967 0.970855 0.608881
0.309667 0.970764 0.615595
0.354681 0.970581 0.623438
0.396643 0.970336 0.631861
0.436805 0.970001 0.640925
0.474891 0.969482 0.650568
0.501396 0.969512 0.652552
0.508171 0.970916 0.636652
0.518547 0.972229 0.618463
0.532708 0.973449 0.596857
0.551751 0.974640 0.572107
0.575860 0.975708 0.542992
0.605402 0.976501 0.508904
0.640528 0.976989 0.468391
0.680903 0.976989 0.417853
0.726741 0.976410 0.354223
0.777584 0.975097 0.268650
0.832914 0.973022 0.084535
0.890410 0.967834 0.000000
0.946777 0.961089 0.000000
1.000000 0.953887 0.000000
1.000000 0.938354 0.000000
1.000000 0.912261 0.000000
1.000000 0.895659 0.000000
0.134737 0.987335 0.615839
0.136568 0.987335 0.615900
0.146853 0.987243 0.616327
0.164736 0.987121 0.617212
0.189456 0.986938 0.618738
0.218418 0.986694 0.620935
0.249638 0.986389 0.623804
0.282780 0.986023 0.627588
0.316930 0.985657 0.632166
0.351873 0.985168 0.637629
0.386786 0.984649 0.643854
0.421149 0.984070 0.650752
0.455604 0.983398 0.658473
0.489418 0.982605 0.666804
