luts/日系自然[一麻]05.cube
# Created by Adobe Lightroom plugin Export LUT (1.24.0)
# www.johnrellis.com/lightroom/exportlut.htm
# Preset: 日系自然[一麻]05
# Color profile: C:\Program Files (x86)\Common Files\Adobe\Color\Profiles\Recommended\VideoHD.icc
LUT_3D_SIZE 5
DOMAIN_MIN 0.000000 0.000000 0.000000
DOMAIN_MAX 0.903226 0.903226 0.903226
0.000000 0.000000 0.000000
0.272862 0.015534 0.000000
0.556542 0.089509 0.000000
0.838254 0.130312 0.000000
1.000000 0.144656 0.000000
0.107149 0.249454 0.144167
0.256046 0.276921 0.009155
0.549035 0.271885 0.000000
0.836973 0.283207 0.000000
1.000000 0.273503 0.000000
0.277409 0.556542 0.346990
0.360143 0.562860 0.363256
0.559838 0.597498 0.150149
0.832303 0.548699 0.000000
1.000000 0.496925 0.000000
0.508537 0.809964 0.573358
0.548119 0.812985 0.585077
0.631159 0.824613 0.557061
0.802762 0.828702 0.306706
1.000000 0.754940 0.000000
0.718502 0.948333 0.759335
0.733547 0.948547 0.763760
0.784878 0.947082 0.777096
0.823453 0.959594 0.702541
0.967681 0.966644 0.472145
0.000000 0.000000 0.278630
0.259464 0.000000 0.276341
0.536095 0.000000 0.249821
0.820768 0.000000 0.220462
1.000000 0.112367 0.187198
0.000000 0.254398 0.259159
0.237247 0.268223 0.263279
0.531334 0.258549 0.238682
0.818448 0.263157 0.214359
1.000000 0.261326 0.180453
0.262974 0.540642 0.388098
0.348638 0.550286 0.404974
0.536217 0.577295 0.299504
0.812924 0.531060 0.191318
1.000000 0.494575 0.154452
0.514427 0.806210 0.599939
0.553796 0.810025 0.611994
0.648127 0.822812 0.613001
0.798032 0.826017 0.402075
1.000000 0.752804 0.132479
0.724453 0.948791 0.772824
0.739101 0.949004 0.777035
0.794827 0.950378 0.795071
0.833768 0.960754 0.735775
0.968475 0.967987 0.533928
0.000000 0.000000 0.549859
0.206180 0.000000 0.548302
0.514275 0.000000 0.541070
0.778500 0.000000 0.526909
1.000000 0.000000 0.478401
0.000000 0.268345 0.544823
0.153628 0.251835 0.543267
0.507805 0.238254 0.537102
0.778408 0.224460 0.519707
1.000000 0.193484 0.472236
0.000000 0.501488 0.507836
0.222049 0.506798 0.509758
0.474067 0.527977 0.515587
0.773190 0.522728 0.502190
1.000000 0.513542 0.485145
0.477394 0.774136 0.650294
0.521813 0.778347 0.658656
0.655055 0.805020 0.700008
0.778317 0.814450 0.608057
1.000000 0.748287 0.491066
0.723873 0.948363 0.805783
0.740780 0.949248 0.810971
0.801083 0.952331 0.830472
0.858610 0.959594 0.821439
0.963470 0.966369 0.676539
0.000000 0.011505 0.784421
0.000000 0.000000 0.783810
0.465034 0.000000 0.781399
0.746883 0.000000 0.775082
0.988312 0.000000 0.748348
0.000000 0.247135 0.781247
0.000000 0.244602 0.780606
0.453620 0.232761 0.777340
0.740963 0.205020 0.770108
0.983337 0.188174 0.743740
0.000000 0.528466 0.767605
0.000000 0.524590 0.767178
0.415015 0.502403 0.765805
0.727108 0.495766 0.759884
0.968292 0.493446 0.735195
0.211978 0.723323 0.731289
0.293400 0.724819 0.730983
0.484565 0.734768 0.733516
0.701686 0.754116 0.739284
0.964355 0.756283 0.739010
0.638453 0.933379 0.837308
0.663294 0.935332 0.841001
0.758145 0.944945 0.860533
0.882872 0.961151 0.901030
0.959594 0.966613 0.831357
0.000000 0.080415 0.975677
0.000000 0.063142 0.975280
0.381781 0.000000 0.973693
0.677089 0.000000 0.970794
0.944121 0.000000 0.966827
0.000000 0.244266 0.974365
0.000000 0.242283 0.973999
0.372259 0.233951 0.972473
0.673793 0.212467 0.969726
0.943053 0.164218 0.965850
0.000000 0.508293 0.968109
0.000000 0.489540 0.968902
0.344610 0.485145 0.967712
0.663600 0.478981 0.965209
0.938811 0.466163 0.961700
0.000000 0.742489 0.954894
0.000000 0.743465 0.955291
0.359655 0.746761 0.956756
0.659236 0.733547 0.956390
0.932219 0.725795 0.953063
0.426429 0.916167 0.931640
0.459052 0.917235 0.931762
0.572137 0.921782 0.932555
0.738186 0.930907 0.934630
0.928099 0.946105 0.940429
