luts/日系自然[一麻]07.cube
# Created by Adobe Lightroom plugin Export LUT (1.24.0)
# www.johnrellis.com/lightroom/exportlut.htm
# Preset: 日系自然[一麻]07
# Color profile: C:\Program Files (x86)\Common Files\Adobe\Color\Profiles\Recommended\VideoHD.icc
LUT_3D_SIZE 8
DOMAIN_MIN 0.000000 0.000000 0.000000
DOMAIN_MAX 0.903226 0.903226 0.903226
0.000000 0.000000 0.000000
0.170413 0.000000 0.000000
0.370672 0.000000 0.000000
0.536309 0.000000 0.000000
0.690517 0.000000 0.000000
0.827085 0.000000 0.000000
0.951415 0.000000 0.000000
1.000000 0.000000 0.000000
0.000000 0.141329 0.024994
0.165377 0.152377 0.000000
0.370001 0.154574 0.000000
0.531121 0.134798 0.000000
0.684047 0.116793 0.000000
0.821592 0.106172 0.000000
0.941863 0.108034 0.000000
1.000000 0.120363 0.000000
0.000000 0.271031 0.066560
0.031220 0.265415 0.088685
0.322393 0.306798 0.000000
0.536828 0.323949 0.000000
0.692256 0.315862 0.000000
0.834287 0.309514 0.000000
0.952667 0.300664 0.000000
1.000000 0.289555 0.000000
0.000000 0.369512 0.116060
0.000000 0.365820 0.121798
0.210971 0.379553 0.124147
0.458808 0.454322 0.000000
0.704219 0.506371 0.000000
0.847410 0.490761 0.000000
0.954101 0.465064 0.000000
1.000000 0.441505 0.000000
0.000000 0.455207 0.138735
0.000000 0.452827 0.142702
0.093629 0.444465 0.157809
0.320378 0.498726 0.140871
0.568963 0.585931 0.000000
0.808103 0.637263 0.000000
0.930846 0.614069 0.000000
1.000000 0.586419 0.000000
0.000000 0.537072 0.149233
0.000000 0.538567 0.152560
0.000000 0.532372 0.164645
0.193606 0.547814 0.172488
0.419806 0.621515 0.144015
0.665644 0.704982 0.000000
0.905699 0.755886 0.000000
1.000000 0.727657 0.000000
0.000000 0.645686 0.143832
0.000000 0.645655 0.146639
0.000000 0.640711 0.159091
0.000000 0.632380 0.180728
0.280369 0.680812 0.173129
0.519677 0.749050 0.147524
0.754757 0.813016 0.085695
0.986542 0.851438 0.000000
0.000000 0.802823 0.159976
0.000000 0.802274 0.162631
0.000000 0.800748 0.177646
0.000000 0.798672 0.204990
0.000000 0.795560 0.217075
0.401556 0.842863 0.217807
0.635706 0.887510 0.214328
0.849454 0.920897 0.188510
0.000000 0.015961 0.133883
0.168002 0.000000 0.137087
0.345769 0.000000 0.140047
0.494789 0.002258 0.147860
0.654597 0.000000 0.142733
0.798764 0.000000 0.136477
0.922362 0.000000 0.135195
1.000000 0.059174 0.135683
0.037140 0.153964 0.133303
0.184115 0.151308 0.135225
0.354894 0.143771 0.133852
0.511498 0.133242 0.130709
0.663752 0.122957 0.125307
0.804318 0.119234 0.119661
0.920867 0.126864 0.117525
1.000000 0.137392 0.116457
0.125002 0.280369 0.152743
0.148409 0.276982 0.144320
0.327611 0.303410 0.133455
0.526207 0.312474 0.064607
0.676051 0.304173 0.045594
0.814755 0.299351 0.048188
0.928801 0.291173 0.058106
1.000000 0.282750 0.060273
0.000000 0.372442 0.159487
0.009613 0.370001 0.153994
0.227848 0.375067 0.162448
0.451118 0.441108 0.129122
0.678767 0.483528 0.000000
0.822568 0.470680 0.000000
0.930449 0.449775 0.000000
1.000000 0.431281 0.000000
0.000000 0.457710 0.168154
0.000000 0.455421 0.163760
0.133394 0.446235 0.175875
0.322911 0.490517 0.169345
0.561273 0.573693 0.111849
0.794736 0.624475 0.000000
0.919768 0.604425 0.000000
1.000000 0.578882 0.000000
0.000000 0.535454 0.170779
0.000000 0.534508 0.167178
0.000000 0.528710 0.177493
0.203525 0.538994 0.188083
0.418616 0.613489 0.169253
0.662409 0.699275 0.112398
0.899779 0.750240 0.000000
1.000000 0.722774 0.000000
0.000000 0.639734 0.162539
0.000000 0.637873 0.158175
0.000000 0.632746 0.168521
0.000000 0.625208 0.188357
0.280827 0.672389 0.186465
0.516564 0.741878 0.168093
0.749813 0.806027 0.129305
0.979919 0.845274 0.000000
0.000000 0.794614 0.170108
0.000000 0.795712 0.167056
0.000000 0.793851 0.180179
0.000000 0.791867 0.206455
0.000000 0.799954 0.231571
0.403326 0.843473 0.231815
0.635370 0.885832 0.228794
0.849271 0.919646 0.210575
0.000000 0.057008 0.265690
0.129976 0.028992 0.267582
0.328618 0.000000 0.273655
0.511589 0.000000 0.280644
0.635340 0.102266 0.279789
0.759579 0.176699 0.292027
0.890471 0.191501 0.294285
1.000000 0.203555 0.291966
0.108156 0.177676 0.264012
0.150301 0.153567 0.267094
0.333318 0.140688 0.272099
0.501640 0.139528 0.275669
0.626093 0.180362 0.278508
0.756039 0.211612 0.288579
0.890501 0.211124 0.286198
1.000000 0.220462 0.283513
0.154788 0.300084 0.261418
0.213962 0.300969 0.263340
0.355932 0.303838 0.270939
0.501061 0.300237 0.269108
0.652399 0.297673 0.266728
0.794675 0.297368 0.264714
0.912749 0.297642 0.261845
1.000000 0.297673 0.258457
0.213413 0.402686 0.261875
0.251560 0.403388 0.266575
0.297581 0.396796 0.255100
0.469215 0.444617 0.262821
0.676722 0.471809 0.235172
0.814084 0.457649 0.224460
0.923796 0.445197 0.233066
1.000000 0.432471 0.234257
0.170321 0.482155 0.258762
0.181460 0.480354 0.255192
0.218662 0.473762 0.241825
0.348730 0.490913 0.252842
0.573877 0.577783 0.250370
0.792172 0.619684 0.226535
0.918334 0.599054 0.191867
1.000000 0.575402 0.189273
0.000000 0.552636 0.244083
0.000000 0.551934 0.241276
0.000000 0.547143 0.229801
0.242008 0.534997 0.243381
0.428382 0.608637 0.246677
0.666896 0.696712 0.245060
0.894835 0.745937 0.237583
1.000000 0.721462 0.201785
0.000000 0.651331 0.229770
0.000000 0.649744 0.226413
0.000000 0.644862 0.213321
0.000000 0.635889 0.227695
0.291356 0.665644 0.238987
0.521538 0.739345 0.243595
0.756527 0.807828 0.250309
0.980591 0.847044 0.257145
0.000000 0.797971 0.230350
0.000000 0.796933 0.226719
0.000000 0.795743 0.213596
0.000000 0.795224 0.236118
0.000000 0.792874 0.264744
0.405676 0.840726 0.276493
0.640040 0.885618 0.289158
0.854398 0.920500 0.294865
0.000000 0.094270 0.371771
0.000000 0.089113 0.373846
0.275669 0.037720 0.377356
0.452796 0.000000 0.386877
0.635248 0.000000 0.407355
0.775692 0.000000 0.405737
0.876066 0.185245 0.402747
0.970153 0.269841 0.412726
0.000000 0.174441 0.373602
0.020539 0.158663 0.375311
0.283330 0.148653 0.378668
0.456855 0.126680 0.388128
0.636683 0.101991 0.406806
0.772152 0.152102 0.404395
0.871977 0.227420 0.402625
0.966613 0.296696 0.414191
0.187289 0.308629 0.366033
0.226047 0.307988 0.368872
0.308751 0.284855 0.378576
0.466377 0.278721 0.386969
0.643702 0.284031 0.404944
0.761105 0.311742 0.403937
0.866484 0.350500 0.413245
0.970581 0.376074 0.421271
0.189364 0.422034 0.368933
0.228092 0.423133 0.370550
0.341192 0.429358 0.378607
0.495033 0.443732 0.396490
0.637507 0.443336 0.395575
0.769192 0.443549 0.394415
0.889189 0.444251 0.393133
0.998627 0.443244 0.390234
0.205905 0.518791 0.353857
0.239689 0.518822 0.355627
0.341466 0.521202 0.366339
0.414679 0.515221 0.360174
0.594324 0.581170 0.387121
0.785550 0.606683 0.379675
0.910643 0.587976 0.363134
1.000000 0.574090 0.368383
0.249302 0.594354 0.361883
0.256535 0.595605 0.360540
0.279271 0.589776 0.348180
0.317388 0.580041 0.327825
0.453498 0.607599 0.346532
0.681727 0.698817 0.379217
0.888579 0.741360 0.395392
1.000000 0.719387 0.365515
0.000000 0.673152 0.327947
0.000000 0.672755 0.325658
0.000000 0.669764 0.315282
0.000000 0.663661 0.295598
0.311009 0.656092 0.311406
0.532280 0.736233 0.339330
0.767575 0.808927 0.377752
0.977203 0.846891 0.409613
0.000000 0.810239 0.319921
0.000000 0.809781 0.317388
0.000000 0.808225 0.307256
0.000000 0.806332 0.288121
0.000000 0.799741 0.311955
0.404608 0.832914 0.340032
0.646815 0.882994 0.373205
0.863890 0.921721 0.404852
0.000000 0.120668 0.473671
0.000000 0.118044 0.475135
0.215946 0.105013 0.477241
0.396490 0.031647 0.482765
0.563561 0.000000 0.497078
0.748135 0.000000 0.529168
0.891569 0.000000 0.526848
0.983032 0.187930 0.514641
0.000000 0.174380 0.474586
0.000000 0.166445 0.476417
0.223606 0.158053 0.478767
0.398871 0.136355 0.483162
0.566033 0.098939 0.498329
0.748775 0.009033 0.528801
0.888762 0.108370 0.525444
0.980468 0.227848 0.514458
0.168917 0.313848 0.472175
0.184878 0.305821 0.473640
0.247288 0.271275 0.478431
0.408728 0.263432 0.484932
0.571557 0.255375 0.498756
0.745449 0.259068 0.522576
0.874235 0.285740 0.518059
0.967193 0.334783 0.512779
0.207065 0.419501 0.465461
0.237400 0.420386 0.466865
0.331334 0.424964 0.474525
0.432502 0.406989 0.492683
0.587854 0.407446 0.505486
0.749416 0.423560 0.521355
0.853330 0.445411 0.516838
0.948699 0.473671 0.522942
0.183780 0.529595 0.466316
0.217380 0.531243 0.468147
0.317205 0.537407 0.475410
0.452583 0.550774 0.490791
0.611688 0.573022 0.516503
0.736782 0.573907 0.516350
0.857908 0.575158 0.516411
0.971160 0.574609 0.514580
0.118532 0.612787 0.433448
0.165682 0.613916 0.434943
0.281559 0.615595 0.439979
0.418952 0.619867 0.454780
0.503838 0.613428 0.450294
0.692653 0.690608 0.503563
0.874662 0.724025 0.516899
0.994110 0.706325 0.496651
0.000000 0.697841 0.427375
0.000000 0.697108 0.427588
0.226932 0.695949 0.430884
0.319097 0.692714 0.423713
0.367132 0.682094 0.395514
0.537285 0.716823 0.430060
0.776455 0.803250 0.495674
0.967529 0.838773 0.529290
0.000000 0.814115 0.421454
0.000000 0.813474 0.418982
0.000000 0.811337 0.409064
0.000000 0.811917 0.393988
0.000000 0.808164 0.369146
0.381720 0.808438 0.399237
0.644617 0.870756 0.453620
0.870298 0.917021 0.507866
0.000000 0.145418 0.582483
0.000000 0.143313 0.583185
0.087953 0.133181 0.583154
0.342229 0.105959 0.585290
0.506279 0.000000 0.593500
0.666407 0.000000 0.608728
0.846494 0.000000 0.643488
0.984009 0.000000 0.641962
0.000000 0.178347 0.577295
0.000000 0.176699 0.577417
0.103731 0.168765 0.578271
0.342199 0.150851 0.581872
0.503899 0.112062 0.588830
0.663416 0.000000 0.604517
0.842527 0.000000 0.639307
0.980346 0.055848 0.638514
0.000000 0.302373 0.576989
0.000000 0.294408 0.577874
0.136873 0.264805 0.581598
0.349279 0.255406 0.583459
0.507836 0.241154 0.589746
0.666987 0.231205 0.605432
0.843961 0.236576 0.638605
0.979248 0.265019 0.637049
0.185275 0.428931 0.572686
0.215030 0.427771 0.573663
0.304295 0.424445 0.580346
0.367224 0.383276 0.590997
0.521172 0.378882 0.598840
0.679866 0.380316 0.613764
0.849332 0.401404 0.641260
0.975158 0.429664 0.638849
0.180423 0.522087 0.561791
0.211093 0.522667 0.562768
0.302831 0.525719 0.567468
0.425788 0.534417 0.578302
0.537682 0.521843 0.599420
0.688197 0.528008 0.614038
0.843687 0.552209 0.634546
0.947021 0.570367 0.631891
0.001648 0.628046 0.558648
0.128573 0.630152 0.560937
0.257877 0.634089 0.565728
0.395575 0.642878 0.576318
0.547295 0.658686 0.595361
0.714290 0.691096 0.632837
0.837675 0.696864 0.637995
0.952941 0.699123 0.639826
0.000000 0.722469 0.522301
0.000000 0.723812 0.523583
0.000000 0.726009 0.526268
0.279576 0.730373 0.533593
0.480690 0.732296 0.550988
0.586145 0.723629 0.546532
0.794522 0.803830 0.624537
0.963165 0.833310 0.649317
0.000000 0.833036 0.512047
0.000000 0.832090 0.511528
0.000000 0.830442 0.511925
0.000000 0.829191 0.517266
0.337163 0.824735 0.515679
0.412665 0.816861 0.482124
0.637690 0.851102 0.539483
0.881621 0.913909 0.623529
0.000000 0.167178 0.695644
0.000000 0.165316 0.696010
0.000000 0.155489 0.696376
0.264714 0.132570 0.697749
0.450324 0.062043 0.699519
0.603754 0.000000 0.703090
0.757748 0.000000 0.716304
0.928344 0.000000 0.745907
0.000000 0.191897 0.693263
0.000000 0.190311 0.693782
0.000000 0.182193 0.694209
0.263951 0.163973 0.695277
0.449165 0.127016 0.697353
0.602502 0.000000 0.701045
0.756374 0.000000 0.714229
0.928069 0.000000 0.745022
0.000000 0.293523 0.689509
0.000000 0.285466 0.689967
0.000000 0.260258 0.691371
0.262516 0.249607 0.692805
0.447974 0.232029 0.695369
0.602411 0.203861 0.700130
0.758328 0.184329 0.714656
0.935058 0.184634 0.750118
0.000000 0.426123 0.683131
0.000000 0.420905 0.683162
0.132448 0.399084 0.685481
0.259586 0.356756 0.690486
0.446723 0.347814 0.694270
0.603540 0.335241 0.700649
0.762570 0.333989 0.716091
0.937102 0.354284 0.749325
0.000000 0.529412 0.669062
0.094820 0.528496 0.669703
0.233738 0.524834 0.673396
0.363745 0.517937 0.682246
0.445106 0.472328 0.692988
0.604822 0.467628 0.700740
0.768002 0.475471 0.716945
0.937743 0.509239 0.747341
0.000000 0.622309 0.664912
0.000000 0.622492 0.665522
0.154879 0.623011 0.668055
0.333440 0.625055 0.673610
0.491890 0.632868 0.683680
0.621576 0.622309 0.706661
0.781613 0.635035 0.724880
0.937743 0.668421 0.750118
0.000000 0.733425 0.661921
0.000000 0.734005 0.662684
0.000000 0.735836 0.665309
0.232944 0.740108 0.671412
0.446601 0.748409 0.683009
0.631800 0.765408 0.705501
0.812284 0.802335 0.751766
0.932555 0.807370 0.757412
0.000000 0.847593 0.624964
0.000000 0.847898 0.625177
0.000000 0.849363 0.626490
0.000000 0.851255 0.629023
0.200656 0.853666 0.635096
0.520836 0.850889 0.651057
0.657374 0.840177 0.644221
0.896849 0.912474 0.748745
0.000000 0.198062 0.837003
0.000000 0.195987 0.837125
0.000000 0.186709 0.836545
0.000000 0.165866 0.836576
0.382788 0.122255 0.836790
0.555657 0.000000 0.837705
0.708370 0.000000 0.840299
0.861540 0.000000 0.849546
0.000000 0.216373 0.835142
0.000000 0.214725 0.835325
0.000000 0.206363 0.835080
0.000000 0.188022 0.835080
0.381262 0.152956 0.835477
0.554559 0.035309 0.836545
0.707393 0.000000 0.839109
0.860838 0.000000 0.848325
0.000000 0.298131 0.831144
0.000000 0.289586 0.831510
0.000000 0.269810 0.831876
0.000000 0.257816 0.832822
0.374273 0.236393 0.833402
0.550866 0.201053 0.834775
0.705776 0.132631 0.837949
0.861357 0.000000 0.847776
0.000000 0.421424 0.824338
0.000000 0.416236 0.824826
0.000000 0.392615 0.826291
0.000000 0.350591 0.829160
0.357916 0.337407 0.830686
0.543145 0.317510 0.833188
0.703212 0.287968 0.837369
0.863401 0.275914 0.848112
0.000000 0.543267 0.815061
0.000000 0.541619 0.815671
0.000000 0.533989 0.817472
0.187442 0.503349 0.821592
0.322576 0.446509 0.827359
0.527855 0.434241 0.830808
0.697841 0.417884 0.836301
0.866453 0.421332 0.848356
0.000000 0.645350 0.805783
0.000000 0.644648 0.805722
0.000000 0.642329 0.805966
0.202274 0.634791 0.809232
0.405127 0.621576 0.816861
0.514397 0.570245 0.828702
0.695827 0.566308 0.836545
0.872526 0.578973 0.850248
0.000000 0.745998 0.806882
0.000000 0.745693 0.806973
0.000000 0.744320 0.807431
0.000000 0.742489 0.808865
0.343511 0.741115 0.811704
0.553460 0.744259 0.817227
0.704250 0.727169 0.836454
0.882200 0.741390 0.853849
0.000000 0.870573 0.807950
0.000000 0.870481 0.807980
0.000000 0.870329 0.808560
0.000000 0.870420 0.810178
0.000000 0.870665 0.813046
0.474983 0.872190 0.819028
0.705531 0.879820 0.834348
0.915068 0.913542 0.884001
