luts/日系自然[一麻]04.cube
# Created by Adobe Lightroom plugin Export LUT (1.24.0)
# www.johnrellis.com/lightroom/exportlut.htm
# Preset: 日系自然[一麻]04
# Color profile: C:\Program Files (x86)\Common Files\Adobe\Color\Profiles\Recommended\VideoHD.icc
LUT_3D_SIZE 8
DOMAIN_MIN 0.000000 0.000000 0.000000
DOMAIN_MAX 0.903226 0.903226 0.903226
0.000000 0.000000 0.000000
0.141054 0.003174 0.000000
0.308751 0.022248 0.000000
0.466468 0.063996 0.000000
0.628412 0.103243 0.000000
0.787076 0.124636 0.000000
0.933501 0.138735 0.000000
1.000000 0.143648 0.000000
0.000000 0.136629 0.035981
0.136507 0.151278 0.000000
0.302190 0.149264 0.000000
0.457099 0.157717 0.000000
0.617914 0.170535 0.000000
0.777310 0.182101 0.000000
0.920165 0.188235 0.000000
1.000000 0.188296 0.000000
0.000000 0.289525 0.096681
0.048768 0.287114 0.101900
0.288640 0.319921 0.000000
0.458198 0.307683 0.000000
0.618219 0.305272 0.000000
0.785428 0.312963 0.000000
0.929015 0.311223 0.000000
1.000000 0.301946 0.000000
0.000000 0.438270 0.162295
0.000000 0.436194 0.165072
0.223880 0.448951 0.134676
0.451637 0.497200 0.000000
0.645808 0.491341 0.000000
0.795682 0.465248 0.000000
0.927062 0.447852 0.000000
1.000000 0.429969 0.000000
0.000000 0.594476 0.223362
0.000000 0.593072 0.225040
0.179995 0.589746 0.233066
0.378149 0.623224 0.134524
0.607691 0.659663 0.000000
0.784970 0.634882 0.000000
0.914672 0.596521 0.000000
1.000000 0.557763 0.000000
0.000000 0.730098 0.288243
0.000000 0.732692 0.291691
0.076204 0.730251 0.297520
0.338079 0.736843 0.279515
0.522698 0.764645 0.140566
0.740108 0.788144 0.000000
0.912474 0.759701 0.000000
1.000000 0.712795 0.000000
0.000000 0.849149 0.374975
0.000000 0.849363 0.376867
0.123018 0.847135 0.380774
0.347906 0.843656 0.389837
0.482918 0.857298 0.328985
0.651850 0.876829 0.165042
0.851957 0.888945 0.000000
1.000000 0.855222 0.000000
0.185306 0.949859 0.489296
0.215122 0.949554 0.489998
0.306584 0.948577 0.494331
0.421942 0.946929 0.503685
0.515587 0.943725 0.481849
0.619257 0.957610 0.391913
0.767056 0.969360 0.167208
0.949248 0.970550 0.000000
0.000000 0.000000 0.149508
0.139437 0.000000 0.148745
0.299535 0.000000 0.138735
0.451637 0.000000 0.120455
0.612604 0.049348 0.097963
0.772274 0.095338 0.019196
0.913603 0.118837 0.000000
1.000000 0.128267 0.000000
0.000000 0.140810 0.144411
0.129366 0.146181 0.143740
0.294469 0.143954 0.133211
0.449470 0.145846 0.115908
0.609735 0.155886 0.091707
0.770230 0.167361 0.000000
0.907439 0.175540 0.000000
1.000000 0.177310 0.000000
0.000000 0.292027 0.164645
0.082429 0.290227 0.167727
0.282353 0.313420 0.115694
0.449958 0.297642 0.093599
0.608423 0.297429 0.035309
0.770809 0.302861 0.000000
0.908782 0.300938 0.000000
1.000000 0.293858 0.000000
0.000000 0.433997 0.201907
0.000000 0.432380 0.203922
0.225132 0.439857 0.193942
0.436530 0.481514 0.000000
0.621668 0.471138 0.000000
0.770718 0.448188 0.000000
0.905150 0.436530 0.000000
1.000000 0.422156 0.000000
0.000000 0.591211 0.249912
0.000000 0.589319 0.250919
0.180301 0.584710 0.257084
0.371008 0.611810 0.191531
0.594751 0.646723 0.000000
0.771725 0.623590 0.000000
0.903410 0.588128 0.000000
1.000000 0.552819 0.000000
0.000000 0.724788 0.304540
0.000000 0.724361 0.305974
0.063294 0.722255 0.311315
0.336461 0.727657 0.301366
0.516777 0.757168 0.193729
0.734554 0.782986 0.000000
0.906706 0.754971 0.000000
1.000000 0.708675 0.000000
0.000000 0.844083 0.383398
0.000000 0.842893 0.383246
0.106874 0.840574 0.386725
0.343206 0.837675 0.396063
0.480781 0.852018 0.345678
0.647791 0.872190 0.206088
0.846342 0.884092 0.000000
1.000000 0.850584 0.000000
0.172946 0.946471 0.492012
0.209964 0.946746 0.494179
0.302068 0.945647 0.497963
0.418677 0.944121 0.507317
0.525689 0.945373 0.501061
0.623072 0.957763 0.412818
0.766751 0.968536 0.213413
0.948516 0.969879 0.000000
0.000000 0.000000 0.313024
0.115236 0.000000 0.312596
0.290471 0.000000 0.308873
0.439643 0.000000 0.302220
0.606348 0.000000 0.281682
0.774929 0.000000 0.249943
0.914305 0.039918 0.251164
1.000000 0.104494 0.232914
0.000000 0.150484 0.309636
0.079011 0.141451 0.308965
0.285466 0.136477 0.305364
0.436439 0.130129 0.296452
0.603479 0.032746 0.271641
0.767086 0.129091 0.260746
0.908415 0.151125 0.246983
1.000000 0.162844 0.229007
0.000000 0.291875 0.298375
0.090547 0.293553 0.297765
0.264958 0.299138 0.293431
0.434394 0.291295 0.279515
0.603388 0.290562 0.268193
0.768704 0.292790 0.256504
0.907744 0.293248 0.242557
1.000000 0.288945 0.224094
0.000000 0.443214 0.329290
0.085725 0.443519 0.328222
0.238682 0.442542 0.313115
0.428382 0.474556 0.272007
0.615442 0.459205 0.252354
0.768399 0.445563 0.247166
0.905974 0.436378 0.233829
1.000000 0.422889 0.213657
0.000000 0.597131 0.335729
0.000000 0.596033 0.336645
0.182925 0.592554 0.341161
0.372442 0.605585 0.325841
0.591485 0.644190 0.238071
0.768795 0.617517 0.200778
0.900206 0.582483 0.209567
1.000000 0.554406 0.195102
0.000000 0.727596 0.375860
0.000000 0.727474 0.376989
0.116976 0.725093 0.381109
0.354223 0.720790 0.389197
0.514702 0.750546 0.325750
0.729213 0.778347 0.208042
0.901976 0.750607 0.152285
1.000000 0.706142 0.145907
0.000000 0.847257 0.443305
0.000000 0.846250 0.443122
0.177676 0.843351 0.445258
0.362371 0.839719 0.452033
0.494057 0.848386 0.426795
0.649622 0.870329 0.335637
0.847257 0.884703 0.161837
1.000000 0.851377 0.000000
0.228275 0.947143 0.532433
0.249943 0.946563 0.532464
0.327153 0.945403 0.535790
0.436378 0.944549 0.545464
0.547478 0.942443 0.553002
0.635737 0.956207 0.482979
0.770596 0.968170 0.342565
0.949218 0.970184 0.000000
0.000000 0.000000 0.462623
0.000000 0.000000 0.463294
0.268864 0.000000 0.460426
0.431403 0.000000 0.456092
0.581445 0.000000 0.450629
0.745357 0.000000 0.443427
0.896361 0.000000 0.414893
1.000000 0.000000 0.375067
0.000000 0.139864 0.463111
0.000000 0.138064 0.462593
0.262303 0.131289 0.460029
0.430488 0.116823 0.455879
0.581109 0.100923 0.449378
0.746273 0.000000 0.440467
0.895781 0.000000 0.410803
1.000000 0.000000 0.371160
0.000000 0.307866 0.453559
0.000000 0.304448 0.453132
0.228977 0.287205 0.451728
0.418433 0.281987 0.447730
0.578119 0.282383 0.444038
0.752712 0.260746 0.429328
0.904936 0.245151 0.400275
1.000000 0.303349 0.401984
0.000000 0.438788 0.446998
0.000000 0.439124 0.446143
0.232212 0.441962 0.443397
0.398291 0.446754 0.436744
0.582025 0.441627 0.426276
0.744961 0.439918 0.417975
0.889647 0.437842 0.409155
1.000000 0.430701 0.395636
0.000000 0.604578 0.486946
0.000000 0.603418 0.484657
0.236271 0.600793 0.477729
0.383917 0.598901 0.461494
0.576898 0.631189 0.427192
0.752743 0.603754 0.409522
0.888823 0.579950 0.407050
1.000000 0.562921 0.391272
0.139864 0.733242 0.520226
0.162478 0.735683 0.517662
0.202823 0.735256 0.494179
0.378424 0.731502 0.495521
0.524071 0.743618 0.480385
0.723720 0.773526 0.417365
0.893858 0.744808 0.386694
1.000000 0.704250 0.381170
0.000000 0.851011 0.533043
0.045655 0.850858 0.534142
0.257115 0.849424 0.536980
0.400610 0.846555 0.542901
0.531029 0.843809 0.547814
0.658778 0.867582 0.489723
0.846555 0.883848 0.401556
1.000000 0.850401 0.355596
0.299901 0.950683 0.601007
0.315740 0.950378 0.601404
0.375067 0.949096 0.603662
0.465980 0.947082 0.609125
0.570275 0.943786 0.617334
0.658595 0.952544 0.584253
0.778866 0.966217 0.492775
0.950317 0.970397 0.346654
0.000000 0.000000 0.613642
0.000000 0.000000 0.614282
0.232120 0.000000 0.612085
0.416632 0.000000 0.609094
0.576898 0.000000 0.604883
0.727108 0.000000 0.598108
0.862394 0.000000 0.581018
1.000000 0.000000 0.557092
0.000000 0.137240 0.613642
0.000000 0.135592 0.614435
0.222416 0.127169 0.612604
0.413062 0.106233 0.608362
0.576471 0.030365 0.605097
0.726650 0.000000 0.597101
0.862455 0.000000 0.579736
1.000000 0.000000 0.555413
0.000000 0.298497 0.608270
0.000000 0.284642 0.608667
0.170077 0.279973 0.606500
0.397345 0.273869 0.604181
0.569299 0.263920 0.599939
0.717617 0.258427 0.587915
0.859831 0.251041 0.572259
1.000000 0.230289 0.547387
0.000000 0.453376 0.600092
0.000000 0.453010 0.599512
0.028199 0.451270 0.598016
0.364233 0.432502 0.596948
0.557427 0.427161 0.592493
0.707424 0.427649 0.579400
0.861601 0.419471 0.563531
1.000000 0.410285 0.540093
0.000000 0.582086 0.591760
0.000000 0.582666 0.591516
0.173526 0.584192 0.589532
0.374701 0.586847 0.584619
0.531640 0.588037 0.574182
0.703090 0.585321 0.567742
0.856107 0.583459 0.562158
0.991058 0.576684 0.552026
0.000000 0.729335 0.623835
0.000000 0.729030 0.622950
0.235233 0.726101 0.617517
0.405341 0.722316 0.610010
0.526085 0.719265 0.595636
0.700282 0.752102 0.574609
0.867002 0.730098 0.560540
0.992187 0.703029 0.553613
0.285344 0.847807 0.657649
0.304906 0.846983 0.656703
0.375402 0.845090 0.654871
0.438544 0.845548 0.639582
0.544427 0.842954 0.635767
0.663661 0.853941 0.622126
0.838346 0.876158 0.569421
0.991119 0.844083 0.533989
0.405188 0.946838 0.693416
0.407416 0.946807 0.690883
0.417945 0.946929 0.680232
0.477119 0.947601 0.675410
0.580468 0.944549 0.682185
0.683131 0.943389 0.684749
0.786007 0.960052 0.626917
0.947570 0.966949 0.538903
0.000000 0.001831 0.748592
0.000000 0.000000 0.748745
0.160342 0.000000 0.746517
0.382391 0.000000 0.743740
0.553857 0.000000 0.743038
0.710384 0.000000 0.738949
0.857481 0.000000 0.730404
0.984894 0.000000 0.708614
0.000000 0.137087 0.743832
0.000000 0.135958 0.743374
0.143008 0.128237 0.741848
0.376471 0.111055 0.740169
0.548669 0.048280 0.738308
0.705837 0.000000 0.734707
0.852873 0.000000 0.726284
0.980987 0.000000 0.705348
0.000000 0.280339 0.743771
0.000000 0.279789 0.743587
0.000000 0.277134 0.742916
0.360662 0.270665 0.739223
0.540948 0.261326 0.736202
0.702388 0.248661 0.732418
0.850401 0.238773 0.723201
0.978241 0.236149 0.702480
0.000000 0.454719 0.738705
0.000000 0.452705 0.738033
0.000000 0.445533 0.737362
0.331090 0.427283 0.738827
0.529900 0.423499 0.736416
0.699519 0.417243 0.731899
0.846616 0.415778 0.719936
0.975677 0.413977 0.700984
0.000000 0.585870 0.726436
0.000000 0.585931 0.726040
0.000000 0.586786 0.724636
0.308385 0.588739 0.722255
0.503655 0.575372 0.720394
0.680385 0.570214 0.716243
0.825132 0.568719 0.704616
0.969818 0.563806 0.691096
0.000000 0.707424 0.718410
0.000000 0.708858 0.719203
0.194339 0.709926 0.717769
0.372961 0.712032 0.714900
0.520989 0.714137 0.709377
0.661158 0.716152 0.701015
0.827390 0.720241 0.702937
0.967590 0.718746 0.699916
0.161257 0.853880 0.763760
0.207004 0.854185 0.763638
0.314336 0.853117 0.760525
0.441993 0.850950 0.754635
0.572412 0.847257 0.746792
0.677424 0.843412 0.734005
0.829007 0.867399 0.715053
0.973693 0.842344 0.698695
0.403601 0.948974 0.781735
0.414313 0.948516 0.781064
0.460914 0.947509 0.780087
0.541283 0.946624 0.780179
0.615106 0.945922 0.771206
0.697108 0.943511 0.764797
0.798245 0.951781 0.751705
0.945769 0.963745 0.701839
0.000000 0.024018 0.860288
0.000000 0.017548 0.860472
0.000000 0.000000 0.859770
0.333562 0.000000 0.858793
0.511437 0.000000 0.856565
0.672023 0.000000 0.853635
0.823209 0.000000 0.850065
0.970825 0.000000 0.844755
0.000000 0.138491 0.858305
0.000000 0.137209 0.858640
0.000000 0.131075 0.857969
0.328161 0.116457 0.856565
0.507958 0.079072 0.854368
0.669215 0.000000 0.851225
0.820401 0.000000 0.847349
0.967437 0.000000 0.841611
0.000000 0.272831 0.857450
0.000000 0.272313 0.857237
0.000000 0.269932 0.856321
0.310094 0.264897 0.854856
0.499428 0.256321 0.852476
0.664637 0.242435 0.849638
0.819242 0.224552 0.846830
0.967559 0.202396 0.841001
0.000000 0.434607 0.853696
0.000000 0.427375 0.853483
0.000000 0.413184 0.853178
0.275059 0.410986 0.852049
0.484779 0.406561 0.849912
0.657099 0.400671 0.847593
0.816373 0.393286 0.845060
0.963653 0.385809 0.836912
0.000000 0.583032 0.844785
0.000000 0.582116 0.844358
0.000000 0.579004 0.843778
0.278630 0.574884 0.843412
0.465126 0.556664 0.843107
0.644282 0.552239 0.840848
0.808164 0.546838 0.838224
0.954070 0.544610 0.829099
0.000000 0.705104 0.839078
0.000000 0.705531 0.838987
0.000000 0.706813 0.838468
0.282658 0.709102 0.837278
0.463996 0.711574 0.834867
0.633661 0.701472 0.834226
0.800809 0.697627 0.831724
0.940429 0.695064 0.821012
0.000000 0.822446 0.836698
0.095949 0.822965 0.836820
0.258488 0.824186 0.836301
0.398840 0.826719 0.835294
0.533532 0.829831 0.833066
0.664240 0.832670 0.828794
0.788663 0.831876 0.819028
0.941863 0.837339 0.824125
0.313237 0.953002 0.879240
0.331273 0.952911 0.878813
0.397009 0.952697 0.877256
0.493446 0.951659 0.873564
0.604486 0.949828 0.868101
0.720150 0.947265 0.862364
0.814694 0.944518 0.853025
0.943328 0.959808 0.837186
0.000000 0.041657 0.965362
0.000000 0.036133 0.965393
0.000000 0.008209 0.964660
0.269139 0.000000 0.963989
0.465858 0.000000 0.962860
0.629480 0.000000 0.961181
0.785428 0.000000 0.959411
0.934051 0.000000 0.957061
0.000000 0.138338 0.964233
0.000000 0.137392 0.964294
0.000000 0.131594 0.963806
0.263279 0.117525 0.963043
0.463325 0.087892 0.961883
0.627771 0.000000 0.960235
0.783932 0.000000 0.958312
0.932677 0.000000 0.955840
0.000000 0.265232 0.962799
0.000000 0.264775 0.962737
0.000000 0.262364 0.962158
0.241611 0.258518 0.962005
0.454597 0.250156 0.960662
0.622614 0.236362 0.958831
0.781003 0.214511 0.957000
0.931426 0.181460 0.954711
0.000000 0.400977 0.960418
0.000000 0.400763 0.960449
0.000000 0.399573 0.960021
0.195010 0.397284 0.959533
0.438880 0.393286 0.958526
0.614160 0.386603 0.957031
0.776303 0.376837 0.955352
0.929808 0.363348 0.953307
0.000000 0.568475 0.954437
0.000000 0.568200 0.954559
0.000000 0.566400 0.954345
0.111910 0.540551 0.955688
0.419501 0.537682 0.954620
0.603052 0.533043 0.953216
0.769375 0.527276 0.951720
0.926635 0.520165 0.950072
0.000000 0.698177 0.948913
0.000000 0.698146 0.948730
0.000000 0.698543 0.948150
0.145113 0.697200 0.947845
0.435554 0.695399 0.947814
0.597192 0.681331 0.948882
0.765713 0.678981 0.948180
0.924437 0.674769 0.946746
0.000000 0.814542 0.945434
0.000000 0.814817 0.945342
0.000000 0.815976 0.944945
0.294255 0.818662 0.944427
0.463813 0.822507 0.943633
0.611048 0.826566 0.942504
0.764920 0.819120 0.942840
0.921508 0.814664 0.940917
0.260868 0.923125 0.942870
0.280797 0.923308 0.942779
0.350622 0.924376 0.942596
0.452522 0.926696 0.942443
0.567346 0.930053 0.942016
0.686641 0.934234 0.941192
0.806180 0.938598 0.939483
0.919005 0.939055 0.932769
