luts/日系自然[一麻]03.cube
# Created by Adobe Lightroom plugin Export LUT (1.24.0)
# www.johnrellis.com/lightroom/exportlut.htm
# Preset: 日系自然[一麻]03
# Color profile: C:\Program Files (x86)\Common Files\Adobe\Color\Profiles\Recommended\VideoHD.icc
LUT_3D_SIZE 8
DOMAIN_MIN 0.000000 0.000000 0.000000
DOMAIN_MAX 0.903226 0.903226 0.903226
0.000000 0.000000 0.000000
0.190646 0.040375 0.000000
0.467018 0.144930 0.000000
0.727962 0.224826 0.000000
0.935698 0.294713 0.000000
1.000000 0.344060 0.000000
1.000000 0.372534 0.000000
1.000000 0.381231 0.000000
0.000000 0.210941 0.126284
0.133089 0.222568 0.000000
0.444221 0.299870 0.000000
0.707332 0.341466 0.000000
0.919066 0.378576 0.000000
1.000000 0.401038 0.000000
1.000000 0.412146 0.000000
1.000000 0.411109 0.000000
0.000000 0.437049 0.255863
0.000000 0.436042 0.203098
0.300572 0.458442 0.000000
0.674739 0.538170 0.000000
0.895048 0.561944 0.000000
1.000000 0.549981 0.000000
1.000000 0.536370 0.000000
1.000000 0.515007 0.000000
0.000000 0.632715 0.359258
0.000000 0.631464 0.338109
0.000000 0.640497 0.189242
0.482582 0.672419 0.000000
0.855131 0.722927 0.000000
1.000000 0.726314 0.000000
1.000000 0.688960 0.000000
1.000000 0.648798 0.000000
0.000000 0.786893 0.433539
0.000000 0.786313 0.421515
0.000000 0.785946 0.365759
0.000000 0.801022 0.230137
0.611536 0.813504 0.000000
0.948638 0.835843 0.000000
1.000000 0.820432 0.000000
1.000000 0.793057 0.000000
0.000000 0.897337 0.497414
0.000000 0.899535 0.491737
0.000000 0.899443 0.459632
0.000000 0.901976 0.372930
0.000000 0.910918 0.280491
0.706569 0.913725 0.127230
1.000000 0.927703 0.000000
1.000000 0.895872 0.000000
0.000000 0.988128 0.568231
0.000000 0.988525 0.564019
0.000000 0.988342 0.543236
0.000000 0.988525 0.500603
0.000000 0.993256 0.397406
0.362768 0.993072 0.330907
0.775479 0.987579 0.174319
1.000000 0.982330 0.000000
0.000000 1.000000 0.651637
0.000000 1.000000 0.648676
0.000000 1.000000 0.636408
0.000000 1.000000 0.612421
0.000000 1.000000 0.564233
0.000000 1.000000 0.479713
0.536248 1.000000 0.404120
0.817350 1.000000 0.231205
0.000000 0.001862 0.235843
0.186282 0.000000 0.229099
0.455116 0.000000 0.189181
0.704646 0.169558 0.145327
0.920012 0.275029 0.000000
1.000000 0.335271 0.000000
1.000000 0.372442 0.000000
1.000000 0.392706 0.000000
0.000000 0.199313 0.241550
0.161990 0.212161 0.230716
0.437232 0.241642 0.195682
0.695125 0.298222 0.134920
0.911681 0.350896 0.000000
1.000000 0.384649 0.000000
1.000000 0.406134 0.000000
1.000000 0.419196 0.000000
0.000000 0.432868 0.335729
0.000000 0.432654 0.306310
0.311681 0.450385 0.211185
0.666011 0.525383 0.096193
0.886809 0.541772 0.000000
1.000000 0.533196 0.000000
1.000000 0.521202 0.000000
1.000000 0.508995 0.000000
0.000000 0.624964 0.397772
0.000000 0.624384 0.380560
0.000000 0.630426 0.269108
0.479927 0.657984 0.185000
0.837858 0.707179 0.000000
0.997009 0.714992 0.000000
1.000000 0.677638 0.000000
1.000000 0.640101 0.000000
0.000000 0.782376 0.458106
0.000000 0.781430 0.447059
0.000000 0.780026 0.396704
0.000000 0.792233 0.281071
0.610834 0.804379 0.179416
0.940703 0.828214 0.000000
1.000000 0.815824 0.000000
1.000000 0.788144 0.000000
0.000000 0.891966 0.513481
0.000000 0.892088 0.506615
0.000000 0.892271 0.476448
0.000000 0.894163 0.404150
0.000000 0.905303 0.316014
0.709682 0.910002 0.215396
1.000000 0.924346 0.000000
1.000000 0.893828 0.000000
0.000000 0.983581 0.578820
0.000000 0.983154 0.573693
0.000000 0.982910 0.553307
0.000000 0.983490 0.512383
0.000000 0.989258 0.415381
0.379278 0.989654 0.355932
0.777584 0.984344 0.230503
1.000000 0.980255 0.000000
0.000000 1.000000 0.657923
0.000000 1.000000 0.655787
0.000000 1.000000 0.643580
0.000000 1.000000 0.619867
0.000000 1.000000 0.580835
0.000000 1.000000 0.497719
0.549218 1.000000 0.425086
0.821805 1.000000 0.274052
0.000000 0.000000 0.453101
0.137942 0.000000 0.450965
0.410101 0.000000 0.439765
0.645747 0.000000 0.422278
0.905241 0.000000 0.387243
1.000000 0.253330 0.375769
1.000000 0.340032 0.334661
1.000000 0.364813 0.254429
0.000000 0.211368 0.450782
0.000000 0.196597 0.448859
0.403204 0.194247 0.437568
0.646540 0.179812 0.420356
0.902647 0.152865 0.383429
1.000000 0.327794 0.376745
1.000000 0.377905 0.331548
1.000000 0.393103 0.251804
0.000000 0.405707 0.444648
0.000000 0.409522 0.441718
0.369574 0.424842 0.426154
0.652094 0.452766 0.415320
0.879545 0.483650 0.397192
1.000000 0.501030 0.371038
1.000000 0.504631 0.330510
1.000000 0.493782 0.253819
0.000000 0.629236 0.510552
0.000000 0.627985 0.505028
0.000000 0.625513 0.462104
0.521263 0.648981 0.400214
0.839872 0.698848 0.376226
0.994995 0.696284 0.361059
1.000000 0.667536 0.328649
1.000000 0.633204 0.257450
0.000000 0.777829 0.552483
0.000000 0.777554 0.543694
0.000000 0.777188 0.506676
0.000000 0.785306 0.421118
0.645228 0.801389 0.386206
0.941100 0.825071 0.350591
1.000000 0.816800 0.328649
1.000000 0.781949 0.261234
0.000000 0.886564 0.586725
0.000000 0.886870 0.581323
0.000000 0.886931 0.556268
0.000000 0.887236 0.504204
0.273564 0.898344 0.434791
0.736019 0.905455 0.389502
1.000000 0.920287 0.345037
1.000000 0.893675 0.290745
0.000000 0.979644 0.638056
0.000000 0.979309 0.633448
0.000000 0.978790 0.614710
0.000000 0.978943 0.578637
0.000000 0.983764 0.497902
0.467994 0.985718 0.458228
0.802670 0.982513 0.390692
1.000000 0.981353 0.327062
0.000000 1.000000 0.701106
0.000000 1.000000 0.697932
0.000000 1.000000 0.686427
0.000000 1.000000 0.665339
0.000000 1.000000 0.629480
0.284306 1.000000 0.559136
0.605341 1.000000 0.505455
0.843748 1.000000 0.408728
0.000000 0.000000 0.617914
0.000000 0.000000 0.617639
0.390295 0.000000 0.610803
0.623377 0.000000 0.598840
0.824216 0.000000 0.572442
1.000000 0.000000 0.540856
1.000000 0.245243 0.509422
1.000000 0.426001 0.523278
0.000000 0.197940 0.618189
0.000000 0.195987 0.616815
0.381659 0.188754 0.610407
0.622492 0.165896 0.598962
0.821836 0.135195 0.570703
1.000000 0.198093 0.542199
1.000000 0.317632 0.516228
1.000000 0.455329 0.526665
0.000000 0.427588 0.608301
0.000000 0.422309 0.607446
0.330999 0.399451 0.603174
0.609033 0.393866 0.591638
0.817960 0.396490 0.568475
1.000000 0.448707 0.559136
1.000000 0.541070 0.573693
1.000000 0.544518 0.533684
0.000000 0.585016 0.604120
0.000000 0.586572 0.602167
0.324651 0.595148 0.594720
0.583185 0.611872 0.577783
0.816007 0.647639 0.586358
0.970062 0.670466 0.586053
1.000000 0.675441 0.570428
1.000000 0.657343 0.530480
0.000000 0.782681 0.661860
0.000000 0.780728 0.657984
0.295354 0.774197 0.644465
0.484504 0.769039 0.607141
0.705867 0.788449 0.571008
0.935149 0.821744 0.574212
1.000000 0.822293 0.569360
1.000000 0.787900 0.530846
0.097230 0.883574 0.692683
0.222110 0.884215 0.692988
0.368566 0.880888 0.682887
0.397131 0.881437 0.642176
0.480262 0.888701 0.581109
0.788937 0.899413 0.566400
1.000000 0.916045 0.551476
1.000000 0.899168 0.531670
0.275792 0.971710 0.733394
0.281193 0.971923 0.730037
0.300267 0.972259 0.714900
0.332647 0.972961 0.684627
0.372198 0.973816 0.636835
0.586419 0.979553 0.588800
0.846250 0.978149 0.556268
1.000000 0.981109 0.525994
0.381628 1.000000 0.776638
0.383825 1.000000 0.774105
0.393866 1.000000 0.763516
0.415595 1.000000 0.743099
0.443061 1.000000 0.710597
0.478157 1.000000 0.649958
0.686213 1.000000 0.615778
0.881437 1.000000 0.560693
0.000000 0.057649 0.755123
0.000000 0.050233 0.755001
0.347204 0.011627 0.750942
0.580194 0.000000 0.743923
0.793301 0.000000 0.733120
0.963348 0.000000 0.697322
1.000000 0.151949 0.651392
1.000000 0.318395 0.620203
0.000000 0.206088 0.754665
0.000000 0.205112 0.754604
0.340734 0.199924 0.750881
0.577050 0.184878 0.743038
0.792050 0.148104 0.732601
0.960357 0.147372 0.696010
1.000000 0.244938 0.652766
1.000000 0.367926 0.625055
0.000000 0.412543 0.748287
0.000000 0.396399 0.748623
0.304723 0.389746 0.745113
0.563012 0.385657 0.737881
0.782162 0.377173 0.726589
0.941802 0.382818 0.688533
1.000000 0.439826 0.661738
1.000000 0.508415 0.645197
0.000000 0.582818 0.738827
0.000000 0.584619 0.737789
0.282933 0.593988 0.733700
0.551080 0.587396 0.727504
0.765621 0.587732 0.716854
0.913359 0.594751 0.689845
1.000000 0.644526 0.694606
1.000000 0.680964 0.693965
0.000000 0.718410 0.730892
0.173007 0.720150 0.730098
0.384375 0.726528 0.725917
0.575433 0.738003 0.717281
0.742550 0.750210 0.702480
0.911528 0.786709 0.723842
1.000000 0.804807 0.728695
1.000000 0.798825 0.708064
0.000000 0.881071 0.786557
0.000000 0.880339 0.784451
0.351995 0.875761 0.773922
0.550347 0.867704 0.755795
0.671290 0.864042 0.722896
0.831724 0.883574 0.703059
1.000000 0.910552 0.716609
1.000000 0.905577 0.709163
0.319829 0.970336 0.811643
0.349584 0.969360 0.809964
0.449226 0.966278 0.804532
0.596735 0.961151 0.799435
0.621607 0.962249 0.758450
0.678614 0.967498 0.705898
0.888640 0.970245 0.695125
1.000000 0.972625 0.682277
0.522240 1.000000 0.849516
0.540337 1.000000 0.850065
0.602014 1.000000 0.851591
0.618433 1.000000 0.834379
0.633661 1.000000 0.804898
0.652094 1.000000 0.764950
0.761837 1.000000 0.725673
0.920195 1.000000 0.694820
0.000000 0.138277 0.871092
0.000000 0.139101 0.870878
0.286015 0.138888 0.867735
0.517144 0.133486 0.862913
0.723171 0.115114 0.856474
0.914672 0.031037 0.846708
1.000000 0.115358 0.811093
1.000000 0.226596 0.754208
0.000000 0.223392 0.867002
0.000000 0.223423 0.866361
0.282506 0.221988 0.863859
0.513817 0.217502 0.859373
0.719234 0.207950 0.852354
0.910399 0.190829 0.843046
1.000000 0.211795 0.807889
1.000000 0.277440 0.753109
0.000000 0.390845 0.865049
0.000000 0.390692 0.864439
0.275761 0.390021 0.862181
0.510155 0.387518 0.856107
0.715267 0.387152 0.848936
0.904112 0.385504 0.839811
1.000000 0.400763 0.805142
1.000000 0.434668 0.758328
0.000000 0.581811 0.857267
0.000000 0.582300 0.856260
0.353674 0.587732 0.853544
0.530297 0.579126 0.852018
0.720424 0.582574 0.845701
0.894682 0.583520 0.836423
1.000000 0.589044 0.805386
1.000000 0.616938 0.776547
0.131380 0.709346 0.846860
0.214878 0.711299 0.846128
0.379126 0.719661 0.843351
0.549248 0.735225 0.838407
0.717250 0.733822 0.832517
0.875517 0.732723 0.824002
0.996124 0.731258 0.800900
1.000000 0.771664 0.804349
0.351598 0.820462 0.840879
0.381140 0.822293 0.841184
0.471077 0.826505 0.838712
0.595117 0.834257 0.834043
0.728237 0.844663 0.826352
0.859648 0.857328 0.816007
0.988861 0.893950 0.847318
1.000000 0.900053 0.845640
0.288792 0.966217 0.909667
0.319524 0.967590 0.910155
0.414069 0.970642 0.908537
0.561059 0.966735 0.894926
0.713893 0.959564 0.875761
0.813413 0.954376 0.844541
0.929229 0.963348 0.826871
1.000000 0.969879 0.837400
0.466224 1.000000 0.917662
0.481514 1.000000 0.916594
0.544549 1.000000 0.913298
0.646113 1.000000 0.908598
0.769833 1.000000 0.907134
0.800839 1.000000 0.877409
0.837125 1.000000 0.838010
0.957641 1.000000 0.826108
0.000000 0.183688 0.970214
0.000000 0.185428 0.971069
0.192569 0.187106 0.969024
0.448341 0.188785 0.966522
0.646296 0.186221 0.961852
0.832090 0.182650 0.955169
1.000000 0.173983 0.946624
1.000000 0.208011 0.911864
0.000000 0.239628 0.963256
0.000000 0.241154 0.964538
0.194003 0.241062 0.962829
0.445411 0.239567 0.959533
0.641688 0.235416 0.954437
0.825528 0.230167 0.946563
0.995911 0.218540 0.936858
1.000000 0.235416 0.901915
0.000000 0.386297 0.963439
0.000000 0.386481 0.963104
0.213382 0.385443 0.960571
0.450965 0.384771 0.957061
0.642725 0.383459 0.951019
0.823941 0.384955 0.944121
0.993439 0.388617 0.937896
1.000000 0.406989 0.905425
0.170230 0.579461 0.958892
0.194583 0.573358 0.958282
0.307439 0.559136 0.956481
0.489174 0.560876 0.953857
0.660365 0.561578 0.948547
0.828672 0.566278 0.943267
0.987091 0.569512 0.937865
1.000000 0.574060 0.904509
0.162173 0.706477 0.947845
0.222141 0.705776 0.946227
0.372717 0.707454 0.943420
0.539208 0.714015 0.940887
0.674250 0.707057 0.937621
0.824033 0.706661 0.932097
0.970245 0.706020 0.926452
1.000000 0.712917 0.900053
0.323674 0.802335 0.941833
0.349767 0.803891 0.941741
0.436408 0.809445 0.940520
0.557610 0.820127 0.938323
0.690761 0.835508 0.934203
0.830930 0.840208 0.931731
0.960876 0.841764 0.926970
1.000000 0.841459 0.903227
0.451789 0.901488 0.944030
0.470039 0.902953 0.944457
0.528405 0.906249 0.943114
0.623560 0.913024 0.940917
0.733608 0.921935 0.936400
0.846067 0.932860 0.930236
0.947601 0.944030 0.922576
1.000000 0.965667 0.944854
0.475929 1.000000 0.990753
0.490517 1.000000 0.990906
0.550408 1.000000 0.991821
0.633387 1.000000 0.991852
0.741268 1.000000 0.982330
0.857328 1.000000 0.967193
0.929351 1.000000 0.950744
0.985718 1.000000 0.936339
0.000000 0.212192 1.000000
0.000000 0.213077 1.000000
0.000000 0.212528 1.000000
0.365789 0.213565 1.000000
0.562036 0.212528 1.000000
0.738125 0.208957 1.000000
0.907439 0.209384 1.000000
1.000000 0.197452 1.000000
0.000000 0.252476 1.000000
0.000000 0.253544 1.000000
0.000000 0.252995 1.000000
0.366125 0.252506 1.000000
0.561242 0.251255 1.000000
0.736751 0.247837 1.000000
0.904936 0.245182 1.000000
1.000000 0.230930 1.000000
0.000000 0.372747 1.000000
0.000000 0.372869 1.000000
0.000000 0.371893 1.000000
0.379126 0.375372 1.000000
0.566186 0.374151 1.000000
0.737209 0.371771 1.000000
0.902403 0.373693 1.000000
1.000000 0.367864 1.000000
0.000000 0.523949 1.000000
0.000000 0.524773 1.000000
0.225650 0.524559 1.000000
0.420264 0.526848 1.000000
0.586908 0.528557 1.000000
0.745876 0.529412 1.000000
0.901518 0.532433 1.000000
1.000000 0.527916 1.000000
0.206302 0.671534 1.000000
0.254826 0.673457 1.000000
0.370153 0.677119 1.000000
0.479927 0.670985 1.000000
0.614374 0.669520 1.000000
0.754543 0.667811 1.000000
0.897887 0.669062 1.000000
1.000000 0.668788 1.000000
0.241001 0.775967 1.000000
0.266270 0.776425 1.000000
0.356603 0.780240 1.000000
0.492012 0.787747 1.000000
0.647730 0.797238 1.000000
0.776669 0.801755 1.000000
0.904265 0.810178 1.000000
1.000000 0.815763 1.000000
0.408881 0.866819 1.000000
0.423590 0.867704 1.000000
0.480964 0.871580 1.000000
0.577935 0.880766 1.000000
0.692927 0.895201 1.000000
0.812284 0.915587 1.000000
0.922820 0.929229 1.000000
1.000000 0.930907 0.998962
0.564874 0.953185 1.000000
0.573754 0.953735 1.000000
0.613397 0.956512 1.000000
0.685725 0.962554 1.000000
0.774136 0.971008 1.000000
0.865324 0.981018 1.000000
0.945953 0.990967 0.999756
0.997620 0.997345 0.996185
