luts/日系自然[一麻]08.cube
# Created by Adobe Lightroom plugin Export LUT (1.24.0)
# www.johnrellis.com/lightroom/exportlut.htm
# Preset: 日系自然[一麻]08
# Color profile: C:\Program Files (x86)\Common Files\Adobe\Color\Profiles\Recommended\VideoHD.icc
LUT_3D_SIZE 5
DOMAIN_MIN 0.000000 0.000000 0.000000
DOMAIN_MAX 0.903226 0.903226 0.903226
0.000000 0.000000 0.000000
0.326726 0.000000 0.000000
0.661463 0.000000 0.000000
0.943633 0.000000 0.000000
1.000000 0.000000 0.000000
0.000000 0.313390 0.104494
0.301091 0.330938 0.000000
0.650752 0.315892 0.000000
0.940429 0.301854 0.000000
1.000000 0.255741 0.000000
0.000000 0.631434 0.264652
0.159915 0.632837 0.270634
0.625666 0.673426 0.000000
0.924834 0.598932 0.000000
1.000000 0.516014 0.000000
0.000000 0.855985 0.441749
0.211093 0.856748 0.447883
0.514641 0.862547 0.439765
0.840391 0.873838 0.264317
1.000000 0.784360 0.000000
0.468391 0.991150 0.646204
0.501488 0.990600 0.648798
0.605493 0.986114 0.652308
0.750423 0.989837 0.605371
0.979217 0.987915 0.420111
0.182101 0.000000 0.304692
0.361120 0.000000 0.236973
0.640314 0.000000 0.208103
0.931823 0.000000 0.199069
1.000000 0.000000 0.000000
0.000000 0.309026 0.306218
0.278508 0.314488 0.308354
0.631525 0.289982 0.262638
0.926177 0.269322 0.198856
1.000000 0.219852 0.000000
0.000000 0.616785 0.379370
0.182040 0.622065 0.372259
0.604639 0.654414 0.312596
0.905730 0.585809 0.217533
1.000000 0.513146 0.000000
0.077974 0.851286 0.503258
0.280552 0.852659 0.509850
0.537591 0.858213 0.519768
0.837278 0.871336 0.396216
1.000000 0.784939 0.217075
0.492714 0.989807 0.673060
0.523186 0.989197 0.675441
0.629786 0.987274 0.686397
0.764523 0.989563 0.651545
0.980011 0.988312 0.502770
0.346197 0.000000 0.576379
0.503685 0.000000 0.586419
0.705806 0.000000 0.462989
0.909117 0.000000 0.322545
1.000000 0.000000 0.409766
0.006928 0.298375 0.572229
0.390997 0.279149 0.581079
0.683833 0.254429 0.490089
0.898039 0.274784 0.402350
1.000000 0.292058 0.471443
0.000000 0.585382 0.576898
0.146914 0.589502 0.579950
0.551965 0.608789 0.594568
0.857237 0.594690 0.572503
1.000000 0.554772 0.524315
0.287022 0.828428 0.652888
0.385382 0.828885 0.657282
0.579522 0.841276 0.670008
0.825132 0.861906 0.646906
1.000000 0.794766 0.564019
0.561395 0.983551 0.757382
0.570947 0.984527 0.752316
0.664485 0.983764 0.761135
0.794461 0.983825 0.761868
0.977173 0.985382 0.678004
0.489357 0.000000 0.800046
0.581109 0.000000 0.803677
0.867582 0.000000 0.818875
0.978027 0.000000 0.636194
1.000000 0.092348 0.478523
0.404578 0.280858 0.795071
0.513207 0.262943 0.798734
0.822080 0.119570 0.813687
0.961212 0.200870 0.649714
1.000000 0.298405 0.508293
0.000000 0.607935 0.763149
0.000000 0.589715 0.770382
0.608850 0.551965 0.794736
0.893156 0.567132 0.715114
1.000000 0.584466 0.642145
0.000000 0.794156 0.784207
0.221286 0.794430 0.784146
0.505119 0.800015 0.788266
0.775113 0.820066 0.806821
1.000000 0.813840 0.798489
0.454566 0.979614 0.840452
0.501335 0.979309 0.841794
0.654108 0.978790 0.851011
0.825650 0.979522 0.871122
0.975463 0.982971 0.851133
0.621820 0.196139 0.989776
0.678126 0.164797 0.990173
0.874235 0.000000 0.992065
1.000000 0.000000 0.980438
1.000000 0.000000 0.767453
0.579278 0.330083 0.987274
0.639094 0.315892 0.987793
0.843473 0.237339 0.989899
1.000000 0.000000 0.989502
1.000000 0.182345 0.778653
0.352270 0.581598 0.977630
0.448829 0.576684 0.978210
0.708248 0.554345 0.980774
1.000000 0.497810 0.986053
1.000000 0.536065 0.824460
0.000000 0.831418 0.960693
0.160983 0.831266 0.960388
0.439582 0.828977 0.959411
0.821073 0.778775 0.971954
1.000000 0.790036 0.896452
0.369299 0.968963 0.965637
0.416815 0.968963 0.965545
0.566155 0.968872 0.965118
0.764553 0.968688 0.964691
0.964721 0.973968 0.971038
