luts/日系自然[一麻]05.cube
# Created by Adobe Lightroom plugin Export LUT (1.24.0)
# www.johnrellis.com/lightroom/exportlut.htm
# Preset: 日系自然[一麻]05
# Color profile: C:\Program Files (x86)\Common Files\Adobe\Color\Profiles\Recommended\VideoHD.icc
LUT_3D_SIZE 32
DOMAIN_MIN 0.0 0.0 0.0
DOMAIN_MAX 1.0 1.0 1.0
0.000000 0.000000 0.000000
0.014160 0.000610 0.000763
0.059022 0.000061 0.000000
0.105592 0.001587 0.000000
0.142550 0.003479 0.000000
0.186160 0.004761 0.000000
0.229923 0.009918 0.000000
0.272862 0.015534 0.000000
0.314244 0.023011 0.000000
0.354376 0.032319 0.000000
0.394293 0.040467 0.000000
0.434302 0.051911 0.000000
0.474678 0.066255 0.000000
0.515465 0.080842 0.000000
0.556542 0.089509 0.000000
0.597803 0.097353 0.000000
0.639796 0.103822 0.000000
0.681758 0.111055 0.000000
0.722591 0.115389 0.000000
0.761776 0.121462 0.000000
0.799283 0.124880 0.000000
0.838254 0.130312 0.000000
0.875944 0.133974 0.000000
0.910735 0.137301 0.000000
0.943023 0.139437 0.000000
0.973541 0.141970 0.000000
1.000000 0.144015 0.000000
1.000000 0.145052 0.000000
1.000000 0.144656 0.000000
1.000000 0.144259 0.000000
1.000000 0.143160 0.000000
1.000000 0.140352 0.000000
0.002350 0.009705 0.003143
0.008179 0.010224 0.000702
0.055573 0.011627 0.000000
0.105379 0.011749 0.000000
0.142367 0.013642 0.000000
0.185275 0.015595 0.000000
0.228580 0.021393 0.000000
0.271153 0.026947 0.000000
0.312627 0.033661 0.000000
0.352575 0.042664 0.000000
0.392401 0.052674 0.000000
0.432105 0.064485 0.000000
0.472419 0.077546 0.000000
0.513054 0.087465 0.000000
0.553918 0.094392 0.000000
0.595361 0.100771 0.000000
0.637263 0.108339 0.000000
0.679377 0.113161 0.000000
0.720089 0.118959 0.000000
0.759243 0.123171 0.000000
0.796750 0.128664 0.000000
0.835477 0.131746 0.000000
0.872404 0.135836 0.000000
0.906767 0.139590 0.000000
0.938903 0.142184 0.000000
0.969360 0.143313 0.000000
0.998566 0.145022 0.000000
1.000000 0.145998 0.000000
1.000000 0.146273 0.000000
1.000000 0.145480 0.000000
1.000000 0.144350 0.000000
1.000000 0.141482 0.000000
0.009308 0.043153 0.016510
0.016236 0.043458 0.017487
0.047639 0.056092 0.001617
0.104158 0.054749 0.000000
0.142672 0.053803 0.000000
0.185122 0.062745 0.000000
0.228397 0.069764 0.000000
0.270512 0.075990 0.000000
0.311315 0.083253 0.000000
0.351293 0.087098 0.000000
0.390906 0.091981 0.000000
0.430518 0.096407 0.000000
0.470680 0.100771 0.000000
0.511101 0.105623 0.000000
0.552056 0.111391 0.000000
0.593408 0.116518 0.000000
0.635187 0.121736 0.000000
0.677302 0.126558 0.000000
0.718196 0.131563 0.000000
0.757412 0.135622 0.000000
0.795041 0.139498 0.000000
0.833951 0.143282 0.000000
0.870603 0.146120 0.000000
0.904692 0.149172 0.000000
0.936614 0.151186 0.000000
0.967041 0.152834 0.000000
0.996216 0.153780 0.000000
1.000000 0.154665 0.000000
1.000000 0.154055 0.000000
1.000000 0.153628 0.000000
1.000000 0.151492 0.000000
1.000000 0.149233 0.000000
0.026734 0.095064 0.043915
0.033356 0.095186 0.046021
0.053010 0.097566 0.039033
0.098207 0.106111 0.008118
0.141970 0.109804 0.000000
0.185550 0.110201 0.000000
0.228244 0.112673 0.000000
0.269596 0.115236 0.000000
0.310613 0.117647 0.000000
0.350072 0.120089 0.000000
0.389746 0.122347 0.000000
0.429053 0.125124 0.000000
0.469245 0.129061 0.000000
0.509300 0.132906 0.000000
0.550042 0.136507 0.000000
0.591089 0.141054 0.000000
0.632685 0.144808 0.000000
0.674403 0.149203 0.000000
0.715206 0.152926 0.000000
0.754208 0.156069 0.000000
0.791714 0.158816 0.000000
0.830808 0.161685 0.000000
0.866941 0.164187 0.000000
0.900877 0.166690 0.000000
0.933227 0.167575 0.000000
0.964233 0.168795 0.000000
0.994049 0.169955 0.000000
1.000000 0.169741 0.000000
1.000000 0.168917 0.000000
1.000000 0.168215 0.000000
1.000000 0.166293 0.000000
1.000000 0.163516 0.000000
0.049348 0.129397 0.082704
0.056275 0.129488 0.083314
0.082307 0.129488 0.085817
0.099397 0.136507 0.062531
0.135409 0.146731 0.013458
0.183841 0.152041 0.000000
0.226535 0.152071 0.000000
0.268132 0.150362 0.000000
0.308354 0.152346 0.000000
0.347662 0.154238 0.000000
0.387060 0.155673 0.000000
0.426490 0.158358 0.000000
0.466346 0.160372 0.000000
0.506706 0.163821 0.000000
0.547387 0.166903 0.000000
0.588495 0.170840 0.000000
0.630335 0.173892 0.000000
0.672358 0.176913 0.000000
0.713252 0.179751 0.000000
0.752407 0.182559 0.000000
0.790677 0.184390 0.000000
0.829587 0.186801 0.000000
0.865171 0.188540 0.000000
0.899138 0.189761 0.000000
0.931487 0.190433 0.000000
0.962554 0.191043 0.000000
0.992523 0.190890 0.000000
1.000000 0.190616 0.000000
1.000000 0.189548 0.000000
1.000000 0.188418 0.000000
1.000000 0.185824 0.000000
1.000000 0.183444 0.000000
0.070130 0.166812 0.101228
0.077058 0.166873 0.101534
0.094118 0.166964 0.103456
0.109682 0.169680 0.100618
0.134188 0.178988 0.076143
0.175265 0.189181 0.010895
0.224186 0.195224 0.000000
0.266392 0.193698 0.000000
0.306798 0.191470 0.000000
0.346593 0.189822 0.000000
0.385748 0.191012 0.000000
0.425238 0.193088 0.000000
0.465064 0.194980 0.000000
0.505364 0.197543 0.000000
0.546166 0.200229 0.000000
0.587640 0.203037 0.000000
0.629541 0.205447 0.000000
0.671717 0.208469 0.000000
0.712673 0.210605 0.000000
0.751827 0.212100 0.000000
0.791806 0.214328 0.000000
0.829953 0.216434 0.000000
0.885344 0.221256 0.000000
0.919371 0.221805 0.000000
0.951293 0.221653 0.000000
0.981567 0.221103 0.000000
1.000000 0.220127 0.000000
1.000000 0.218875 0.000000
1.000000 0.217350 0.000000
1.000000 0.215305 0.000000
1.000000 0.212528 0.000000
1.000000 0.209293 0.000000
0.090028 0.209751 0.121859
0.093812 0.209873 0.122042
0.105257 0.209903 0.123812
0.125673 0.210147 0.126864
0.143069 0.216770 0.113954
0.174044 0.225925 0.087343
0.217533 0.235477 0.005554
0.267521 0.240482 0.000000
0.309514 0.238682 0.000000
0.349920 0.235538 0.000000
0.389990 0.231754 0.000000
0.430030 0.231449 0.000000
0.470222 0.233097 0.000000
0.510765 0.234958 0.000000
0.551659 0.237034 0.000000
0.592767 0.239322 0.000000
0.634760 0.241428 0.000000
0.676692 0.243748 0.000000
0.717220 0.245151 0.000000
0.758022 0.246983 0.000000
0.800443 0.249180 0.000000
0.839933 0.250126 0.000000
0.876951 0.250980 0.000000
0.912261 0.251072 0.000000
0.945525 0.250919 0.000000
0.976593 0.250034 0.000000
1.000000 0.248600 0.000000
1.000000 0.246311 0.000000
1.000000 0.244633 0.000000
1.000000 0.241947 0.000000
1.000000 0.238926 0.000000
1.000000 0.235447 0.000000
0.107149 0.249454 0.144167
0.109316 0.249577 0.144991
0.120638 0.249424 0.145968
0.138857 0.250095 0.148714
0.157839 0.252537 0.146365
0.178622 0.260197 0.127382
0.212131 0.268498 0.097505
0.256046 0.276921 0.009155
0.303014 0.280125 0.000000
0.346960 0.279118 0.000000
0.387518 0.276036 0.000000
0.427924 0.272587 0.000000
0.467903 0.269139 0.000000
0.508202 0.270237 0.000000
0.549035 0.271885 0.000000
0.590234 0.273808 0.000000
0.632074 0.275700 0.000000
0.673945 0.277836 0.000000
0.714992 0.279149 0.000000
0.757931 0.281346 0.000000
0.798581 0.282750 0.000000
0.836973 0.283207 0.000000
0.873381 0.283085 0.000000
0.908324 0.282628 0.000000
0.941436 0.281956 0.000000
0.972534 0.280613 0.000000
1.000000 0.278508 0.000000
1.000000 0.276188 0.000000
1.000000 0.273503 0.000000
1.000000 0.270695 0.000000
1.000000 0.267185 0.000000
1.000000 0.263554 0.000000
0.127901 0.289311 0.170535
0.130434 0.289464 0.170809
0.139742 0.289586 0.171878
0.155306 0.290013 0.174594
0.176638 0.290745 0.178500
0.192569 0.296056 0.166659
0.215763 0.303075 0.144533
0.250492 0.310704 0.112215
0.294041 0.318151 0.023560
0.338994 0.319677 0.000000
0.385534 0.320104 0.000000
0.426398 0.317266 0.000000
0.467048 0.313939 0.000000
0.507317 0.310307 0.000000
0.547814 0.307652 0.000000
0.588922 0.309392 0.000000
0.630671 0.311131 0.000000
0.673304 0.313329 0.000000
0.716609 0.315343 0.000000
0.757870 0.316686 0.000000
0.797513 0.317357 0.000000
0.834989 0.317449 0.000000
0.870756 0.316747 0.000000
0.905303 0.315740 0.000000
0.938323 0.314153 0.000000
0.969390 0.312291 0.000000
0.998871 0.309728 0.000000
1.000000 0.307164 0.000000
1.000000 0.304173 0.000000
1.000000 0.300633 0.000000
1.000000 0.296880 0.000000
1.000000 0.292851 0.000000
0.151522 0.329442 0.198276
0.153536 0.329564 0.198489
0.160616 0.329686 0.199649
0.174716 0.330114 0.201663
0.193423 0.330846 0.205112
0.212314 0.333074 0.204715
0.227878 0.339208 0.186557
0.253696 0.345892 0.162264
0.288762 0.352636 0.128481
0.331945 0.359075 0.052827
0.375616 0.359319 0.000000
0.423804 0.360784 0.000000
0.465095 0.358038 0.000000
0.505760 0.355016 0.000000
0.546838 0.351690 0.000000
0.588067 0.348150 0.000000
0.631891 0.348363 0.000000
0.675837 0.350713 0.000000
0.717891 0.352270 0.000000
0.758267 0.352850 0.000000
0.796719 0.352880 0.000000
0.832975 0.351812 0.000000
0.867704 0.350469 0.000000
0.901244 0.348882 0.000000
0.933501 0.346593 0.000000
0.964324 0.343969 0.000000
0.993896 0.341131 0.000000
1.000000 0.338109 0.000000
1.000000 0.334691 0.000000
1.000000 0.331029 0.000000
1.000000 0.327092 0.000000
1.000000 0.322637 0.000000
0.175204 0.369238 0.225834
0.176272 0.369329 0.226291
0.182742 0.369696 0.227268
0.194644 0.370184 0.229282
0.211643 0.371252 0.232273
0.232456 0.372625 0.236667
0.246860 0.377234 0.226749
0.265232 0.383276 0.206729
0.292821 0.389563 0.180148
0.328954 0.395941 0.144320
0.372076 0.401556 0.082155
0.413733 0.400763 0.000000
0.463600 0.402991 0.000000
0.505699 0.400305 0.000000
0.549004 0.398566 0.000000
0.592157 0.396521 0.000000
0.635340 0.393805 0.000000
0.677150 0.389746 0.000000
0.717922 0.388983 0.000000
0.757198 0.389105 0.000000
0.794888 0.388128 0.000000
0.830594 0.386481 0.000000
0.865019 0.384894 0.000000
0.898344 0.382391 0.000000
0.930541 0.379706 0.000000
0.961303 0.376867 0.000000
0.990997 0.373510 0.000000
1.000000 0.370001 0.000000
1.000000 0.366369 0.000000
1.000000 0.362219 0.000000
1.000000 0.358007 0.000000
1.000000 0.353246 0.000000
0.198856 0.411353 0.254368
0.200717 0.411414 0.254643
0.206027 0.411688 0.255375
0.216007 0.412482 0.257206
0.231510 0.413642 0.260166
0.250706 0.414954 0.264256
0.270359 0.417975 0.265202
0.283574 0.423438 0.247929
0.304631 0.429328 0.226627
0.333806 0.435309 0.198672
0.370642 0.440833 0.160800
0.414557 0.447211 0.101961
0.470069 0.459022 0.000000
0.522148 0.460792 0.000000
0.567559 0.459052 0.000000
0.612329 0.456519 0.000000
0.655024 0.452674 0.000000
0.696254 0.447791 0.000000
0.735744 0.441535 0.000000
0.773465 0.434577 0.000000
0.809873 0.432288 0.000000
0.844388 0.429328 0.000000
0.877745 0.426093 0.000000
0.909880 0.422766 0.000000
0.940826 0.418921 0.000000
0.970489 0.414923 0.000000
0.998901 0.410529 0.000000
1.000000 0.405982 0.000000
1.000000 0.401312 0.000000
1.000000 0.396338 0.000000
1.000000 0.391272 0.000000
1.000000 0.385992 0.000000
0.226017 0.459998 0.285954
0.226566 0.459998 0.286137
0.231785 0.460090 0.286870
0.241032 0.460639 0.288426
0.254795 0.461341 0.290867
0.272557 0.462562 0.294347
0.294530 0.464637 0.299229
0.309361 0.469703 0.290806
0.326177 0.476265 0.272557
0.350439 0.483162 0.249638
0.383276 0.490486 0.220279
0.423285 0.497749 0.181033
0.469032 0.504173 0.120302
0.516075 0.506645 0.000000
0.565942 0.505669 0.000000
0.612146 0.503929 0.000000
0.654627 0.499458 0.000000
0.694850 0.493568 0.000000
0.733486 0.486854 0.000000
0.770138 0.479225 0.000000
0.804959 0.470680 0.000000
0.838804 0.463264 0.000000
0.871916 0.459663 0.000000
0.904173 0.455787 0.000000
0.935271 0.451698 0.000000
0.965148 0.447425 0.000000
0.993957 0.442756 0.000000
1.000000 0.437903 0.000000
1.000000 0.432898 0.000000
1.000000 0.427771 0.000000
1.000000 0.422431 0.000000
1.000000 0.416876 0.000000
0.251316 0.507774 0.316625
0.252415 0.507805 0.316625
0.256626 0.507927 0.317388
0.265080 0.508415 0.318608
0.278355 0.509239 0.321019
0.295048 0.510704 0.324285
0.315984 0.512902 0.329076
0.337316 0.516258 0.331609
0.349432 0.521721 0.314702
0.368688 0.527794 0.294224
0.395422 0.534417 0.268956
0.429480 0.541039 0.237888
0.470192 0.547326 0.196201
0.515496 0.552361 0.135378
0.563195 0.554864 0.000000
0.607965 0.549035 0.000000
0.652888 0.545434 0.000000
0.692897 0.539117 0.000000
0.731197 0.531792 0.000000
0.767239 0.523552 0.000000
0.801694 0.514519 0.000000
0.835172 0.505394 0.000000
0.867796 0.496040 0.000000
0.899809 0.489326 0.000000
0.931060 0.484840 0.000000
0.961059 0.480323 0.000000
0.990143 0.475257 0.000000
1.000000 0.470069 0.000000
1.000000 0.464729 0.000000
1.000000 0.459327 0.000000
1.000000 0.453742 0.000000
1.000000 0.447944 0.000000
0.277409 0.556542 0.346990
0.278630 0.556573 0.347021
0.282231 0.556664 0.347662
0.289921 0.556847 0.348669
0.302068 0.557366 0.350652
0.317601 0.558343 0.353552
0.337194 0.560204 0.357671
0.360143 0.562860 0.363256
0.375677 0.567071 0.355016
0.390600 0.572473 0.336645
0.411841 0.578210 0.314488
0.440528 0.584070 0.287694
0.475196 0.589624 0.254765
0.515496 0.594141 0.211978
0.559838 0.597498 0.150149
0.606653 0.598871 0.000000
0.646815 0.589197 0.000000
0.691035 0.584466 0.000000
0.729000 0.576379 0.000000
0.764858 0.567529 0.000000
0.799008 0.558068 0.000000
0.832303 0.548699 0.000000
0.864805 0.538903 0.000000
0.896391 0.529259 0.000000
0.927153 0.519036 0.000000
0.957397 0.512963 0.000000
0.986633 0.507805 0.000000
1.000000 0.502403 0.000000
1.000000 0.496925 0.000000
1.000000 0.491218 0.000000
1.000000 0.485573 0.000000
1.000000 0.479591 0.000000
0.303685 0.601648 0.376318
0.304692 0.601831 0.376532
0.308476 0.602014 0.377111
0.315648 0.602350 0.378241
0.326818 0.603113 0.380438
0.341527 0.604364 0.383276
0.360174 0.606256 0.387671
0.382483 0.609003 0.393103
0.405524 0.612451 0.397406
0.416571 0.616907 0.380468
0.433112 0.621546 0.360052
0.455695 0.626093 0.336156
0.484352 0.630335 0.307073
0.518547 0.633783 0.272099
0.557214 0.636164 0.227878
0.599786 0.637476 0.166812
0.645258 0.637507 0.000000
0.682155 0.625971 0.000000
0.725368 0.619745 0.000000
0.761288 0.610498 0.000000
0.795956 0.600916 0.000000
0.829465 0.591180 0.000000
0.862150 0.581384 0.000000
0.893919 0.571557 0.000000
0.924834 0.561273 0.000000
0.954864 0.551019 0.000000
0.984192 0.540764 0.000000
1.000000 0.535027 0.000000
1.000000 0.529229 0.000000
1.000000 0.523278 0.000000
1.000000 0.517082 0.000000
1.000000 0.510765 0.000000
0.331823 0.642817 0.406073
0.332921 0.642756 0.406073
0.335637 0.643061 0.406836
0.342412 0.643458 0.407935
0.352483 0.644190 0.409949
0.366400 0.645350 0.412818
0.383673 0.646998 0.416815
0.404486 0.649256 0.422156
0.427741 0.652155 0.428534
0.443214 0.655818 0.422034
0.455421 0.659815 0.403571
0.472908 0.663905 0.382055
0.495949 0.667536 0.356451
0.524559 0.670588 0.326055
0.558160 0.672969 0.290074
0.595911 0.674250 0.245487
0.637385 0.674525 0.184482
0.681636 0.673762 0.026307
0.715999 0.660670 0.000000
0.758206 0.653223 0.000000
0.792996 0.643519 0.000000
0.826963 0.633356 0.000000
0.859586 0.623346 0.000000
0.891447 0.613214 0.000000
0.922423 0.602899 0.000000
0.952605 0.592340 0.000000
0.981964 0.581720 0.000000
1.000000 0.570825 0.000000
1.000000 0.561395 0.000000
1.000000 0.555200 0.000000
1.000000 0.548730 0.000000
1.000000 0.542077 0.000000
0.363073 0.681788 0.437415
0.363775 0.681941 0.437598
0.376867 0.692775 0.448096
0.382422 0.693172 0.449226
0.391730 0.693782 0.451118
0.404028 0.694606 0.453925
0.419745 0.695827 0.457740
0.438849 0.697536 0.462562
0.460456 0.699794 0.468849
0.483497 0.702571 0.474983
0.491402 0.705837 0.457588
0.503563 0.708949 0.437018
0.520684 0.711757 0.413306
0.543084 0.713985 0.385809
0.570642 0.715480 0.353429
0.602716 0.716213 0.316228
0.639246 0.715877 0.269902
0.679072 0.714687 0.210788
0.721584 0.712612 0.111177
0.753689 0.698177 0.000000
0.794583 0.689113 0.000000
0.828550 0.678706 0.000000
0.861082 0.667750 0.000000
0.892454 0.656764 0.000000
0.922789 0.645533 0.000000
0.952209 0.634272 0.000000
0.980957 0.622980 0.000000
1.000000 0.611566 0.000000
1.000000 0.600214 0.000000
1.000000 0.588891 0.000000
1.000000 0.580224 0.000000
1.000000 0.573236 0.000000
0.399725 0.719783 0.472938
0.401617 0.720760 0.473945
0.404974 0.721889 0.475624
0.411322 0.723079 0.477577
0.419806 0.724208 0.480171
0.431159 0.725277 0.483101
0.445441 0.726375 0.486885
0.462318 0.727718 0.491371
0.481971 0.729519 0.497169
0.503746 0.731777 0.504021
0.517601 0.734554 0.499031
0.525689 0.737423 0.480659
0.537713 0.739956 0.458747
0.554681 0.742184 0.433692
0.576715 0.743954 0.405402
0.603632 0.745052 0.372442
0.635157 0.745418 0.334691
0.670863 0.745083 0.288823
0.709987 0.744015 0.231785
0.752132 0.742092 0.143740
0.783139 0.727810 0.000000
0.823239 0.718288 0.000000
0.857481 0.708125 0.000000
0.889036 0.696803 0.000000
0.919524 0.685359 0.000000
0.948974 0.673854 0.000000
0.977691 0.662318 0.000000
1.000000 0.650690 0.000000
1.000000 0.639155 0.000000
1.000000 0.627680 0.000000
1.000000 0.616144 0.000000
1.000000 0.604211 0.000000
0.433448 0.750027 0.504448
0.435004 0.750851 0.505455
0.438483 0.751980 0.507103
0.443732 0.753048 0.509148
0.451575 0.754238 0.511620
0.461707 0.755123 0.514488
0.474098 0.756069 0.517754
0.489143 0.757229 0.521935
0.506432 0.758724 0.527123
0.525994 0.760555 0.533318
0.547204 0.762692 0.540154
0.552514 0.765255 0.524132
0.560723 0.767727 0.504967
0.572869 0.770016 0.482521
0.589349 0.771847 0.456825
0.610681 0.773312 0.427375
0.636957 0.774075 0.393744
0.667628 0.774197 0.355352
0.702541 0.773770 0.309941
0.740963 0.772641 0.253849
0.782254 0.770718 0.173556
0.812345 0.756741 0.000000
0.851286 0.746853 0.000000
0.885527 0.736233 0.000000
0.916075 0.724636 0.000000
0.945800 0.712795 0.000000
0.974456 0.700954 0.000000
1.000000 0.689143 0.000000
1.000000 0.677424 0.000000
1.000000 0.665797 0.000000
1.000000 0.654017 0.000000
1.000000 0.642115 0.000000
0.467750 0.778805 0.536248
0.469306 0.779538 0.537224
0.472084 0.780423 0.538598
0.476875 0.781369 0.540459
0.483680 0.782284 0.542657
0.492470 0.783078 0.545312
0.503593 0.783902 0.548302
0.516655 0.784817 0.552026
0.531884 0.786130 0.556786
0.549584 0.787655 0.562371
0.568933 0.789425 0.568933
0.581201 0.791623 0.565362
0.586603 0.793942 0.548882
0.594995 0.796078 0.529473
0.607172 0.798062 0.507103
0.623529 0.799802 0.481209
0.644312 0.801236 0.451759
0.670069 0.802182 0.417670
0.700404 0.802701 0.379431
0.734981 0.802670 0.334661
0.773098 0.802060 0.280522
0.814359 0.800687 0.207248
0.844785 0.787900 0.070771
0.882444 0.777279 0.000000
0.916838 0.766323 0.000000
0.946777 0.754360 0.000000
0.975769 0.742214 0.000000
1.000000 0.730068 0.000000
1.000000 0.718166 0.000000
1.000000 0.706081 0.000000
1.000000 0.693996 0.000000
1.000000 0.681727 0.000000
0.508537 0.809964 0.573358
0.509239 0.810300 0.573816
0.511162 0.810605 0.574517
0.514641 0.810910 0.575555
0.520073 0.811307 0.577173
0.527184 0.811704 0.579065
0.536645 0.812192 0.581659
0.548119 0.812985 0.585077
0.561700 0.813962 0.589197
0.577325 0.815244 0.594354
0.594568 0.816739 0.600336
0.613336 0.818509 0.607019
0.617304 0.820615 0.593500
0.622766 0.822690 0.576654
0.631159 0.824613 0.557061
0.643000 0.826383 0.534417
0.658869 0.827787 0.508843
0.678889 0.828946 0.479316
0.703548 0.829740 0.444892
0.732509 0.829984 0.405829
0.765927 0.829648 0.360327
0.802762 0.828702 0.306706
0.842832 0.826963 0.236484
0.874174 0.815549 0.132113
0.908507 0.803128 0.000000
0.942779 0.791684 0.000000
0.971954 0.779446 0.000000
1.000000 0.767178 0.000000
1.000000 0.754940 0.000000
1.000000 0.742672 0.000000
1.000000 0.730404 0.000000
1.000000 0.717952 0.000000
0.542321 0.834470 0.603906
0.542931 0.834714 0.604273
0.544701 0.834989 0.605035
0.547723 0.835294 0.606012
0.552453 0.835569 0.607416
0.558709 0.835935 0.609216
0.566888 0.836393 0.611566
0.576959 0.836973 0.614527
0.588891 0.837827 0.618311
0.602808 0.838865 0.622827
0.618158 0.840146 0.628077
0.634974 0.841581 0.634089
0.646021 0.843351 0.632288
0.649500 0.845396 0.617792
0.655238 0.847379 0.600977
0.663691 0.849241 0.581628
0.675593 0.851011 0.559625
0.691157 0.852445 0.534203
0.710780 0.853605 0.505211
0.734615 0.854398 0.471443
0.762814 0.854765 0.432227
0.795163 0.854520 0.387182
0.831266 0.853635 0.333471
0.870573 0.852018 0.266026
0.900877 0.840543 0.167239
0.932525 0.826749 0.000000
0.967041 0.814969 0.000000
0.995514 0.802731 0.000000
1.000000 0.790311 0.000000
1.000000 0.777981 0.000000
1.000000 0.765499 0.000000
1.000000 0.752926 0.000000
0.578424 0.859281 0.636316
0.579309 0.859586 0.636927
0.580804 0.859800 0.637476
0.583215 0.859892 0.638148
0.586847 0.859892 0.638972
0.591882 0.859953 0.640162
0.598413 0.859983 0.641779
0.606714 0.860166 0.644038
0.616693 0.860502 0.646876
0.628290 0.861051 0.650385
0.641444 0.861753 0.654627
0.656123 0.862669 0.659602
0.671870 0.863737 0.665156
0.675105 0.865385 0.654139
0.678523 0.867063 0.639033
0.684169 0.868681 0.622248
0.692531 0.870298 0.602625
0.704067 0.871824 0.580560
0.719265 0.873259 0.555566
0.738521 0.874479 0.526940
0.761868 0.875364 0.494026
0.789273 0.875822 0.455879
0.820615 0.875639 0.410315
0.855650 0.874662 0.356390
0.893797 0.872923 0.289494
0.927398 0.864775 0.199100
0.956542 0.849851 0.000000
0.990265 0.837369 0.000000
1.000000 0.825010 0.000000
1.000000 0.812345 0.000000
1.000000 0.799680 0.000000
1.000000 0.786923 0.000000
0.607385 0.878813 0.662013
0.608118 0.879088 0.662562
0.609522 0.879301 0.663142
0.611749 0.879484 0.663813
0.615106 0.879637 0.664790
0.619776 0.879789 0.666163
0.625940 0.880034 0.667964
0.633509 0.880369 0.670222
0.642695 0.880888 0.673030
0.653346 0.881529 0.676539
0.665278 0.882231 0.680537
0.678431 0.883055 0.685054
0.692653 0.883940 0.690059
0.702480 0.885191 0.689174
0.704494 0.886839 0.676356
0.708248 0.888426 0.661677
0.714107 0.890043 0.644984
0.722560 0.891630 0.625849
0.734066 0.893217 0.604547
0.749020 0.894682 0.580072
0.767727 0.895933 0.551812
0.790249 0.896849 0.519493
0.816678 0.897307 0.482002
0.847044 0.897185 0.437049
0.881224 0.896422 0.383429
0.918914 0.894926 0.317174
0.953979 0.888670 0.230564
0.981170 0.872984 0.030823
1.000000 0.859983 0.000000
1.000000 0.847623 0.000000
1.000000 0.834653 0.000000
1.000000 0.821561 0.000000
0.637415 0.898344 0.688563
0.637812 0.898466 0.688838
0.638972 0.898589 0.689265
0.640803 0.898650 0.689784
0.643641 0.898741 0.690608
0.647700 0.898833 0.691737
0.652949 0.898985 0.693202
0.659602 0.899199 0.695094
0.667567 0.899504 0.697597
0.676875 0.899931 0.700618
0.687434 0.900450 0.704067
0.699153 0.901091 0.707973
0.711849 0.901793 0.712428
0.725338 0.902495 0.717220
0.728511 0.903990 0.708400
0.730922 0.905608 0.695796
0.734951 0.907256 0.681422
0.741176 0.908934 0.665126
0.749874 0.910613 0.646754
0.761440 0.912230 0.625879
0.776181 0.913756 0.602136
0.794339 0.915038 0.574609
0.816007 0.915923 0.542382
0.841581 0.916381 0.505211
0.871061 0.916289 0.460945
0.904265 0.915618 0.406897
0.941283 0.914275 0.340551
0.977691 0.909575 0.253788
1.000000 0.893339 0.113527
1.000000 0.880400 0.000000
1.000000 0.867582 0.000000
1.000000 0.854368 0.000000
0.664118 0.915526 0.712062
0.664607 0.915618 0.712367
0.665461 0.915740 0.712642
0.667262 0.915831 0.713283
0.669917 0.915953 0.714137
0.673793 0.916197 0.715358
0.679042 0.916564 0.717189
0.685542 0.917082 0.719570
0.693355 0.917723 0.722438
0.702388 0.918456 0.725765
0.712551 0.919249 0.729610
0.723568 0.920104 0.733730
0.735439 0.920928 0.738186
0.747951 0.921721 0.742855
0.757046 0.922820 0.742977
0.758724 0.924559 0.732357
0.761624 0.926268 0.720302
0.765988 0.928038 0.706386
0.772488 0.929808 0.690913
0.781308 0.931609 0.673396
0.792691 0.933288 0.653376
0.807004 0.934813 0.630457
0.824308 0.936065 0.603662
0.845151 0.937011 0.572503
0.869627 0.937499 0.535851
0.898039 0.937530 0.492317
0.930358 0.937011 0.439673
0.966674 0.935943 0.373632
1.000000 0.932860 0.287968
1.000000 0.916167 0.165103
1.000000 0.902892 0.000000
1.000000 0.889036 0.000000
0.695186 0.934051 0.739101
0.695308 0.934051 0.739132
0.696010 0.934051 0.739284
0.697322 0.934051 0.739681
0.699458 0.934051 0.740200
0.702541 0.934081 0.741085
0.706661 0.934173 0.742306
0.711849 0.934325 0.743893
0.718074 0.934508 0.745876
0.725460 0.934783 0.748226
0.733761 0.935058 0.751003
0.743130 0.935424 0.754147
0.753231 0.935821 0.757595
0.764126 0.936187 0.761379
