luts/日系自然[一麻]01.cube
# Created by Adobe Lightroom plugin Export LUT (1.24.0)
# www.johnrellis.com/lightroom/exportlut.htm
# Preset: 日系自然[一麻]01
# Color profile: C:\Program Files (x86)\Common Files\Adobe\Color\Profiles\Recommended\VideoHD.icc
LUT_3D_SIZE 8
DOMAIN_MIN 0.000000 0.000000 0.000000
DOMAIN_MAX 0.903226 0.903226 0.903226
0.000000 0.000000 0.000000
0.148501 0.004486 0.000000
0.335943 0.025727 0.000000
0.514061 0.077211 0.000000
0.700862 0.111147 0.000000
0.866239 0.132479 0.000000
1.000000 0.147677 0.000000
1.000000 0.154726 0.000000
0.000000 0.149447 0.040955
0.137942 0.162997 0.000000
0.341558 0.168246 0.000000
0.515923 0.176761 0.000000
0.700313 0.190372 0.000000
0.864042 0.198978 0.000000
0.997559 0.203037 0.000000
1.000000 0.201968 0.000000
0.000000 0.335973 0.109773
0.000000 0.334417 0.130709
0.299626 0.353216 0.000000
0.528069 0.353368 0.000000
0.735927 0.360662 0.000000
0.894072 0.354162 0.000000
1.000000 0.341466 0.000000
1.000000 0.325383 0.000000
0.000000 0.528283 0.203006
0.000000 0.528130 0.214481
0.015351 0.538903 0.194064
0.477424 0.557000 0.000000
0.720058 0.545312 0.000000
0.923857 0.538445 0.000000
1.000000 0.502739 0.000000
1.000000 0.468696 0.000000
0.000000 0.720180 0.297856
0.000000 0.720546 0.306218
0.000000 0.723995 0.342443
0.320317 0.732906 0.239811
0.634730 0.726650 0.000000
0.839384 0.675898 0.000000
1.000000 0.656062 0.000000
1.000000 0.615564 0.000000
0.000000 0.848173 0.411933
0.000000 0.850736 0.421668
0.000000 0.851530 0.449561
0.253819 0.854429 0.448066
0.491615 0.856260 0.310063
0.755215 0.845487 0.000000
0.945251 0.784512 0.000000
1.000000 0.752010 0.000000
0.000000 0.938659 0.536614
0.000000 0.938903 0.541955
0.000000 0.937957 0.560266
0.386847 0.936584 0.596033
0.471901 0.939971 0.531853
0.623346 0.941527 0.381384
0.848905 0.931518 0.000000
1.000000 0.868559 0.000000
0.233219 0.999786 0.635828
0.262211 0.999451 0.638544
0.354894 0.998108 0.650965
0.473854 0.995605 0.674769
0.550866 0.992889 0.671901
0.600397 0.998871 0.588983
0.719173 1.000000 0.422034
0.919799 0.993835 0.000000
0.000000 0.001373 0.158389
0.147829 0.000000 0.157412
0.319951 0.000000 0.147066
0.485023 0.000000 0.127657
0.672114 0.055421 0.106111
0.844419 0.107118 0.045716
0.983001 0.136782 0.000000
1.000000 0.150668 0.000000
0.000000 0.152438 0.154025
0.136782 0.154879 0.152407
0.319615 0.153933 0.141543
0.493507 0.159365 0.126223
0.679347 0.172976 0.101900
0.849180 0.186221 0.033173
0.981750 0.195163 0.000000
1.000000 0.199008 0.000000
0.000000 0.328527 0.198947
0.000000 0.329473 0.190188
0.293797 0.343267 0.127291
0.519554 0.343328 0.110933
0.714229 0.348760 0.081422
0.873747 0.344915 0.000000
0.997009 0.334783 0.000000
1.000000 0.322118 0.000000
0.000000 0.514641 0.249577
0.000000 0.516045 0.247684
0.123201 0.525872 0.253239
0.462135 0.538720 0.000000
0.699367 0.528191 0.000000
0.903838 0.526543 0.000000
1.000000 0.495064 0.005707
1.000000 0.465156 0.000000
0.000000 0.712123 0.323095
0.000000 0.712337 0.326940
0.000000 0.714992 0.359838
0.322850 0.721798 0.284489
0.624292 0.714595 0.000000
0.829404 0.667567 0.000000
0.998810 0.651392 0.000000
1.000000 0.614374 0.127596
0.000000 0.841825 0.423407
0.000000 0.842283 0.430152
0.000000 0.843565 0.457343
0.279515 0.847227 0.468544
0.492775 0.850278 0.342260
0.751400 0.841062 0.000000
0.941131 0.781338 0.000000
1.000000 0.750271 0.000000
0.000000 0.934661 0.541985
0.000000 0.934081 0.545464
0.052888 0.933257 0.563256
0.390051 0.932494 0.599207
0.481483 0.936461 0.547051
0.625055 0.938293 0.405524
0.845701 0.927886 0.000000
1.000000 0.865110 0.000000
0.239963 0.997955 0.638697
0.271611 0.997864 0.642359
0.360327 0.996521 0.654383
0.477455 0.994171 0.678065
0.568841 0.993042 0.686854
0.611322 0.998444 0.605676
0.723232 1.000000 0.446357
0.920104 0.993256 0.000000
0.000000 0.000000 0.332555
0.122377 0.000000 0.332067
0.308782 0.000000 0.328008
0.466041 0.000000 0.319829
0.643519 0.000000 0.299138
0.814603 0.000000 0.266117
0.958801 0.119326 0.275181
1.000000 0.164553 0.266575
0.000000 0.158572 0.328985
0.084352 0.148928 0.328435
0.303471 0.144320 0.324346
0.462959 0.139376 0.314580
0.640955 0.047639 0.288975
0.809018 0.147250 0.279088
0.958282 0.185092 0.274815
1.000000 0.208591 0.265904
0.000000 0.313512 0.316228
0.000000 0.314397 0.315526
0.281254 0.317510 0.311284
0.469398 0.315618 0.302831
0.664027 0.321447 0.297154
0.838560 0.328832 0.292241
0.973877 0.332708 0.285863
1.000000 0.330632 0.275151
0.000000 0.495796 0.363287
0.000000 0.496834 0.366247
0.211368 0.508476 0.359991
0.453162 0.521904 0.302037
0.700801 0.523613 0.298466
0.878782 0.520439 0.320958
0.996857 0.498939 0.311864
1.000000 0.476326 0.297520
0.000000 0.691920 0.430426
0.000000 0.693812 0.427527
0.000000 0.702266 0.424170
0.362707 0.712093 0.423529
0.621973 0.707179 0.287083
0.830961 0.667079 0.251896
0.995880 0.657404 0.324437
1.000000 0.626154 0.338811
0.000000 0.830716 0.503655
0.000000 0.832090 0.503960
0.000000 0.835538 0.511040
0.390936 0.839017 0.557427
0.519738 0.843198 0.463233
0.749844 0.835172 0.297276
0.939055 0.780728 0.222324
1.000000 0.755215 0.300816
0.000000 0.930816 0.597040
0.078584 0.930724 0.597009
0.264714 0.930663 0.604791
0.444373 0.930114 0.636622
0.541497 0.932708 0.620630
0.649744 0.935607 0.510338
0.849668 0.927276 0.311040
1.000000 0.867094 0.141390
0.344274 0.996033 0.672938
0.353552 0.995850 0.672999
0.411719 0.994934 0.681239
0.515526 0.993042 0.704494
0.618616 0.990021 0.730739
0.649622 0.995880 0.663416
0.743038 0.999207 0.535973
0.923613 0.992676 0.266178
0.000000 0.000000 0.490608
0.000000 0.000000 0.491249
0.285222 0.000000 0.487984
0.457618 0.000000 0.483070
0.616541 0.000000 0.477211
0.783902 0.000000 0.466499
0.931090 0.000000 0.434791
1.000000 0.000000 0.396277
0.000000 0.147921 0.490578
0.000000 0.146426 0.489937
0.278264 0.139681 0.487160
0.456214 0.125643 0.482765
0.616052 0.108888 0.475929
0.784512 0.000000 0.463783
0.930144 0.000000 0.431250
1.000000 0.000000 0.393744
0.000000 0.326879 0.480140
0.000000 0.323278 0.479896
0.243656 0.304936 0.478431
0.443946 0.299260 0.474006
0.612848 0.299107 0.470039
0.789181 0.280919 0.452552
0.935851 0.275059 0.423835
1.000000 0.341375 0.431861
0.000000 0.464363 0.466743
0.000000 0.464759 0.466377
0.191592 0.467628 0.465431
0.422400 0.472938 0.462104
0.628046 0.479011 0.462409
0.800412 0.487160 0.464759
0.943359 0.493202 0.465919
1.000000 0.491829 0.460731
0.000000 0.658991 0.514519
0.000000 0.659205 0.515251
0.180911 0.661707 0.522881
0.417639 0.680110 0.538689
0.609583 0.683619 0.477516
0.822477 0.670588 0.485725
0.971435 0.677424 0.533654
1.000000 0.650507 0.515068
0.203769 0.807187 0.603143
0.238804 0.810513 0.605310
0.322393 0.816007 0.605158
0.444831 0.826810 0.616541
0.579126 0.833860 0.614130
0.750240 0.826169 0.496559
0.934417 0.784604 0.455573
1.000000 0.775235 0.525109
0.353643 0.920500 0.672236
0.367315 0.921172 0.673060
0.416785 0.923339 0.676081
0.504082 0.926757 0.688136
0.632959 0.928496 0.723110
0.693843 0.931792 0.644099
0.856168 0.924498 0.508263
1.000000 0.870115 0.414008
0.467109 0.993011 0.731685
0.474067 0.992950 0.732021
0.503288 0.992767 0.734279
0.563714 0.992035 0.743923
0.662440 0.988830 0.772122
0.708278 0.991577 0.745846
0.776150 0.995697 0.653803
0.931121 0.991119 0.482490
0.000000 0.000000 0.646632
0.000000 0.000000 0.647028
0.245060 0.000000 0.644678
0.439490 0.000000 0.641321
0.608484 0.000000 0.636866
0.764279 0.000000 0.627710
0.896483 0.000000 0.604669
1.000000 0.000000 0.576928
0.000000 0.146456 0.646143
0.000000 0.144472 0.646693
0.235874 0.136751 0.644678
0.435950 0.117800 0.640375
0.608026 0.062348 0.636896
0.763485 0.000000 0.626459
0.896147 0.005249 0.603479
1.000000 0.000000 0.575677
0.000000 0.316625 0.639948
0.000000 0.302220 0.640467
0.184604 0.297429 0.638422
0.420142 0.291417 0.636011
0.600732 0.281743 0.631769
0.753719 0.278111 0.617151
0.892424 0.278538 0.596612
1.000000 0.272740 0.570062
0.000000 0.476905 0.629267
0.000000 0.476905 0.629175
0.097505 0.476753 0.629267
0.388006 0.458167 0.627802
0.587671 0.453193 0.623194
0.739559 0.455268 0.607691
0.889769 0.452186 0.590997
1.000000 0.449500 0.569268
0.000000 0.606561 0.608576
0.000000 0.607263 0.608789
0.000000 0.609155 0.608331
0.354070 0.613397 0.607202
0.561547 0.618494 0.604089
0.743557 0.630823 0.612970
0.896880 0.642298 0.621790
1.000000 0.645655 0.623316
0.000000 0.766720 0.631922
0.000000 0.767971 0.633265
0.000000 0.771084 0.638575
0.413153 0.775814 0.655299
0.594141 0.795529 0.684321
0.734188 0.799069 0.635950
0.917082 0.793088 0.650690
1.000000 0.804562 0.701289
0.295537 0.902037 0.713619
0.329107 0.901762 0.715633
0.437842 0.901854 0.726162
0.549889 0.907408 0.740627
0.645563 0.917388 0.757961
0.735195 0.922393 0.754513
0.858640 0.915801 0.655482
1.000000 0.873930 0.605432
0.528222 0.985565 0.784268
0.534813 0.985565 0.784451
0.562066 0.985779 0.785733
0.614893 0.986999 0.792020
0.683253 0.987121 0.803983
0.771664 0.985351 0.827634
0.811398 0.990265 0.761593
0.938659 0.987060 0.643183
0.000000 0.016175 0.777768
0.000000 0.008820 0.777737
0.170047 0.000000 0.775601
0.399054 0.000000 0.772915
0.576867 0.000000 0.771939
0.739223 0.000000 0.767727
0.889860 0.000000 0.757229
1.000000 0.000000 0.729702
0.000000 0.149111 0.773434
0.000000 0.148196 0.773037
0.155642 0.142550 0.771481
0.393927 0.129763 0.769802
0.572168 0.100862 0.767819
0.735164 0.000000 0.763882
0.885557 0.000000 0.753536
1.000000 0.000000 0.726955
0.000000 0.297978 0.772732
0.000000 0.297520 0.772457
0.039826 0.295384 0.771786
0.379400 0.289891 0.768399
0.564691 0.282261 0.765164
0.731319 0.271885 0.761166
0.881590 0.267308 0.749752
1.000000 0.276066 0.724361
0.000000 0.477546 0.766567
0.000000 0.475898 0.765988
0.000000 0.470466 0.765103
0.356268 0.452674 0.766171
0.554681 0.449836 0.763455
0.726833 0.445197 0.758846
0.873442 0.447028 0.745174
0.997406 0.450416 0.723842
0.000000 0.607141 0.749508
0.000000 0.607568 0.749386
0.000000 0.609979 0.749203
0.346532 0.617548 0.749294
0.534569 0.606134 0.747433
0.708064 0.601312 0.743313
0.849729 0.600702 0.730770
0.988464 0.598352 0.717342
0.000000 0.725978 0.728511
0.000000 0.727169 0.729397
0.000000 0.728420 0.728878
0.290166 0.731044 0.728267
0.507988 0.735225 0.727077
0.689845 0.743099 0.728176
0.860960 0.763760 0.747524
0.991638 0.774350 0.757748
0.000000 0.872679 0.745937
0.000000 0.873747 0.747250
0.000000 0.876493 0.751064
0.314122 0.882139 0.761105
0.588495 0.887572 0.783444
0.757168 0.905638 0.820371
0.858183 0.903655 0.773892
0.999634 0.891264 0.782773
0.316014 0.983886 0.803983
0.344762 0.983429 0.805203
0.445014 0.982177 0.812131
0.585229 0.980621 0.828763
0.712245 0.980194 0.850065
0.792905 0.982757 0.865904
0.855436 0.984741 0.861265
0.948211 0.983032 0.778286
0.000000 0.069032 0.885496
0.000000 0.063966 0.885405
0.000000 0.042329 0.884794
0.346563 0.000946 0.883635
0.528557 0.000000 0.881315
0.693263 0.000000 0.878325
0.848447 0.000000 0.874693
0.999145 0.000000 0.868894
0.000000 0.155856 0.884916
0.000000 0.155093 0.884825
0.000000 0.151339 0.884184
0.342870 0.142733 0.882872
0.526574 0.124880 0.880644
0.692073 0.085054 0.877714
0.847776 0.000000 0.874113
0.998291 0.000000 0.867979
0.000000 0.292485 0.882811
0.000000 0.292241 0.882658
0.000000 0.290776 0.881926
0.328649 0.287419 0.880583
0.519402 0.281804 0.878508
0.687861 0.272801 0.875669
0.845335 0.261784 0.872221
0.994965 0.250950 0.865049
0.000000 0.459052 0.877256
0.000000 0.452308 0.877226
0.000000 0.439460 0.877317
0.306706 0.438025 0.876036
0.508629 0.435523 0.874144
0.680751 0.431830 0.871550
0.840482 0.427405 0.868315
0.986816 0.425452 0.859159
0.000000 0.609094 0.868803
0.000000 0.608850 0.868711
0.000000 0.608026 0.868284
0.336004 0.607111 0.867521
0.501427 0.590906 0.867216
0.672938 0.587396 0.864927
0.833158 0.582940 0.862028
0.974456 0.580987 0.851011
0.000000 0.723201 0.857542
0.000000 0.723720 0.857511
0.000000 0.725795 0.857481
0.294102 0.730282 0.857420
0.503838 0.738888 0.857450
0.665583 0.730678 0.856565
0.824704 0.726558 0.853758
0.958740 0.724636 0.843076
0.000000 0.837125 0.842710
0.000000 0.837369 0.842710
0.000000 0.838285 0.842466
0.193393 0.840146 0.841978
0.462379 0.843107 0.841276
0.648951 0.847379 0.840818
0.814450 0.853971 0.842100
0.964782 0.875425 0.864500
0.000000 0.970825 0.849363
0.000000 0.970947 0.849638
0.000000 0.971466 0.851194
0.000000 0.972320 0.855314
0.492287 0.973663 0.865263
0.735897 0.973175 0.888090
0.888090 0.979004 0.923461
0.957183 0.978485 0.886320
0.000000 0.103243 0.987091
0.000000 0.102449 0.986999
0.000000 0.096986 0.986511
0.282902 0.082429 0.985657
0.480720 0.023285 0.984314
0.646784 0.000000 0.982574
0.805112 0.000000 0.980438
0.955840 0.000000 0.977966
0.000000 0.164492 0.986633
0.000000 0.164065 0.986542
0.000000 0.161593 0.986084
0.279576 0.155581 0.985260
0.479255 0.144289 0.983948
0.645930 0.123140 0.982208
0.804501 0.063874 0.980102
0.955474 0.000000 0.977600
0.000000 0.290898 0.985046
0.000000 0.290623 0.984955
0.000000 0.289586 0.984527
0.267155 0.287449 0.983764
0.473823 0.283268 0.982513
0.642725 0.276677 0.980865
0.802365 0.265812 0.978790
0.954192 0.252293 0.976349
0.000000 0.432776 0.981933
0.000000 0.432685 0.981842
0.000000 0.432227 0.981476
0.252049 0.431159 0.980743
0.467323 0.429450 0.979583
0.638361 0.426398 0.978027
0.799008 0.421607 0.976043
0.951446 0.415961 0.973724
0.000000 0.602106 0.975097
0.000000 0.602380 0.975036
0.000000 0.603388 0.974762
0.261082 0.581018 0.975921
0.468330 0.579339 0.974914
0.636713 0.576562 0.973510
0.795560 0.572442 0.971740
0.947845 0.567346 0.969604
0.000000 0.725521 0.968933
0.000000 0.726192 0.968872
0.000000 0.729213 0.968627
0.303532 0.731106 0.968261
0.500328 0.731838 0.967651
0.640192 0.718837 0.967773
0.794278 0.715511 0.966125
0.943999 0.711116 0.964111
0.000000 0.830198 0.962158
0.000000 0.830594 0.962127
0.000000 0.832212 0.961883
0.253239 0.835752 0.961456
0.478401 0.841733 0.960815
0.652399 0.851072 0.960082
0.796689 0.845518 0.959655
0.941253 0.841520 0.957794
0.000000 0.942412 0.953887
0.000000 0.942535 0.953857
0.000000 0.943114 0.953582
0.000000 0.944305 0.953063
0.427192 0.946014 0.952178
0.621118 0.948180 0.950958
0.789487 0.950744 0.949584
0.939940 0.955200 0.950378
