luts/日系自然[一麻]03.cube
# Created by Adobe Lightroom plugin Export LUT (1.24.0)
# www.johnrellis.com/lightroom/exportlut.htm
# Preset: 日系自然[一麻]03
# Color profile: C:\Program Files (x86)\Common Files\Adobe\Color\Profiles\Recommended\VideoHD.icc
LUT_3D_SIZE 32
DOMAIN_MIN 0.0 0.0 0.0
DOMAIN_MAX 1.0 1.0 1.0
0.000000 0.000000 0.000000
0.023682 0.000702 0.000000
0.091096 0.003113 0.000000
0.131197 0.016297 0.000000
0.190646 0.040375 0.000000
0.263920 0.077424 0.000000
0.335149 0.104952 0.000000
0.402014 0.125887 0.000000
0.467018 0.144930 0.000000
0.531182 0.165072 0.000000
0.596643 0.184878 0.000000
0.663203 0.205570 0.000000
0.727962 0.224826 0.000000
0.788083 0.243687 0.000000
0.842863 0.261479 0.000000
0.891875 0.278325 0.000000
0.935698 0.294713 0.000000
0.974884 0.309728 0.000000
1.000000 0.322271 0.000000
1.000000 0.334081 0.000000
1.000000 0.344060 0.000000
1.000000 0.352819 0.000000
1.000000 0.361181 0.000000
1.000000 0.367742 0.000000
1.000000 0.372534 0.000000
1.000000 0.376562 0.000000
1.000000 0.379156 0.000000
1.000000 0.380774 0.000000
1.000000 0.381231 0.000000
1.000000 0.381109 0.000000
1.000000 0.379644 0.000000
1.000000 0.377539 0.000000
0.000000 0.023133 0.008331
0.003632 0.024231 0.000000
0.086030 0.038087 0.000000
0.129763 0.042847 0.000000
0.189578 0.072724 0.000000
0.262028 0.099184 0.000000
0.332616 0.117678 0.000000
0.398932 0.136568 0.000000
0.463996 0.154330 0.000000
0.528038 0.172824 0.000000
0.592828 0.192874 0.000000
0.659358 0.211307 0.000000
0.724147 0.230808 0.000000
0.784298 0.248356 0.000000
0.839231 0.265812 0.000000
0.888731 0.282261 0.000000
0.932860 0.298222 0.000000
0.972412 0.312444 0.000000
1.000000 0.324987 0.000000
1.000000 0.336217 0.000000
1.000000 0.346136 0.000000
1.000000 0.354406 0.000000
1.000000 0.362554 0.000000
1.000000 0.368872 0.000000
1.000000 0.373968 0.000000
1.000000 0.377295 0.000000
1.000000 0.379736 0.000000
1.000000 0.381445 0.000000
1.000000 0.381811 0.000000
1.000000 0.381506 0.000000
1.000000 0.380224 0.000000
1.000000 0.378180 0.000000
0.000000 0.095583 0.033997
0.000000 0.096254 0.025727
0.034455 0.097597 0.000000
0.123049 0.110384 0.000000
0.186160 0.128298 0.000000
0.257969 0.146975 0.000000
0.328740 0.161990 0.000000
0.395361 0.175448 0.000000
0.459815 0.190585 0.000000
0.523888 0.204776 0.000000
0.588861 0.220371 0.000000
0.655451 0.236332 0.000000
0.720272 0.253086 0.000000
0.780423 0.269413 0.000000
0.835782 0.284062 0.000000
0.885191 0.298985 0.000000
0.929747 0.312718 0.000000
0.969543 0.325566 0.000000
1.000000 0.336614 0.000000
1.000000 0.346868 0.000000
1.000000 0.355505 0.000000
1.000000 0.363409 0.000000
1.000000 0.370581 0.000000
1.000000 0.375830 0.000000
1.000000 0.380346 0.000000
1.000000 0.383001 0.000000
1.000000 0.385412 0.000000
1.000000 0.386603 0.000000
1.000000 0.386725 0.000000
1.000000 0.386145 0.000000
1.000000 0.384375 0.000000
1.000000 0.382086 0.000000
0.000000 0.144472 0.088533
0.000000 0.144930 0.080110
0.000000 0.147524 0.020417
0.091188 0.152193 0.000000
0.182162 0.176181 0.000000
0.251804 0.204135 0.000000
0.322362 0.219944 0.000000
0.388617 0.231022 0.000000
0.454322 0.241825 0.000000
0.518578 0.253025 0.000000
0.584161 0.265507 0.000000
0.650355 0.278508 0.000000
0.715480 0.292546 0.000000
0.775448 0.305882 0.000000
0.830686 0.317510 0.000000
0.880308 0.329625 0.000000
0.924926 0.340368 0.000000
0.964721 0.350713 0.000000
1.000000 0.359380 0.000000
1.000000 0.367346 0.000000
1.000000 0.373754 0.000000
1.000000 0.380224 0.000000
1.000000 0.385565 0.000000
1.000000 0.389715 0.000000
1.000000 0.392859 0.000000
1.000000 0.395026 0.000000
1.000000 0.396551 0.000000
1.000000 0.396887 0.000000
1.000000 0.396246 0.000000
1.000000 0.395148 0.000000
1.000000 0.393011 0.000000
1.000000 0.390143 0.000000
0.000000 0.210941 0.126284
0.000000 0.210941 0.121065
0.000000 0.211337 0.098878
0.000000 0.215793 0.000793
0.133089 0.222568 0.000000
0.243748 0.245518 0.000000
0.311467 0.268315 0.000000
0.378332 0.289494 0.000000
0.444221 0.299870 0.000000
0.509453 0.309300 0.000000
0.575311 0.319097 0.000000
0.642145 0.330419 0.000000
0.707332 0.341466 0.000000
0.768032 0.351965 0.000000
0.823514 0.361913 0.000000
0.873594 0.371130 0.000000
0.919066 0.378576 0.000000
0.959594 0.385687 0.000000
0.995880 0.391699 0.000000
1.000000 0.396521 0.000000
1.000000 0.401038 0.000000
1.000000 0.405005 0.000000
1.000000 0.408270 0.000000
1.000000 0.410681 0.000000
1.000000 0.412146 0.000000
1.000000 0.413245 0.000000
1.000000 0.413275 0.000000
1.000000 0.412634 0.000000
1.000000 0.411109 0.000000
1.000000 0.409003 0.000000
1.000000 0.406043 0.000000
1.000000 0.402502 0.000000
0.000000 0.274601 0.159701
0.000000 0.274784 0.156527
0.000000 0.274296 0.139040
0.000000 0.275303 0.079225
0.000000 0.281590 0.000000
0.176303 0.287968 0.000000
0.299565 0.308690 0.000000
0.366888 0.327886 0.000000
0.433661 0.348028 0.000000
0.500999 0.365087 0.000000
0.567834 0.374243 0.000000
0.635279 0.385321 0.000000
0.700496 0.395361 0.000000
0.761288 0.404364 0.000000
0.817044 0.412116 0.000000
0.867857 0.418463 0.000000
0.913420 0.423987 0.000000
0.954437 0.428199 0.000000
0.991211 0.431159 0.000000
1.000000 0.433448 0.000000
1.000000 0.435218 0.000000
1.000000 0.437110 0.000000
1.000000 0.442237 0.000000
1.000000 0.442664 0.000000
1.000000 0.441901 0.000000
1.000000 0.440711 0.000000
1.000000 0.438758 0.000000
1.000000 0.436408 0.000000
1.000000 0.433265 0.000000
1.000000 0.429847 0.000000
1.000000 0.425452 0.000000
1.000000 0.420661 0.000000
0.000000 0.336675 0.195132
0.000000 0.336736 0.192172
0.000000 0.336339 0.179660
0.000000 0.336187 0.148379
0.000000 0.339910 0.000000
0.000000 0.345281 0.000000
0.220035 0.351537 0.000000
0.353582 0.368078 0.000000
0.426581 0.390295 0.000000
0.495521 0.409888 0.000000
0.566888 0.431342 0.000000
0.637018 0.445075 0.000000
0.702235 0.452308 0.000000
0.762905 0.458442 0.000000
0.818112 0.462959 0.000000
0.868101 0.466011 0.000000
0.913359 0.468513 0.000000
0.953979 0.470222 0.000000
0.990448 0.471168 0.000000
1.000000 0.472053 0.000000
1.000000 0.473274 0.000000
1.000000 0.474037 0.000000
1.000000 0.474800 0.000000
1.000000 0.473854 0.000000
1.000000 0.471565 0.000000
1.000000 0.468910 0.000000
1.000000 0.465278 0.000000
1.000000 0.461402 0.000000
1.000000 0.457191 0.000000
1.000000 0.452216 0.000000
1.000000 0.446906 0.000000
1.000000 0.441169 0.000000
0.000000 0.388128 0.225681
0.000000 0.387976 0.223575
0.000000 0.387732 0.213718
0.000000 0.387488 0.192142
0.000000 0.386816 0.149264
0.000000 0.393347 0.000000
0.000000 0.399298 0.000000
0.260136 0.405798 0.000000
0.395392 0.418463 0.000000
0.478706 0.444648 0.000000
0.549981 0.464668 0.000000
0.622217 0.486000 0.000000
0.691096 0.505425 0.000000
0.752316 0.510552 0.000000
0.808164 0.512718 0.000000
0.858518 0.513573 0.000000
0.904204 0.513787 0.000000
0.945495 0.512993 0.000000
0.982605 0.511681 0.000000
1.000000 0.510979 0.000000
1.000000 0.510185 0.000000
1.000000 0.508751 0.000000
1.000000 0.507103 0.000000
1.000000 0.505455 0.000000
1.000000 0.504112 0.000000
1.000000 0.500755 0.000000
1.000000 0.495735 0.000000
1.000000 0.490242 0.000000
1.000000 0.484474 0.000000
1.000000 0.478523 0.000000
1.000000 0.471901 0.000000
1.000000 0.465095 0.000000
0.000000 0.437049 0.255863
0.000000 0.437110 0.253758
0.000000 0.436866 0.247227
0.000000 0.436530 0.231357
0.000000 0.436042 0.203098
0.000000 0.439155 0.116182
0.000000 0.444892 0.038331
0.000000 0.451484 0.000000
0.300572 0.458442 0.000000
0.435401 0.468574 0.000000
0.532494 0.499367 0.000000
0.605249 0.519768 0.000000
0.674739 0.538170 0.000000
0.739284 0.554101 0.000000
0.797910 0.565515 0.000000
0.848875 0.564080 0.000000
0.895048 0.561944 0.000000
0.936858 0.559045 0.000000
0.975952 0.556481 0.000000
1.000000 0.553216 0.000000
1.000000 0.549981 0.000000
1.000000 0.546563 0.000000
1.000000 0.542870 0.000000
1.000000 0.539422 0.000000
1.000000 0.536370 0.000000
1.000000 0.532616 0.000000
1.000000 0.528923 0.000000
1.000000 0.522118 0.000000
1.000000 0.515007 0.000000
1.000000 0.507500 0.000000
1.000000 0.499886 0.000000
1.000000 0.491798 0.000000
0.000000 0.485328 0.284398
0.000000 0.485176 0.282689
0.000000 0.484871 0.277501
0.000000 0.484596 0.265476
0.000000 0.484108 0.244938
0.000000 0.483406 0.211124
0.000000 0.489448 0.124819
0.000000 0.495888 0.085451
0.142611 0.502708 0.000000
0.342412 0.510277 0.000000
0.475257 0.518151 0.000000
0.585809 0.552453 0.000000
0.655848 0.570459 0.000000
0.721309 0.585992 0.000000
0.781888 0.598810 0.000000
0.836484 0.609277 0.000000
0.885588 0.612757 0.000000
0.929290 0.608698 0.000000
0.968322 0.603693 0.000000
1.000000 0.598169 0.000000
1.000000 0.592554 0.000000
1.000000 0.586725 0.000000
1.000000 0.581109 0.000000
1.000000 0.575860 0.000000
1.000000 0.570459 0.000000
1.000000 0.565454 0.000000
1.000000 0.560235 0.000000
1.000000 0.555077 0.000000
1.000000 0.547326 0.000000
1.000000 0.538689 0.000000
1.000000 0.529870 0.000000
1.000000 0.520684 0.000000
0.000000 0.532036 0.309819
0.000000 0.531945 0.309087
0.000000 0.531914 0.304997
0.000000 0.531670 0.295018
0.000000 0.531456 0.279576
0.000000 0.531029 0.254673
0.000000 0.532891 0.202976
0.000000 0.540337 0.141329
0.000000 0.547448 0.104250
0.208255 0.555200 0.000000
0.387610 0.563165 0.000000
0.516808 0.568292 0.000000
0.637049 0.603388 0.000000
0.703822 0.618616 0.000000
0.765805 0.631678 0.000000
0.822538 0.642054 0.000000
0.873442 0.649989 0.000000
0.918883 0.655940 0.000000
0.958373 0.652094 0.000000
0.993469 0.644404 0.000000
1.000000 0.636561 0.000000
1.000000 0.628748 0.000000
1.000000 0.621424 0.000000
1.000000 0.614130 0.000000
1.000000 0.607111 0.000000
1.000000 0.600397 0.000000
1.000000 0.593866 0.000000
1.000000 0.587304 0.000000
1.000000 0.580835 0.000000
1.000000 0.571771 0.000000
1.000000 0.561852 0.000000
1.000000 0.551629 0.000000
0.000000 0.580468 0.334325
0.000000 0.580499 0.333623
0.000000 0.580468 0.330022
0.000000 0.580285 0.322698
0.000000 0.580224 0.309911
0.000000 0.579858 0.290410
0.000000 0.579736 0.260441
0.000000 0.585962 0.176059
0.000000 0.592828 0.152041
0.000000 0.600031 0.114260
0.264500 0.607385 0.000000
0.432197 0.615503 0.000000
0.570703 0.629236 0.000000
0.697963 0.661799 0.000000
0.765530 0.677485 0.000000
0.822599 0.686397 0.000000
0.873472 0.692500 0.000000
0.918914 0.696529 0.000000
0.959075 0.698726 0.000000
0.994629 0.699641 0.000000
1.000000 0.689143 0.000000
1.000000 0.678889 0.000000
1.000000 0.668849 0.000000
1.000000 0.659358 0.000000
1.000000 0.650019 0.000000
1.000000 0.640894 0.000000
1.000000 0.631983 0.000000
1.000000 0.623560 0.000000
1.000000 0.615290 0.000000
1.000000 0.606989 0.000000
1.000000 0.596094 0.000000
1.000000 0.584527 0.000000
0.000000 0.632715 0.359258
0.000000 0.632685 0.358892
0.000000 0.632288 0.355566
0.000000 0.632044 0.348760
0.000000 0.631464 0.338109
0.000000 0.630854 0.321813
0.000000 0.630701 0.298253
0.000000 0.631617 0.261326
0.000000 0.640497 0.189242
0.000000 0.647822 0.165286
0.000000 0.656001 0.126406
0.322301 0.664363 0.000000
0.482582 0.672419 0.000000
0.609033 0.674830 0.000000
0.735225 0.700496 0.000000
0.803250 0.717159 0.000000
0.855131 0.722927 0.000000
0.901305 0.726070 0.000000
0.942351 0.727413 0.000000
0.978759 0.727382 0.000000
1.000000 0.726314 0.000000
1.000000 0.722255 0.000000
1.000000 0.710719 0.000000
1.000000 0.699763 0.000000
1.000000 0.688960 0.000000
1.000000 0.678553 0.000000
1.000000 0.668238 0.000000
1.000000 0.658412 0.000000
1.000000 0.648798 0.000000
1.000000 0.639551 0.000000
1.000000 0.630121 0.000000
1.000000 0.617609 0.000000
0.000000 0.677790 0.380743
0.000000 0.677638 0.379950
0.000000 0.677394 0.377295
0.000000 0.676936 0.371405
0.000000 0.676417 0.361975
0.000000 0.675929 0.348852
0.000000 0.675563 0.329442
0.000000 0.675196 0.302403
0.000000 0.679957 0.240879
0.000000 0.687129 0.198459
0.000000 0.694057 0.173404
0.000000 0.701289 0.137148
0.370062 0.708492 0.022797
0.520714 0.714961 0.000000
0.642939 0.716152 0.000000
0.767514 0.734920 0.000000
0.835569 0.752163 0.000000
0.882658 0.755184 0.000000
0.924834 0.756069 0.000000
0.962402 0.755428 0.000000
0.996185 0.753719 0.000000
1.000000 0.751553 0.000000
1.000000 0.748959 0.000000
1.000000 0.741115 0.000000
1.000000 0.729091 0.000000
1.000000 0.717464 0.000000
1.000000 0.705837 0.000000
1.000000 0.694636 0.000000
1.000000 0.683589 0.000000
1.000000 0.672999 0.000000
1.000000 0.662623 0.000000
1.000000 0.651392 0.000000
0.000000 0.718746 0.400061
0.000000 0.718715 0.399451
0.000000 0.718349 0.397070
0.000000 0.717830 0.391791
0.000000 0.717098 0.383490
0.000000 0.716304 0.371954
0.000000 0.715755 0.355871
0.000000 0.715389 0.333745
0.000000 0.715297 0.303655
0.000000 0.723232 0.225620
0.000000 0.729122 0.208286
0.000000 0.735470 0.183993
0.183597 0.741756 0.148196
0.412757 0.747555 0.067903
0.555352 0.752438 0.000000
0.672724 0.752346 0.000000
0.790829 0.766262 0.000000
0.863828 0.783566 0.000000
0.907073 0.784360 0.000000
0.945892 0.783474 0.000000
0.980835 0.781430 0.000000
1.000000 0.778866 0.000000
1.000000 0.775662 0.000000
1.000000 0.772030 0.000000
1.000000 0.767910 0.000000
1.000000 0.756771 0.000000
1.000000 0.744076 0.000000
1.000000 0.731716 0.000000
1.000000 0.719509 0.000000
1.000000 0.707607 0.000000
1.000000 0.696071 0.000000
1.000000 0.684657 0.000000
0.000000 0.754604 0.417212
0.000000 0.754635 0.416968
0.000000 0.754482 0.414771
0.000000 0.754238 0.410376
0.000000 0.753811 0.403571
0.000000 0.753445 0.393530
0.000000 0.753262 0.379797
0.000000 0.753231 0.361944
0.000000 0.753384 0.337835
0.000000 0.756435 0.292485
0.000000 0.763058 0.237583
0.000000 0.768032 0.219120
0.000000 0.772946 0.194980
0.261631 0.777493 0.160708
0.450874 0.781399 0.097963
0.584771 0.784573 0.000000
0.698116 0.783474 0.000000
0.809140 0.793484 0.000000
0.888029 0.811307 0.000000
0.928344 0.810605 0.000000
0.964843 0.808713 0.000000
0.998047 0.806027 0.000000
1.000000 0.802640 0.000000
1.000000 0.798672 0.000000
1.000000 0.794034 0.000000
1.000000 0.788998 0.000000
1.000000 0.782956 0.000000
1.000000 0.769436 0.000000
1.000000 0.756100 0.000000
1.000000 0.743008 0.000000
1.000000 0.730068 0.000000
1.000000 0.717403 0.000000
0.000000 0.786893 0.433539
0.000000 0.786831 0.433051
0.000000 0.786770 0.431281
0.000000 0.786557 0.427588
0.000000 0.786313 0.421515
0.000000 0.786130 0.412848
0.000000 0.785977 0.401129
0.000000 0.785885 0.385748
0.000000 0.785946 0.365759
0.000000 0.786038 0.340002
0.000000 0.792081 0.274144
0.000000 0.796841 0.248112
0.000000 0.801022 0.230137
0.000000 0.804929 0.206577
0.317906 0.808438 0.173281
0.485359 0.811307 0.119020
0.611536 0.813504 0.000000
0.720424 0.811917 0.000000
0.826108 0.818753 0.000000
0.907500 0.834653 0.000000
0.948638 0.835843 0.000000
0.983398 0.833066 0.000000
1.000000 0.829587 0.000000
1.000000 0.825406 0.000000
1.000000 0.820432 0.000000
1.000000 0.814939 0.000000
1.000000 0.808896 0.000000
1.000000 0.802426 0.000000
1.000000 0.793057 0.000000
1.000000 0.778866 0.000000
1.000000 0.764767 0.000000
1.000000 0.750851 0.000000
0.000000 0.817350 0.449744
0.000000 0.817441 0.449622
0.000000 0.825834 0.452949
0.000000 0.825742 0.449622
0.000000 0.825559 0.444282
0.000000 0.825284 0.436805
0.000000 0.825010 0.426581
0.000000 0.824796 0.413062
0.000000 0.824735 0.396155
0.000000 0.824765 0.374792
0.000000 0.826169 0.341802
0.000000 0.832273 0.279759
0.000000 0.835416 0.265629
0.000000 0.838315 0.247410
0.000000 0.840757 0.224521
0.372503 0.842741 0.193484
0.522667 0.844114 0.146548
0.641566 0.844938 0.000000
0.745418 0.842344 0.000000
0.845548 0.846220 0.000000
0.928557 0.859342 0.000000
0.971466 0.862638 0.000000
1.000000 0.858640 0.000000
1.000000 0.853819 0.000000
1.000000 0.848112 0.000000
1.000000 0.841886 0.000000
1.000000 0.835050 0.000000
1.000000 0.827817 0.000000
1.000000 0.820188 0.000000
1.000000 0.812253 0.000000
1.000000 0.799802 0.000000
1.000000 0.784665 0.000000
0.000000 0.847898 0.467231
0.000000 0.848631 0.467506
0.000000 0.849393 0.466682
0.000000 0.849973 0.464149
0.000000 0.850370 0.459754
0.000000 0.850401 0.453193
0.000000 0.850248 0.444282
0.000000 0.850034 0.432624
0.000000 0.849912 0.417975
0.000000 0.849882 0.399969
0.000000 0.850004 0.377417
0.000000 0.853880 0.329503
0.000000 0.858061 0.290043
0.000000 0.860563 0.275639
0.000000 0.862852 0.258061
0.179568 0.864744 0.235477
0.412634 0.866331 0.205203
0.549737 0.867369 0.162234
0.663355 0.867918 0.059236
0.763424 0.865415 0.000000
0.859159 0.867460 0.000000
0.944060 0.878904 0.000000
0.989136 0.884672 0.000000
1.000000 0.879881 0.000000
1.000000 0.874113 0.000000
1.000000 0.867582 0.000000
1.000000 0.860441 0.000000
1.000000 0.852781 0.000000
1.000000 0.844694 0.000000
1.000000 0.836179 0.000000
1.000000 0.827237 0.000000
1.000000 0.817868 0.000000
0.000000 0.872892 0.482124
0.000000 0.873564 0.482399
0.000000 0.874388 0.481514
0.000000 0.874998 0.479622
0.000000 0.875425 0.475868
0.000000 0.875486 0.470069
0.000000 0.875425 0.462074
0.000000 0.875273 0.451972
0.000000 0.875151 0.439124
0.000000 0.875090 0.423621
0.000000 0.875120 0.404303
0.000000 0.875456 0.379858
0.000000 0.881193 0.316075
0.000000 0.883543 0.301335
0.000000 0.885527 0.286992
0.000000 0.887266 0.268833
0.265782 0.888670 0.246036
0.450019 0.889677 0.216587
0.577081 0.890318 0.175265
0.684504 0.890501 0.102541
0.781003 0.887816 0.000000
0.872129 0.888121 0.000000
0.958862 0.897642 0.000000
1.000000 0.905608 0.000000
1.000000 0.899870 0.000000
1.000000 0.893217 0.000000
1.000000 0.885863 0.000000
1.000000 0.877836 0.000000
1.000000 0.869352 0.000000
1.000000 0.860349 0.000000
1.000000 0.850797 0.000000
1.000000 0.840757 0.000000
0.000000 0.897337 0.497414
0.000000 0.897948 0.497688
0.000000 0.898589 0.497078
0.000000 0.899138 0.495186
0.000000 0.899535 0.491737
0.000000 0.899626 0.486641
0.000000 0.899596 0.479622
0.000000 0.899504 0.470710
0.000000 0.899443 0.459632
0.000000 0.899413 0.445960
0.000000 0.899443 0.429450
0.000000 0.899504 0.409705
0.000000 0.901976 0.372930
0.000000 0.906157 0.325658
0.000000 0.907866 0.313603
0.000000 0.909514 0.298253
0.000000 0.910918 0.280491
0.327733 0.912078 0.257877
0.485206 0.912993 0.229587
0.603845 0.913603 0.190249
0.706569 0.913725 0.127230
0.799954 0.911162 0.081270
0.886900 0.910063 0.000000
0.973266 0.918151 0.000000
1.000000 0.927703 0.000000
1.000000 0.920928 0.000000
1.000000 0.913298 0.000000
1.000000 0.904875 0.000000
1.000000 0.895872 0.000000
1.000000 0.886168 0.000000
1.000000 0.875883 0.000000
1.000000 0.865049 0.000000
0.000000 0.924651 0.516350
0.000000 0.924895 0.516167
0.000000 0.925048 0.515526
0.000000 0.925139 0.513603
0.000000 0.925170 0.510216
0.000000 0.925017 0.505425
0.000000 0.924865 0.499275
0.000000 0.924743 0.491188
0.000000 0.924712 0.481086
0.000000 0.924743 0.469306
0.000000 0.924804 0.455116
0.000000 0.924926 0.438239
0.000000 0.925048 0.417792
0.000000 0.929229 0.368292
0.000000 0.931670 0.340887
0.000000 0.932921 0.327794
0.000000 0.933928 0.312688
0.026917 0.934752 0.294041
0.378820 0.935363 0.271427
0.518151 0.935576 0.242588
0.628931 0.935424 0.203708
0.726436 0.934783 0.143832
0.815915 0.931670 0.106966
0.898741 0.928771 0.000000
0.982055 0.935332 0.000000
1.000000 0.943908 0.000000
1.000000 0.938323 0.000000
1.000000 0.929747 0.000000
1.000000 0.920439 0.000000
1.000000 0.910460 0.000000
1.000000 0.899748 0.000000
1.000000 0.888365 0.000000
0.000000 0.946807 0.532677
0.000000 0.946990 0.532586
0.000000 0.947143 0.531853
0.000000 0.947265 0.530114
0.000000 0.947265 0.527245
0.000000 0.947204 0.522972
0.000000 0.947112 0.517357
0.000000 0.947021 0.510185
0.000000 0.947051 0.501396
0.000000 0.947082 0.490822
0.000000 0.947234 0.478370
0.000000 0.947326 0.463783
0.000000 0.947478 0.446204
0.000000 0.948943 0.418372
0.000000 0.953124 0.366491
0.000000 0.954162 0.355138
0.000000 0.955077 0.341833
0.000000 0.955779 0.325750
0.228916 0.956268 0.306584
0.423133 0.956420 0.283604
0.548394 0.956237 0.254612
0.652003 0.955627 0.216464
0.745052 0.954528 0.158206
0.831144 0.951049 0.125704
0.909056 0.945739 0.013703
0.989349 0.950683 0.000000
1.000000 0.957427 0.000000
1.000000 0.953979 0.000000
1.000000 0.944518 0.000000
1.000000 0.934264 0.000000
1.000000 0.923308 0.000000
1.000000 0.911528 0.000000
0.000000 0.969696 0.551781
0.000000 0.970001 0.551843
0.000000 0.970092 0.551293
0.000000 0.970031 0.549462
0.000000 0.969879 0.546593
0.000000 0.969574 0.542535
0.000000 0.969238 0.537285
0.000000 0.968933 0.530480
0.000000 0.968627 0.522362
0.000000 0.968444 0.512718
0.000000 0.968261 0.501335
0.000000 0.968200 0.488197
0.000000 0.968139 0.472969
0.000000 0.968078 0.455238
0.000000 0.970764 0.416297
0.000000 0.973175 0.379828
0.000000 0.973663 0.367376
0.000000 0.974060 0.352972
0.000000 0.974365 0.336370
0.302129 0.974487 0.316533
0.459358 0.974365 0.292882
0.573999 0.973785 0.262943
0.671626 0.972686 0.223514
0.760037 0.970977 0.164126
0.842954 0.967041 0.129976
0.919524 0.962676 0.044312
0.996094 0.965393 0.000000
1.000000 0.970123 0.000000
1.000000 0.968414 0.000000
1.000000 0.957946 0.000000
1.000000 0.946593 0.000000
1.000000 0.934508 0.000000
0.000000 0.988128 0.568231
0.000000 0.988342 0.568414
0.000000 0.988495 0.567834
0.000000 0.988556 0.566522
0.000000 0.988525 0.564019
0.000000 0.988434 0.560571
0.000000 0.988373 0.556054
0.000000 0.988342 0.550286
0.000000 0.988342 0.543236
0.000000 0.988373 0.534966
0.000000 0.988403 0.525109
0.000000 0.988434 0.513817
0.000000 0.988525 0.500603
0.000000 0.988525 0.485389
0.000000 0.989044 0.464088
0.000000 0.992370 0.417609
0.000000 0.993256 0.397406
0.000000 0.993408 0.384100
0.000000 0.993469 0.368933
0.000000 0.993408 0.351385
0.362768 0.993072 0.330907
0.495338 0.992432 0.306035
0.599786 0.991363 0.275151
0.691493 0.989746 0.234134
0.775479 0.987579 0.174319
0.855375 0.983398 0.141726
0.929473 0.978790 0.082429
1.000000 0.979522 0.000000
1.000000 0.982330 0.000000
1.000000 0.982116 0.000000
1.000000 0.970397 0.000000
1.000000 0.957671 0.000000
0.000000 1.000000 0.587182
0.000000 1.000000 0.587152
0.000000 1.000000 0.586542
0.000000 1.000000 0.585321
0.000000 1.000000 0.583032
0.000000 1.000000 0.580011
0.000000 1.000000 0.575769
0.000000 1.000000 0.570550
0.000000 1.000000 0.564355
0.000000 1.000000 0.556909
0.000000 1.000000 0.547967
0.000000 1.000000 0.537896
0.000000 1.000000 0.526390
0.000000 1.000000 0.513024
0.000000 1.000000 0.497871
0.000000 1.000000 0.467567
0.000000 1.000000 0.426368
0.000000 1.000000 0.414405
0.000000 1.000000 0.400671
0.000000 1.000000 0.384710
0.238987 1.000000 0.366430
0.411597 1.000000 0.344701
0.526635 1.000000 0.318486
0.622705 1.000000 0.286046
0.708583 1.000000 0.243839
0.788357 1.000000 0.181186
0.865354 0.997162 0.146944
0.936950 0.992279 0.089204
1.000000 0.991211 0.000000
1.000000 0.992126 0.000000
1.000000 0.993072 0.000000
1.000000 0.979950 0.000000
0.000000 1.000000 0.605615
0.000000 1.000000 0.605585
0.000000 1.000000 0.605127
0.000000 1.000000 0.603998
0.000000 1.000000 0.602228
0.000000 1.000000 0.599664
0.000000 1.000000 0.596307
0.000000 1.000000 0.592401
0.000000 1.000000 0.587671
0.000000 1.000000 0.581720
0.000000 1.000000 0.574914
0.000000 1.000000 0.566827
0.000000 1.000000 0.557427
0.000000 1.000000 0.546654
0.000000 1.000000 0.534203
0.000000 1.000000 0.519524
0.000000 1.000000 0.481422
0.000000 1.000000 0.454444
0.000000 1.000000 0.442512
0.000000 1.000000 0.428656
0.026703 1.000000 0.412787
0.343297 1.000000 0.394110
0.466529 1.000000 0.371832
0.564050 1.000000 0.344762
0.649653 1.000000 0.312016
0.728481 1.000000 0.269688
0.803281 1.000000 0.211856
0.876555 1.000000 0.182742
0.945006 1.000000 0.139223
1.000000 1.000000 0.000000
1.000000 1.000000 0.000000
1.000000 1.000000 0.000000
0.000000 1.000000 0.630213
0.000000 1.000000 0.630152
0.000000 1.000000 0.629633
0.000000 1.000000 0.628504
0.000000 1.000000 0.626764
0.000000 1.000000 0.624262
0.000000 1.000000 0.621149
0.000000 1.000000 0.617121
0.000000 1.000000 0.612482
0.000000 1.000000 0.606867
0.000000 1.000000 0.600275
0.000000 1.000000 0.592798
0.000000 1.000000 0.584192
0.000000 1.000000 0.574517
