luts/日系自然[一麻]07.cube
# Created by Adobe Lightroom plugin Export LUT (1.24.0)
# www.johnrellis.com/lightroom/exportlut.htm
# Preset: 日系自然[一麻]07
# Color profile: C:\Program Files (x86)\Common Files\Adobe\Color\Profiles\Recommended\VideoHD.icc
LUT_3D_SIZE 5
DOMAIN_MIN 0.000000 0.000000 0.000000
DOMAIN_MAX 0.903226 0.903226 0.903226
0.000000 0.000000 0.000000
0.324956 0.000000 0.000000
0.614862 0.000000 0.000000
0.861112 0.000000 0.000000
1.000000 0.000000 0.000000
0.000000 0.243687 0.044221
0.288884 0.272679 0.000000
0.617762 0.275731 0.000000
0.866850 0.263920 0.000000
1.000000 0.251225 0.000000
0.000000 0.415412 0.129854
0.103456 0.404364 0.146151
0.518639 0.524743 0.000000
0.858854 0.560266 0.000000
1.000000 0.513542 0.000000
0.000000 0.565209 0.149630
0.000000 0.560235 0.160616
0.274846 0.597894 0.168734
0.688502 0.733120 0.000000
1.000000 0.759854 0.000000
0.000000 0.802823 0.159976
0.000000 0.801144 0.172641
0.000000 0.782498 0.210239
0.464607 0.854826 0.217716
0.849454 0.920897 0.188510
0.000000 0.045411 0.234806
0.292607 0.000000 0.242710
0.563989 0.078065 0.245426
0.800473 0.149477 0.256901
1.000000 0.168154 0.251804
0.135683 0.267582 0.232761
0.318334 0.268864 0.239872
0.577722 0.260441 0.235172
0.827726 0.257450 0.229526
1.000000 0.259983 0.224918
0.172091 0.435401 0.236149
0.210605 0.427863 0.221256
0.516136 0.509178 0.221927
0.839475 0.538628 0.153841
1.000000 0.506737 0.172030
0.000000 0.576745 0.221683
0.000000 0.573419 0.210575
0.293400 0.591363 0.229404
0.691615 0.730037 0.216922
1.000000 0.757015 0.170199
0.000000 0.803891 0.217716
0.000000 0.802457 0.204959
0.000000 0.796170 0.244846
0.470985 0.857023 0.269963
0.856596 0.924010 0.280461
0.000000 0.107637 0.422858
0.197360 0.093660 0.426032
0.509239 0.000000 0.441718
0.811002 0.000000 0.471290
0.975921 0.236851 0.459876
0.167056 0.284031 0.422309
0.231754 0.246311 0.427497
0.517113 0.230350 0.442969
0.797208 0.247288 0.463722
0.967041 0.338659 0.465003
0.191165 0.476417 0.417731
0.299779 0.481697 0.424262
0.555291 0.509361 0.456703
0.782467 0.510887 0.456306
0.984863 0.512139 0.454688
0.205478 0.625757 0.395178
0.292699 0.624964 0.400580
0.382574 0.612268 0.374670
0.708705 0.724056 0.442084
0.990723 0.746822 0.438209
0.000000 0.808225 0.364538
0.000000 0.807797 0.356542
0.000000 0.804257 0.323735
0.461524 0.834928 0.377325
0.864744 0.917601 0.450904
0.000000 0.150057 0.605188
0.000000 0.141604 0.606531
0.411322 0.086854 0.612482
0.686702 0.000000 0.631922
0.969543 0.000000 0.667933
0.000000 0.265141 0.600732
0.000000 0.237766 0.603296
0.412482 0.217227 0.609216
0.685603 0.182162 0.628168
0.966125 0.200290 0.663569
0.177279 0.473854 0.584649
0.267704 0.472175 0.589837
0.428046 0.433631 0.609613
0.696834 0.435370 0.630884
0.962554 0.480507 0.660731
0.000000 0.655360 0.584894
0.175662 0.657374 0.587671
0.448249 0.672236 0.606073
0.738277 0.718654 0.661280
0.945892 0.724025 0.666072
0.000000 0.838651 0.536980
0.000000 0.837980 0.537438
0.201846 0.835904 0.546807
0.477546 0.823178 0.519799
0.884947 0.913237 0.653681
0.000000 0.198062 0.837003
0.000000 0.189731 0.836667
0.270573 0.148135 0.836667
0.594812 0.000000 0.838224
0.861540 0.000000 0.849546
0.000000 0.270146 0.832731
0.000000 0.253269 0.833097
0.260746 0.226841 0.833646
0.591760 0.155215 0.836088
0.861540 0.000000 0.848447
0.000000 0.488106 0.820249
0.000000 0.471107 0.821469
0.196536 0.396460 0.827451
0.578393 0.369726 0.832090
0.864530 0.347967 0.847990
0.000000 0.669184 0.806699
0.000000 0.667231 0.806912
0.305241 0.660975 0.810300
0.560998 0.606622 0.829618
0.874144 0.619104 0.850523
0.000000 0.870573 0.807950
0.000000 0.870359 0.808347
0.000000 0.870512 0.811429
0.536217 0.873167 0.821561
0.915068 0.913542 0.884001
