luts/日系自然[一麻]03.cube
# Created by Adobe Lightroom plugin Export LUT (1.24.0)
# www.johnrellis.com/lightroom/exportlut.htm
# Preset: 日系自然[一麻]03
# Color profile: C:\Program Files (x86)\Common Files\Adobe\Color\Profiles\Recommended\VideoHD.icc
LUT_3D_SIZE 5
DOMAIN_MIN 0.000000 0.000000 0.000000
DOMAIN_MAX 0.903226 0.903226 0.903226
0.000000 0.000000 0.000000
0.402014 0.125887 0.000000
0.842863 0.261479 0.000000
1.000000 0.352819 0.000000
1.000000 0.381231 0.000000
0.000000 0.388128 0.225681
0.260136 0.405798 0.000000
0.808164 0.512718 0.000000
1.000000 0.508751 0.000000
1.000000 0.484474 0.000000
0.000000 0.718746 0.400061
0.000000 0.715389 0.333745
0.555352 0.752438 0.000000
1.000000 0.778866 0.000000
1.000000 0.719509 0.000000
0.000000 0.924651 0.516350
0.000000 0.924743 0.491188
0.000000 0.931670 0.340887
0.726436 0.934783 0.143832
1.000000 0.920439 0.000000
0.000000 1.000000 0.651637
0.000000 1.000000 0.640436
0.000000 1.000000 0.586389
0.168826 1.000000 0.465064
0.817350 1.000000 0.231205
0.000000 0.000000 0.406867
0.356268 0.000000 0.396429
0.806638 0.000000 0.346593
1.000000 0.299504 0.296300
1.000000 0.364691 0.098787
0.000000 0.358740 0.402808
0.317967 0.376745 0.386114
0.786770 0.428504 0.353002
1.000000 0.465766 0.291051
1.000000 0.464302 0.108583
0.000000 0.708492 0.504570
0.000000 0.707240 0.460945
0.573846 0.734371 0.339361
1.000000 0.769192 0.280064
1.000000 0.709499 0.143801
0.000000 0.918517 0.581353
0.000000 0.918944 0.560388
0.000000 0.924559 0.442206
0.748959 0.930755 0.349737
1.000000 0.918425 0.227054
0.000000 1.000000 0.690883
0.000000 1.000000 0.680171
0.000000 1.000000 0.636988
0.358892 1.000000 0.531792
0.838560 1.000000 0.380621
0.000000 0.000000 0.690578
0.306981 0.000000 0.686641
0.716304 0.000000 0.669764
1.000000 0.000000 0.606500
1.000000 0.350652 0.558923
0.000000 0.367956 0.684993
0.253452 0.344701 0.681941
0.708309 0.328374 0.665553
1.000000 0.366278 0.611597
1.000000 0.500023 0.590326
0.000000 0.656306 0.670619
0.270146 0.662867 0.665461
0.670130 0.686732 0.642847
0.969329 0.740719 0.663233
1.000000 0.736110 0.628779
0.184787 0.907774 0.745174
0.366918 0.903197 0.738338
0.542290 0.899351 0.692622
0.829221 0.916442 0.637995
1.000000 0.919890 0.617975
0.494697 1.000000 0.816617
0.502892 1.000000 0.807950
0.531151 1.000000 0.771267
0.588159 1.000000 0.689113
0.899474 1.000000 0.624689
0.000000 0.149660 0.894560
0.185611 0.151308 0.893126
0.602411 0.142947 0.885466
0.937652 0.096223 0.870726
1.000000 0.218112 0.790646
0.000000 0.345647 0.890288
0.177523 0.344945 0.888273
0.598138 0.341924 0.880369
0.929900 0.337316 0.865324
1.000000 0.379248 0.789822
0.000000 0.647150 0.871641
0.282902 0.648188 0.867979
0.611200 0.646632 0.861295
0.900359 0.643366 0.844816
1.000000 0.665492 0.802976
0.387854 0.844602 0.869932
0.462501 0.847532 0.867399
0.663813 0.861051 0.860044
0.884428 0.881041 0.843748
1.000000 0.918547 0.872770
0.455268 1.000000 0.939971
0.518578 1.000000 0.936461
0.700862 1.000000 0.925597
0.839475 1.000000 0.897948
0.965850 1.000000 0.856626
0.000000 0.212192 1.000000
0.000000 0.212253 1.000000
0.468177 0.213809 1.000000
0.781064 0.208957 1.000000
1.000000 0.197452 1.000000
0.000000 0.339483 1.000000
0.000000 0.339513 1.000000
0.472480 0.339757 1.000000
0.779385 0.338048 1.000000
1.000000 0.336126 1.000000
0.230716 0.619867 1.000000
0.274754 0.604120 1.000000
0.522179 0.598779 1.000000
0.784543 0.595514 1.000000
1.000000 0.597070 1.000000
0.306065 0.801266 1.000000
0.378180 0.804807 1.000000
0.581903 0.824094 1.000000
0.815274 0.834623 1.000000
1.000000 0.847105 1.000000
0.564874 0.953185 1.000000
0.600092 0.955535 1.000000
0.729091 0.966552 1.000000
0.887205 0.983612 1.000000
0.997620 0.997345 0.996185
