luts/日系自然[一麻]07.cube
# Created by Adobe Lightroom plugin Export LUT (1.24.0)
# www.johnrellis.com/lightroom/exportlut.htm
# Preset: 日系自然[一麻]07
# Color profile: C:\Program Files (x86)\Common Files\Adobe\Color\Profiles\Recommended\VideoHD.icc
LUT_3D_SIZE 32
DOMAIN_MIN 0.0 0.0 0.0
DOMAIN_MAX 1.0 1.0 1.0
0.000000 0.000000 0.000000
0.022431 0.000000 0.000000
0.084260 0.000000 0.000824
0.124788 0.000000 0.000000
0.170413 0.000000 0.000000
0.223209 0.000000 0.000000
0.275975 0.000000 0.000000
0.324956 0.000000 0.000000
0.370672 0.000000 0.000000
0.413672 0.000000 0.000000
0.455268 0.000000 0.000000
0.496162 0.000000 0.000000
0.536309 0.000000 0.000000
0.575952 0.000000 0.000000
0.614862 0.000000 0.000000
0.652949 0.000000 0.000000
0.690517 0.000000 0.000000
0.727169 0.000000 0.000000
0.762142 0.000000 0.000000
0.795499 0.000000 0.000000
0.827085 0.000000 0.000000
0.861112 0.000000 0.000000
0.894072 0.000000 0.000000
0.923980 0.000000 0.000000
0.951415 0.000000 0.000000
0.977111 0.000000 0.000000
1.000000 0.000000 0.000000
1.000000 0.000000 0.000000
1.000000 0.000000 0.000000
1.000000 0.000000 0.000000
1.000000 0.022950 0.000000
1.000000 0.056397 0.000000
0.000000 0.012329 0.001709
0.014710 0.011749 0.000366
0.086213 0.010986 0.000122
0.125643 0.005432 0.000000
0.171176 0.001617 0.000000
0.224094 0.000000 0.000000
0.276127 0.000000 0.000000
0.324132 0.000000 0.000000
0.369421 0.000000 0.000000
0.412024 0.000000 0.000000
0.453162 0.000000 0.000000
0.493874 0.000000 0.000000
0.533806 0.000000 0.000000
0.573266 0.000000 0.000000
0.611963 0.000000 0.000000
0.650111 0.000000 0.000000
0.687739 0.000000 0.000000
0.724483 0.000000 0.000000
0.759426 0.000000 0.000000
0.792660 0.000000 0.000000
0.824247 0.000000 0.000000
0.857847 0.000000 0.000000
0.890105 0.000000 0.000000
0.919432 0.000000 0.000000
0.946685 0.000000 0.000000
0.972198 0.000000 0.000000
0.996857 0.000000 0.000000
1.000000 0.000000 0.000000
1.000000 0.000000 0.000000
1.000000 0.000000 0.000000
1.000000 0.018616 0.000000
1.000000 0.050507 0.000000
0.000000 0.057069 0.004700
0.008820 0.056916 0.006744
0.076692 0.062867 0.001251
0.126589 0.058686 0.000000
0.173342 0.057160 0.000000
0.225498 0.054749 0.000000
0.276585 0.043549 0.000000
0.324559 0.026917 0.000000
0.369604 0.010010 0.000000
0.412085 0.000000 0.000000
0.453559 0.000000 0.000000
0.494301 0.000000 0.000000
0.534234 0.000000 0.000000
0.573297 0.000000 0.000000
0.611810 0.000000 0.000000
0.649500 0.000000 0.000000
0.686946 0.000000 0.000000
0.723537 0.000000 0.000000
0.758480 0.000000 0.000000
0.791745 0.000000 0.000000
0.823331 0.000000 0.000000
0.857145 0.000000 0.000000
0.888762 0.000000 0.000000
0.917784 0.000000 0.000000
0.944701 0.000000 0.000000
0.970092 0.000000 0.000000
0.994629 0.000000 0.000000
1.000000 0.000000 0.000000
1.000000 0.000000 0.000000
1.000000 0.022827 0.000000
1.000000 0.046601 0.000000
1.000000 0.076753 0.000000
0.000000 0.104158 0.015900
0.008148 0.103822 0.016999
0.052552 0.104677 0.016876
0.120455 0.109529 0.002777
0.177798 0.114656 0.000000
0.229374 0.116793 0.000000
0.279301 0.115084 0.000000
0.325780 0.111604 0.000000
0.370367 0.105562 0.000000
0.412238 0.099245 0.000000
0.453346 0.091249 0.000000
0.493477 0.078126 0.000000
0.533257 0.057069 0.000000
0.572229 0.035554 0.000000
0.610651 0.015259 0.000000
0.648493 0.000000 0.000000
0.685878 0.000000 0.000000
0.722438 0.000000 0.000000
0.757351 0.000000 0.000000
0.790311 0.000000 0.000000
0.821561 0.000000 0.000000
0.855253 0.000000 0.000000
0.886107 0.000000 0.000000
0.914824 0.000000 0.000000
0.942016 0.001404 0.000000
0.967956 0.016754 0.000000
0.993133 0.037079 0.000000
1.000000 0.054749 0.000000
1.000000 0.072633 0.000000
1.000000 0.088289 0.000000
1.000000 0.096345 0.000000
1.000000 0.104585 0.000000
0.000000 0.141329 0.024994
0.000000 0.141085 0.024964
0.035218 0.139315 0.030884
0.104738 0.144350 0.019745
0.165377 0.152377 0.000000
0.231571 0.159518 0.000000
0.280003 0.160220 0.000000
0.326818 0.158328 0.000000
0.370001 0.154574 0.000000
0.411444 0.150332 0.000000
0.451789 0.145022 0.000000
0.491768 0.140139 0.000000
0.531121 0.134798 0.000000
0.570092 0.129976 0.000000
0.608484 0.125185 0.000000
0.646235 0.121706 0.000000
0.684047 0.116793 0.000000
0.720729 0.113558 0.000000
0.755734 0.110780 0.000000
0.788998 0.107485 0.000000
0.821592 0.106172 0.000000
0.855283 0.105989 0.000000
0.885710 0.106691 0.000000
0.914549 0.106844 0.000000
0.941863 0.108034 0.000000
0.967987 0.110414 0.000000
0.993072 0.113588 0.000000
1.000000 0.117067 0.000000
1.000000 0.120363 0.000000
1.000000 0.124300 0.000000
1.000000 0.127840 0.000000
1.000000 0.132021 0.000000
0.000000 0.177127 0.027863
0.000000 0.176791 0.029114
0.000000 0.175143 0.034211
0.076143 0.175814 0.034119
0.141207 0.183993 0.013153
0.208713 0.193790 0.000000
0.280919 0.203311 0.000000
0.326574 0.202304 0.000000
0.370825 0.200107 0.000000
0.413458 0.196811 0.000000
0.453315 0.192538 0.000000
0.492927 0.188785 0.000000
0.531823 0.185000 0.000000
0.570520 0.181735 0.000000
0.608728 0.179019 0.000000
0.646815 0.175998 0.000000
0.684352 0.173678 0.000000
0.721126 0.171206 0.000000
0.756069 0.168978 0.000000
0.789242 0.166567 0.000000
0.823575 0.165957 0.000000
0.856474 0.165560 0.000000
0.910155 0.173556 0.000000
0.938964 0.173922 0.000000
0.965789 0.173556 0.000000
0.991058 0.173465 0.000000
1.000000 0.172824 0.000000
1.000000 0.172946 0.000000
1.000000 0.172976 0.000000
1.000000 0.173129 0.000000
1.000000 0.173281 0.000000
1.000000 0.173922 0.000000
0.000000 0.214237 0.032624
0.000000 0.213840 0.033997
0.000000 0.212589 0.039124
0.008545 0.209964 0.048341
0.116121 0.215915 0.034424
0.182010 0.225589 0.006317
0.252995 0.237217 0.000000
0.332616 0.249851 0.000000
0.376074 0.247898 0.000000
0.419318 0.245457 0.000000
0.462654 0.242618 0.000000
0.503288 0.239475 0.000000
0.542107 0.236088 0.000000
0.580468 0.233188 0.000000
0.618402 0.230350 0.000000
0.655665 0.227573 0.000000
0.692836 0.225528 0.000000
0.728725 0.223178 0.000000
0.763027 0.220920 0.000000
0.797879 0.219425 0.000000
0.834989 0.219425 0.000000
0.869108 0.219059 0.000000
0.901061 0.218509 0.000000
0.931273 0.218021 0.000000
0.959503 0.217380 0.000000
0.985626 0.216709 0.000000
1.000000 0.215122 0.000000
1.000000 0.213870 0.000000
1.000000 0.212863 0.000000
1.000000 0.211337 0.000000
1.000000 0.210300 0.000000
1.000000 0.209323 0.000000
0.000000 0.243687 0.044221
0.000000 0.243473 0.046601
0.000000 0.242344 0.049592
0.000000 0.240208 0.059968
0.085573 0.240269 0.063905
0.154299 0.249302 0.039857
0.218357 0.260136 0.006134
0.288884 0.272679 0.000000
0.368231 0.288090 0.000000
0.414832 0.287083 0.000000
0.457404 0.285252 0.000000
0.499825 0.283360 0.000000
0.541924 0.281376 0.000000
0.580163 0.278538 0.000000
0.617762 0.275731 0.000000
0.654688 0.273198 0.000000
0.691554 0.271153 0.000000
0.727077 0.268803 0.000000
0.761990 0.266514 0.000000
0.799100 0.265995 0.000000
0.834073 0.265171 0.000000
0.866850 0.263920 0.000000
0.897887 0.262364 0.000000
0.927520 0.260929 0.000000
0.955474 0.259495 0.000000
0.981537 0.257664 0.000000
1.000000 0.255589 0.000000
1.000000 0.253422 0.000000
1.000000 0.251225 0.000000
1.000000 0.249332 0.000000
1.000000 0.247135 0.000000
1.000000 0.245548 0.000000
0.000000 0.271031 0.066560
0.000000 0.270939 0.067628
0.000000 0.270024 0.071778
0.000000 0.268223 0.079988
0.031220 0.265415 0.088685
0.130800 0.271305 0.081117
0.190768 0.281163 0.054353
0.253849 0.293156 0.014252
0.322393 0.306798 0.000000
0.402228 0.324926 0.000000
0.453040 0.326421 0.000000
0.494911 0.325414 0.000000
0.536828 0.323949 0.000000
0.578302 0.322545 0.000000
0.619043 0.320897 0.000000
0.655726 0.318303 0.000000
0.692256 0.315862 0.000000
0.728542 0.313939 0.000000
0.765621 0.312718 0.000000
0.800809 0.311284 0.000000
0.834287 0.309514 0.000000
0.865873 0.307500 0.000000
0.896086 0.305119 0.000000
0.925139 0.302953 0.000000
0.952667 0.300664 0.000000
0.978546 0.298070 0.000000
1.000000 0.295140 0.000000
1.000000 0.292393 0.000000
1.000000 0.289555 0.000000
1.000000 0.286717 0.000000
1.000000 0.284123 0.000000
1.000000 0.281559 0.000000
0.000000 0.296880 0.088197
0.000000 0.296544 0.088350
0.000000 0.295842 0.089845
0.000000 0.294285 0.092897
0.000000 0.291905 0.097566
0.107149 0.291569 0.100832
0.167391 0.300725 0.092531
0.224949 0.311894 0.072511
0.286473 0.324804 0.027192
0.354040 0.339635 0.000000
0.431189 0.357824 0.000000
0.488838 0.364691 0.000000
0.530297 0.364141 0.000000
0.571740 0.363653 0.000000
0.613275 0.362890 0.000000
0.654749 0.362127 0.000000
0.696162 0.362158 0.000000
0.733700 0.360723 0.000000
0.769284 0.358679 0.000000
0.803189 0.356237 0.000000
0.835142 0.353307 0.000000
0.865141 0.350042 0.000000
0.893858 0.346654 0.000000
0.921569 0.343450 0.000000
0.948150 0.339940 0.000000
0.973510 0.336522 0.000000
0.997955 0.332891 0.000000
1.000000 0.329442 0.000000
1.000000 0.326268 0.000000
1.000000 0.323064 0.000000
1.000000 0.319890 0.000000
1.000000 0.317021 0.000000
0.000000 0.320226 0.098299
0.000000 0.320134 0.097932
0.000000 0.319493 0.099672
0.000000 0.318212 0.102235
0.000000 0.316197 0.106355
0.081849 0.313512 0.111696
0.146090 0.319188 0.108980
0.200961 0.329747 0.100465
0.257481 0.342321 0.086885
0.318578 0.356695 0.040375
0.385870 0.372869 0.000000
0.459266 0.390509 0.000000
0.525200 0.403815 0.000000
0.566644 0.404181 0.000000
0.610010 0.405798 0.000000
0.653498 0.407141 0.000000
0.695827 0.407385 0.000000
0.736233 0.406287 0.000000
0.771664 0.403632 0.000000
0.804227 0.400031 0.000000
0.835019 0.395972 0.000000
0.864164 0.391760 0.000000
0.892332 0.387762 0.000000
0.919615 0.383551 0.000000
0.945892 0.379461 0.000000
0.971038 0.375433 0.000000
0.995422 0.371283 0.000000
1.000000 0.367315 0.000000
1.000000 0.363409 0.000000
1.000000 0.359625 0.000000
1.000000 0.356146 0.000000
1.000000 0.352636 0.000000
0.000000 0.343450 0.107118
0.000000 0.343328 0.107149
0.000000 0.342748 0.108064
0.000000 0.341741 0.110628
0.000000 0.340093 0.113954
0.020691 0.337713 0.118532
0.123598 0.337255 0.121859
0.178592 0.347356 0.116060
0.232212 0.359380 0.107271
0.288640 0.373419 0.093629
0.349981 0.389227 0.050843
0.417823 0.408179 0.000000
0.505547 0.441810 0.000000
0.583001 0.463233 0.000000
0.627314 0.465644 0.000000
0.670893 0.466712 0.000000
0.712337 0.466011 0.000000
0.752132 0.464179 0.000000
0.789944 0.461097 0.000000
0.825437 0.457099 0.000000
0.854704 0.450965 0.000000
0.882231 0.444923 0.000000
0.908782 0.438911 0.000000
0.934447 0.433295 0.000000
0.959106 0.427619 0.000000
0.982879 0.421973 0.000000
1.000000 0.416327 0.000000
1.000000 0.410925 0.000000
1.000000 0.405798 0.000000
1.000000 0.400885 0.000000
1.000000 0.396216 0.000000
1.000000 0.391852 0.000000
0.000000 0.369512 0.116060
0.000000 0.369421 0.115785
0.000000 0.368750 0.116976
0.000000 0.367559 0.118898
0.000000 0.365820 0.121798
0.000000 0.363439 0.125612
0.100557 0.360540 0.130648
0.158145 0.367071 0.129885
0.210971 0.379553 0.124147
0.265324 0.394446 0.115206
0.324132 0.411902 0.100832
0.388128 0.431922 0.064210
0.458808 0.454322 0.000000
0.536492 0.478767 0.000000
0.621180 0.505730 0.000000
0.663630 0.507012 0.000000
0.704219 0.506371 0.000000
0.742916 0.504021 0.000000
0.779904 0.500633 0.000000
0.814694 0.496132 0.000000
0.847410 0.490761 0.000000
0.877684 0.484688 0.000000
0.903868 0.477882 0.000000
0.929412 0.471443 0.000000
0.954101 0.465064 0.000000
0.977905 0.458961 0.000000
1.000000 0.452888 0.000000
1.000000 0.447120 0.000000
1.000000 0.441505 0.000000
1.000000 0.436286 0.000000
1.000000 0.431220 0.000000
1.000000 0.426429 0.000000
0.000000 0.392889 0.123262
0.000000 0.392767 0.123354
0.000000 0.392187 0.124392
0.000000 0.391089 0.125917
0.000000 0.389502 0.128359
0.000000 0.387427 0.131899
0.039277 0.384924 0.136538
0.132570 0.384131 0.140322
0.187472 0.395789 0.136019
0.239994 0.409766 0.129763
0.294987 0.426246 0.120150
0.354253 0.445197 0.105501
0.419074 0.466682 0.071656
0.489479 0.490089 0.000000
0.566522 0.515282 0.000000
0.650813 0.543267 0.000000
0.695521 0.544671 0.000000
0.733394 0.542443 0.000000
0.769955 0.538994 0.000000
0.804288 0.534295 0.000000
0.837003 0.528740 0.000000
0.868437 0.522881 0.000000
0.898711 0.516808 0.000000
0.926024 0.510094 0.000000
0.950652 0.503136 0.000000
0.974517 0.496498 0.000000
0.997711 0.489845 0.000000
1.000000 0.483467 0.000000
1.000000 0.477394 0.000000
1.000000 0.471717 0.000000
1.000000 0.466255 0.000000
1.000000 0.461097 0.000000
0.000000 0.415412 0.129854
0.000000 0.415320 0.129671
0.000000 0.414710 0.130465
0.000000 0.413611 0.131716
0.000000 0.411872 0.133913
0.000000 0.409705 0.137148
0.000000 0.407263 0.141024
0.103456 0.404364 0.146151
0.161807 0.410468 0.145815
0.215335 0.423774 0.141115
0.267948 0.439307 0.134554
0.323644 0.457527 0.124453
0.383307 0.477852 0.108553
0.448219 0.500420 0.073915
0.518639 0.524743 0.000000
0.594232 0.549584 0.000000
0.677119 0.577447 0.000000
0.724575 0.579736 0.000000
0.760555 0.576257 0.000000
0.794675 0.571557 0.000000
0.827268 0.566064 0.000000
0.858854 0.560266 0.000000
0.889311 0.554070 0.000000
0.918700 0.547723 0.000000
0.946960 0.541070 0.000000
0.971527 0.533837 0.000000
0.994781 0.526726 0.000000
1.000000 0.520043 0.000000
1.000000 0.513542 0.000000
1.000000 0.507622 0.000000
1.000000 0.502007 0.000000
1.000000 0.496651 0.000000
0.000000 0.435798 0.134707
0.000000 0.435737 0.134737
0.000000 0.435309 0.135409
0.000000 0.434394 0.136538
0.000000 0.433112 0.138705
0.000000 0.431312 0.141665
0.000000 0.429297 0.145235
0.017426 0.426856 0.149844
0.133211 0.425605 0.154421
0.189395 0.438361 0.151125
0.241825 0.453132 0.146181
0.295232 0.470008 0.138735
0.351354 0.488991 0.127596
0.411231 0.509911 0.109957
0.475532 0.532494 0.068330
0.544549 0.556054 0.000000
0.618341 0.579919 0.000000
0.699794 0.607904 0.000000
0.750332 0.611414 0.000000
0.784390 0.606989 0.000000
0.817350 0.601953 0.000000
0.849302 0.596490 0.000000
0.880247 0.590631 0.000000
0.910124 0.584497 0.000000
0.938933 0.577935 0.000000
0.966613 0.571283 0.000000
0.993042 0.564324 0.000000
1.000000 0.557031 0.000000
1.000000 0.550042 0.000000
1.000000 0.543481 0.000000
1.000000 0.537194 0.000000
1.000000 0.531304 0.000000
0.000000 0.455207 0.138735
0.000000 0.455085 0.138796
0.000000 0.454719 0.139437
0.000000 0.453925 0.140688
0.000000 0.452827 0.142702
0.000000 0.451270 0.145083
0.000000 0.449348 0.148562
0.000000 0.447089 0.152834
0.093629 0.444465 0.157809
0.159823 0.450507 0.158389
0.214694 0.464515 0.154788
0.266636 0.480629 0.149294
0.320378 0.498726 0.140871
0.376867 0.518669 0.128817
0.437110 0.540368 0.109071
0.501183 0.563012 0.061524
0.568963 0.585931 0.000000
0.641016 0.609094 0.000000
0.721981 0.637537 0.000000
0.775113 0.641840 0.000000
0.808103 0.637263 0.000000
0.840299 0.631952 0.000000
0.871427 0.626398 0.000000
0.901640 0.620447 0.000000
0.930846 0.614069 0.000000
0.958984 0.607477 0.000000
0.986206 0.600549 0.000000
1.000000 0.593561 0.000000
1.000000 0.586419 0.000000
1.000000 0.579370 0.000000
1.000000 0.572625 0.000000
1.000000 0.566217 0.000000
0.000000 0.475196 0.143008
0.000000 0.475227 0.142977
0.000000 0.483223 0.145602
0.000000 0.482551 0.146731
0.000000 0.481422 0.148318
0.000000 0.479957 0.150790
0.000000 0.478035 0.153994
0.000000 0.475685 0.158022
0.000000 0.473182 0.162692
0.123323 0.471077 0.167483
0.186252 0.484901 0.164645
0.241306 0.500633 0.160616
0.294957 0.518181 0.154269
0.350225 0.537591 0.144961
0.407813 0.558190 0.131624
0.468482 0.579492 0.111818
0.532189 0.601129 0.067536
0.599115 0.622889 0.000000
0.669429 0.644617 0.000000
0.747707 0.670649 0.000000
0.805203 0.677028 0.000000
0.836790 0.671504 0.000000
0.867613 0.665492 0.000000
0.897368 0.658991 0.000000
0.926024 0.651972 0.000000
0.953704 0.644739 0.000000
0.980468 0.637293 0.000000
1.000000 0.629786 0.000000
1.000000 0.622370 0.000000
1.000000 0.615106 0.000000
1.000000 0.607843 0.000000
1.000000 0.600855 0.000000
0.000000 0.497688 0.146670
0.000000 0.498421 0.146975
0.000000 0.499001 0.147768
0.000000 0.499123 0.148775
0.000000 0.498726 0.150668
0.000000 0.497627 0.152926
0.000000 0.495857 0.156039
0.000000 0.493721 0.159426
0.000000 0.491279 0.163882
0.035218 0.488533 0.168795
0.149477 0.494209 0.170077
0.209506 0.509056 0.166781
0.263676 0.525750 0.161807
0.317479 0.544213 0.154665
0.372839 0.563897 0.144991
0.430549 0.584344 0.131289
0.490669 0.605463 0.110842
0.553704 0.626886 0.064607
0.619989 0.648554 0.000000
0.688899 0.669795 0.000000
0.763638 0.693141 0.000000
0.827481 0.704402 0.000000
0.858396 0.698817 0.000000
0.888365 0.692592 0.000000
0.917296 0.685847 0.000000
0.945251 0.678676 0.000000
0.972259 0.671351 0.000000
0.998596 0.663844 0.000000
1.000000 0.656458 0.000000
1.000000 0.649104 0.000000
1.000000 0.641871 0.000000
1.000000 0.634577 0.000000
0.000000 0.516503 0.148440
0.000000 0.517296 0.148501
0.000000 0.517998 0.149142
0.000000 0.518273 0.150454
0.000000 0.518029 0.152041
0.000000 0.517052 0.154391
0.000000 0.515496 0.157046
0.000000 0.513512 0.160555
0.000000 0.511223 0.164614
0.000000 0.508568 0.169375
0.095430 0.505699 0.174655
0.173068 0.519890 0.171939
0.231357 0.535882 0.167788
0.286137 0.553643 0.162264
0.340551 0.572381 0.154726
0.396307 0.592035 0.144320
0.454108 0.612360 0.130434
0.513939 0.633204 0.109560
0.576440 0.654322 0.061646
0.641413 0.675196 0.000000
0.708888 0.695430 0.000000
0.779995 0.716030 0.000000
0.845884 0.730129 0.000000
0.879759 0.725399 0.000000
0.908873 0.718898 0.000000
0.936980 0.711971 0.000000
0.964263 0.704677 0.000000
0.990845 0.697322 0.000000
1.000000 0.689937 0.000000
1.000000 0.682612 0.000000
1.000000 0.675319 0.000000
1.000000 0.667994 0.000000
0.000000 0.537072 0.149233
0.000000 0.537896 0.149203
0.000000 0.538476 0.149752
0.000000 0.538811 0.151003
0.000000 0.538567 0.152560
0.000000 0.537682 0.154726
0.000000 0.536278 0.157321
0.000000 0.534478 0.160769
0.000000 0.532372 0.164645
0.000000 0.529900 0.169375
0.000000 0.527123 0.174350
0.121370 0.532372 0.175967
0.193606 0.547814 0.172488
0.252476 0.564599 0.168154
0.308293 0.582635 0.162264
0.363592 0.601617 0.154238
0.419806 0.621515 0.144015
0.478187 0.642206 0.129244
0.538415 0.663264 0.109255
0.600916 0.684321 0.066529
0.665644 0.704982 0.000000
0.732479 0.724910 0.000000
0.801205 0.743618 0.000000
0.868742 0.759731 0.000000
0.905699 0.755886 0.000000
0.934295 0.749294 0.000000
0.961944 0.742245 0.000000
0.988891 0.734951 0.000000
1.000000 0.727657 0.000000
1.000000 0.720241 0.000000
1.000000 0.712795 0.000000
1.000000 0.705226 0.000000
0.000000 0.565209 0.149630
0.000000 0.565515 0.149599
0.000000 0.565637 0.150057
0.000000 0.565301 0.151034
0.000000 0.564599 0.152560
0.000000 0.563439 0.154604
0.000000 0.562005 0.157290
0.000000 0.560235 0.160616
0.000000 0.558160 0.164370
0.000000 0.555962 0.169039
0.000000 0.553491 0.173983
0.000000 0.550683 0.179660
0.141726 0.564630 0.177249
0.214481 0.580682 0.173617
0.274846 0.597894 0.168734
0.332036 0.615991 0.162600
0.388373 0.634943 0.154513
0.445441 0.654597 0.144076
0.503655 0.674556 0.130190
0.563622 0.694514 0.111330
0.625238 0.714107 0.078462
0.688502 0.733120 0.000000
0.753445 0.751217 0.000000
0.819913 0.768124 0.000000
0.886870 0.784207 0.000000
0.926116 0.780697 0.000000
0.954040 0.774014 0.000000
0.981262 0.766995 0.000000
1.000000 0.759854 0.000000
1.000000 0.752529 0.000000
1.000000 0.745083 0.000000
1.000000 0.737484 0.000000
0.000000 0.589319 0.148531
0.000000 0.589624 0.148226
0.000000 0.589715 0.148714
0.000000 0.589502 0.149783
0.000000 0.588891 0.151156
0.000000 0.587945 0.153262
0.000000 0.586603 0.156008
0.000000 0.585016 0.159121
0.000000 0.583215 0.162966
0.000000 0.581201 0.167483
0.000000 0.578973 0.172580
0.000000 0.576501 0.178195
0.000000 0.581018 0.180423
0.162936 0.596338 0.177432
0.235599 0.612818 0.173648
0.297337 0.630182 0.168704
0.355413 0.648554 0.162325
0.412757 0.667536 0.154238
0.470222 0.686763 0.144045
0.528740 0.705898 0.131533
0.588403 0.724910 0.114656
0.649256 0.743435 0.090730
0.711635 0.761227 0.015412
0.775143 0.778042 0.000000
0.836942 0.790524 0.000000
0.903685 0.806882 0.000000
0.945190 0.803708 0.000000
0.972595 0.797116 0.000000
0.999481 0.790188 0.000000
1.000000 0.783108 0.000000
1.000000 0.775906 0.000000
1.000000 0.768460 0.000000
0.000000 0.619379 0.147036
0.000000 0.619898 0.147158
0.000000 0.620020 0.147402
0.000000 0.619562 0.148348
0.000000 0.618555 0.149874
0.000000 0.617182 0.151888
0.000000 0.615442 0.154269
0.000000 0.613397 0.157565
0.000000 0.611200 0.161349
0.000000 0.608789 0.165774
0.000000 0.606195 0.170657
0.000000 0.603479 0.176150
0.000000 0.600488 0.182010
0.018402 0.612848 0.180240
0.184543 0.627955 0.176822
0.256687 0.644007 0.172519
0.319097 0.661036 0.167025
0.377844 0.678737 0.160494
0.435554 0.696925 0.152743
0.493355 0.715450 0.143252
0.551537 0.733852 0.131777
0.610712 0.751858 0.116670
0.670680 0.769039 0.095552
0.731441 0.785214 0.035218
0.792935 0.800229 0.000000
0.855375 0.813962 0.000000
0.921782 0.830259 0.000000
0.964782 0.826749 0.000000
0.991547 0.819913 0.000000
1.000000 0.812924 0.000000
1.000000 0.805753 0.000000
1.000000 0.798428 0.000000
0.000000 0.645686 0.143832
0.000000 0.646265 0.143648
0.000000 0.646509 0.144198
0.000000 0.646265 0.145174
0.000000 0.645655 0.146639
0.000000 0.644739 0.148989
0.000000 0.643610 0.151522
0.000000 0.642206 0.154971
0.000000 0.640711 0.159091
0.000000 0.639063 0.163638
0.000000 0.637079 0.168734
0.000000 0.634882 0.174533
0.000000 0.632380 0.180728
0.000000 0.635615 0.183963
0.091218 0.649866 0.181003
0.206973 0.664973 0.177462
0.280369 0.680812 0.173129
0.343542 0.697322 0.168063
0.403357 0.714321 0.162295
0.461555 0.731655 0.155581
0.519677 0.749050 0.147524
0.577691 0.766171 0.137942
0.636194 0.782650 0.125887
0.695186 0.798367 0.109834
0.754757 0.813016 0.085695
0.814878 0.826566 0.011353
0.875700 0.838926 0.000000
0.942138 0.855406 0.000000
0.986542 0.851438 0.000000
1.000000 0.844541 0.000000
1.000000 0.837400 0.000000
1.000000 0.830106 0.000000
0.000000 0.678523 0.141115
0.000000 0.678859 0.140932
0.000000 0.678859 0.141329
0.000000 0.678584 0.142367
0.000000 0.677974 0.143954
0.000000 0.677058 0.146151
0.000000 0.675929 0.149050
0.000000 0.674586 0.152407
0.000000 0.673152 0.156649
0.000000 0.671565 0.161501
0.000000 0.669734 0.166842
0.000000 0.667811 0.172915
0.000000 0.665614 0.179385
0.000000 0.663050 0.186191
0.000000 0.673915 0.185153
0.126009 0.687861 0.182223
0.231907 0.702449 0.179019
0.305211 0.717678 0.175082
0.369207 0.733425 0.170687
0.429450 0.749569 0.165835
0.488014 0.765805 0.160250
0.545861 0.781857 0.153964
0.603265 0.797269 0.146304
0.660822 0.812070 0.136507
0.718593 0.825895 0.123903
0.776577 0.838773 0.105898
0.835080 0.850675 0.071443
0.894011 0.861448 0.000000
0.959472 0.877104 0.000000
1.000000 0.873320 0.000000
1.000000 0.866453 0.000000
1.000000 0.859342 0.000000
0.000000 0.712581 0.139010
0.000000 0.712825 0.138888
0.000000 0.712978 0.139101
0.000000 0.712856 0.140444
0.000000 0.712612 0.142092
0.000000 0.712337 0.144717
0.000000 0.712306 0.147921
0.000000 0.712337 0.152316
0.000000 0.712428 0.157321
0.000000 0.712520 0.163119
0.000000 0.712551 0.169650
0.000000 0.712306 0.176455
0.000000 0.711727 0.183902
0.000000 0.710628 0.191623
0.000000 0.713710 0.196750
0.000000 0.726619 0.195315
0.166690 0.739834 0.193576
0.265141 0.753536 0.191562
0.338628 0.767697 0.189517
0.403449 0.782193 0.187350
0.464210 0.796719 0.184787
0.522972 0.811063 0.182132
0.580407 0.824826 0.178531
0.637140 0.837980 0.174289
0.693507 0.850309 0.168521
0.749844 0.861814 0.160983
0.806241 0.872435 0.151278
0.862821 0.882170 0.138003
0.919829 0.891020 0.120027
0.981659 0.903258 0.071321
1.000000 0.900725 0.066346
1.000000 0.892851 0.008362
0.000000 0.760525 0.147066
0.000000 0.760525 0.147066
0.000000 0.760342 0.147250
0.000000 0.760006 0.148135
0.000000 0.759518 0.149996
0.000000 0.758816 0.152316
0.000000 0.758175 0.155459
0.000000 0.757473 0.159426
0.000000 0.756771 0.164248
0.000000 0.756008 0.169680
0.000000 0.755154 0.175906
0.000000 0.754238 0.182712
0.000000 0.753140 0.190158
0.000000 0.751766 0.197940
