luts/日系自然[一麻]02.cube
# Created by Adobe Lightroom plugin Export LUT (1.24.0)
# www.johnrellis.com/lightroom/exportlut.htm
# Preset: 日系自然[一麻]02
# Color profile: C:\Program Files (x86)\Common Files\Adobe\Color\Profiles\Recommended\VideoHD.icc
LUT_3D_SIZE 8
DOMAIN_MIN 0.000000 0.000000 0.000000
DOMAIN_MAX 0.903226 0.903226 0.903226
0.000000 0.000000 0.000000
0.130465 0.015534 0.000000
0.293584 0.093172 0.000000
0.465003 0.155398 0.000000
0.660456 0.226261 0.000000
0.853788 0.294011 0.000000
0.999390 0.344701 0.000000
1.000000 0.383215 0.000000
0.000000 0.131746 0.038087
0.129030 0.134676 0.018708
0.293706 0.167208 0.000000
0.464759 0.206729 0.000000
0.660395 0.263920 0.000000
0.852689 0.322820 0.000000
0.998108 0.366400 0.000000
1.000000 0.400275 0.000000
0.000000 0.281498 0.104097
0.000000 0.279973 0.107546
0.277317 0.290074 0.060761
0.464302 0.326085 0.000000
0.659174 0.375463 0.000000
0.847410 0.416999 0.000000
0.992676 0.443977 0.000000
1.000000 0.463661 0.000000
0.000000 0.435157 0.175601
0.000000 0.434272 0.177432
0.199161 0.436194 0.177127
0.436439 0.457008 0.134463
0.656580 0.504082 0.000000
0.835966 0.545708 0.000000
0.981262 0.560266 0.000000
1.000000 0.564508 0.000000
0.000000 0.602136 0.235752
0.000000 0.601495 0.236942
0.000000 0.599084 0.242069
0.365881 0.611749 0.228367
0.607935 0.636530 0.182071
0.821897 0.665766 0.000000
0.965484 0.680934 0.000000
1.000000 0.685176 0.000000
0.000000 0.755489 0.297612
0.000000 0.755123 0.298436
0.000000 0.753536 0.302281
0.237675 0.752621 0.307225
0.523827 0.768154 0.288029
0.750362 0.784817 0.252873
0.946838 0.795590 0.184848
1.000000 0.792111 0.035523
0.000000 0.887327 0.384894
0.000000 0.887114 0.385657
0.000000 0.886046 0.389105
0.123903 0.884092 0.396155
0.447089 0.887236 0.395239
0.666682 0.895598 0.379553
0.864622 0.902647 0.352300
1.000000 0.898589 0.302464
0.000000 0.995331 0.517082
0.000000 0.995178 0.517906
0.000000 0.994507 0.521477
0.305425 0.993225 0.528893
0.463386 0.991333 0.540551
0.633997 0.992798 0.530877
0.794797 0.992981 0.512932
0.952117 0.990387 0.482094
0.000000 0.007111 0.146914
0.130739 0.000000 0.144320
0.299535 0.000000 0.113313
0.465461 0.129610 0.107088
0.660853 0.204440 0.000000
0.854856 0.276371 0.000000
1.000000 0.331731 0.000000
1.000000 0.373297 0.000000
0.000000 0.141909 0.155093
0.129824 0.134920 0.152407
0.293675 0.152316 0.137758
0.464881 0.190005 0.108186
0.660670 0.246983 0.000000
0.853605 0.307836 0.000000
0.999359 0.355108 0.000000
1.000000 0.391363 0.000000
0.000000 0.284428 0.183749
0.014038 0.283207 0.182284
0.277256 0.289769 0.172061
0.462684 0.322728 0.119905
0.659113 0.367132 0.000000
0.847929 0.408606 0.000000
0.993500 0.437049 0.000000
1.000000 0.457679 0.000000
0.000000 0.437201 0.223301
0.000000 0.436347 0.224704
0.200351 0.435767 0.227207
0.435828 0.456397 0.201389
0.655604 0.502617 0.115816
0.835752 0.543450 0.000000
0.981567 0.556725 0.000000
1.000000 0.561456 0.000000
0.000000 0.603540 0.267674
0.000000 0.602991 0.268650
0.000000 0.600488 0.272862
0.364904 0.611200 0.264256
0.607752 0.636072 0.230655
0.821195 0.665187 0.153201
0.965240 0.680262 0.000000
1.000000 0.683619 0.000000
0.000000 0.756191 0.320897
0.000000 0.755795 0.321782
0.000000 0.754208 0.325231
0.238712 0.752041 0.331090
0.523949 0.767788 0.315251
0.750484 0.784634 0.286809
0.946166 0.795590 0.235386
1.000000 0.792172 0.169192
0.000000 0.887449 0.401831
0.000000 0.887205 0.402533
0.000000 0.886168 0.405768
0.153902 0.884154 0.412421
0.450019 0.886839 0.412970
0.667781 0.895354 0.399329
0.864988 0.902556 0.375494
1.000000 0.898711 0.331945
0.000000 0.995117 0.528099
0.000000 0.994965 0.528923
0.000000 0.994293 0.532403
0.319188 0.993042 0.539513
0.470863 0.991150 0.550652
0.637140 0.992493 0.542687
0.796353 0.992737 0.526024
0.952544 0.990265 0.497047
0.000000 0.026490 0.318212
0.000000 0.006775 0.317174
0.276799 0.000000 0.312963
0.442908 0.000000 0.307805
0.662226 0.000000 0.259861
0.857328 0.197086 0.277226
1.000000 0.287175 0.252781
1.000000 0.343786 0.208072
0.000000 0.166598 0.321660
0.000000 0.134340 0.322087
0.278080 0.126101 0.317357
0.448493 0.105287 0.307561
0.663020 0.099275 0.275090
0.854765 0.249454 0.281376
1.000000 0.316777 0.253574
1.000000 0.364996 0.210330
0.000000 0.300328 0.331823
0.000000 0.297642 0.330694
0.272648 0.284672 0.325261
0.455879 0.299840 0.314061
0.657465 0.334203 0.301061
0.848356 0.376593 0.281956
0.994659 0.412970 0.257694
1.000000 0.440070 0.218784
0.000000 0.442969 0.347631
0.000000 0.442176 0.348943
0.224613 0.439673 0.343359
0.433722 0.453040 0.338323
0.651423 0.495277 0.307378
0.834867 0.527459 0.281987
0.981903 0.543297 0.265324
1.000000 0.551476 0.235538
0.000000 0.608423 0.371710
0.000000 0.608392 0.364599
0.000000 0.605768 0.367193
0.360693 0.608148 0.368719
0.606989 0.633875 0.354925
0.818265 0.662623 0.321843
0.963470 0.678035 0.290806
1.000000 0.678096 0.259556
0.000000 0.758785 0.400946
0.000000 0.758389 0.401465
0.000000 0.756680 0.404089
0.271214 0.753445 0.409094
0.525231 0.765896 0.404608
0.751247 0.783719 0.391302
0.943053 0.795621 0.365728
1.000000 0.792905 0.330968
0.000000 0.887816 0.465126
0.000000 0.887572 0.465797
0.000000 0.886473 0.468391
0.239475 0.884428 0.473915
0.463325 0.884855 0.478828
0.673487 0.894163 0.471839
0.866758 0.902190 0.457984
1.000000 0.899413 0.430365
0.000000 0.994293 0.570581
0.000000 0.994141 0.571252
0.224216 0.993500 0.574304
0.369512 0.992218 0.580377
0.500664 0.990326 0.590021
0.650050 0.991150 0.587610
0.802884 0.991821 0.575189
0.954284 0.989715 0.553033
0.000000 0.058839 0.479286
0.000000 0.037201 0.478737
0.232944 0.000000 0.476417
0.432502 0.000000 0.471687
0.602167 0.000000 0.471748
0.820645 0.000000 0.462898
1.000000 0.000000 0.405280
1.000000 0.317662 0.448402
0.000000 0.165652 0.481697
0.000000 0.140719 0.481727
0.225376 0.125582 0.479194
0.433692 0.097047 0.473945
0.603632 0.000000 0.472358
0.825040 0.000000 0.461036
1.000000 0.000000 0.404974
1.000000 0.347845 0.452796
0.000000 0.329412 0.485786
0.000000 0.322484 0.485756
0.175845 0.277043 0.486305
0.435187 0.271946 0.480446
0.616175 0.262577 0.475349
0.841276 0.248356 0.452613
0.991150 0.384405 0.474647
1.000000 0.431647 0.458137
0.000000 0.466011 0.495491
0.000000 0.464454 0.494942
0.179721 0.457527 0.492256
0.427741 0.440558 0.485512
0.640528 0.466285 0.484291
0.828061 0.499031 0.483009
0.977020 0.528191 0.478218
1.000000 0.546715 0.462867
0.000000 0.616052 0.498665
0.000000 0.615564 0.499001
0.161837 0.613062 0.501579
0.386206 0.608515 0.499092
0.605127 0.626612 0.500938
0.809201 0.656703 0.488899
0.957946 0.673396 0.478584
1.000000 0.674891 0.470497
0.000000 0.760830 0.531670
0.000000 0.760372 0.532921
0.140261 0.759182 0.531579
0.344732 0.756863 0.524437
0.533989 0.760067 0.528771
0.753475 0.780758 0.529808
0.935912 0.796506 0.519524
1.000000 0.797147 0.499458
0.000000 0.887297 0.571771
0.000000 0.887480 0.567926
0.112795 0.886809 0.566186
0.346441 0.884672 0.569970
0.499794 0.881682 0.576043
0.686397 0.891142 0.577813
0.870756 0.901183 0.575586
1.000000 0.901457 0.562768
0.258579 0.993011 0.639063
0.278080 0.992889 0.639582
0.345190 0.992218 0.641810
0.441596 0.990967 0.646357
0.548302 0.989075 0.653437
0.671473 0.988708 0.657404
0.814664 0.990051 0.651026
0.957763 0.988739 0.638087
0.000000 0.096345 0.641230
0.000000 0.087526 0.640864
0.005890 0.000000 0.639124
0.417731 0.000000 0.635706
0.606256 0.000000 0.630091
0.774166 0.000000 0.625483
0.942260 0.000000 0.610101
1.000000 0.000000 0.575830
0.000000 0.165347 0.642786
0.000000 0.152895 0.642542
0.000000 0.134585 0.640803
0.414710 0.081300 0.637140
0.607172 0.000000 0.631342
0.774838 0.000000 0.625574
0.944549 0.000000 0.610071
1.000000 0.000000 0.576837
0.000000 0.350988 0.644160
0.000000 0.337072 0.644587
0.000000 0.277317 0.645869
0.398962 0.265263 0.641779
0.609033 0.249210 0.635523
0.776059 0.232395 0.625666
0.952758 0.238437 0.611078
1.000000 0.303197 0.585107
0.000000 0.497749 0.647852
0.000000 0.495369 0.647608
0.000000 0.484565 0.646693
0.353277 0.430854 0.647059
0.608240 0.427283 0.640314
0.775662 0.427955 0.627375
0.960327 0.466957 0.624231
1.000000 0.553918 0.642206
0.000000 0.641382 0.653712
0.000000 0.640406 0.653376
0.000000 0.635920 0.651850
0.371405 0.625818 0.648371
0.597894 0.607294 0.641596
0.790585 0.641688 0.653346
0.943114 0.673121 0.662318
1.000000 0.691035 0.659449
0.000000 0.767941 0.638087
0.000000 0.767636 0.638880
0.127687 0.765621 0.642115
0.412879 0.760555 0.649378
0.572961 0.755795 0.654139
0.755764 0.773678 0.663783
0.925017 0.798581 0.665888
1.000000 0.806058 0.657832
0.000000 0.890135 0.665217
0.049439 0.889708 0.666407
0.295659 0.888029 0.671809
0.473243 0.884092 0.687037
0.564141 0.882506 0.679072
0.702174 0.885374 0.685328
0.876799 0.899504 0.692836
1.000000 0.904753 0.688869
0.387427 0.991821 0.721889
0.409796 0.991302 0.724758
0.481544 0.989471 0.734554
0.510246 0.990204 0.722774
0.599908 0.988190 0.727504
0.695827 0.985687 0.734371
0.828336 0.987823 0.734432
0.962829 0.987549 0.730037
0.000000 0.124208 0.782559
0.000000 0.118471 0.782315
0.000000 0.088075 0.781216
0.350378 0.000000 0.779049
0.587976 0.000000 0.775204
0.767605 0.000000 0.770047
0.923033 0.000000 0.758022
1.000000 0.000000 0.733181
0.000000 0.173190 0.783322
0.000000 0.169833 0.783047
0.000000 0.154025 0.781949
0.344152 0.112764 0.779690
0.586328 0.000000 0.775784
0.767880 0.000000 0.770626
0.923003 0.000000 0.758022
1.000000 0.000000 0.733089
0.000000 0.346715 0.783108
0.000000 0.333074 0.783474
0.000000 0.282933 0.784176
0.314549 0.269841 0.781735
0.578637 0.249332 0.777798
0.768185 0.224979 0.772488
0.922271 0.209995 0.757839
1.000000 0.220951 0.733791
0.000000 0.515099 0.781857
0.000000 0.511315 0.781918
0.000000 0.494545 0.781979
0.244938 0.427924 0.784237
0.562676 0.422492 0.780087
0.766323 0.417273 0.774502
0.916258 0.419471 0.757778
1.000000 0.450172 0.741665
0.000000 0.653956 0.782986
0.000000 0.652827 0.782864
0.000000 0.648005 0.782254
0.303319 0.638636 0.780819
0.542870 0.597192 0.780850
0.759274 0.597498 0.774868
0.902251 0.599237 0.760281
1.000000 0.651057 0.765988
0.000000 0.790036 0.785214
0.000000 0.789334 0.785031
0.000000 0.786435 0.784329
0.347204 0.780423 0.782803
0.568139 0.770291 0.780026
0.749111 0.754513 0.774716
0.912688 0.793606 0.795651
1.000000 0.816403 0.803830
0.000000 0.894804 0.761532
0.000000 0.894530 0.762142
0.245060 0.893462 0.764767
0.435889 0.891264 0.770352
0.603784 0.886107 0.780087
0.733272 0.880888 0.786954
0.882780 0.895933 0.800381
1.000000 0.910033 0.805875
0.314549 0.996735 0.782956
0.337316 0.996429 0.783963
0.416785 0.994995 0.788357
0.530053 0.992126 0.797177
0.665705 0.987030 0.816220
0.742184 0.985077 0.815213
0.844266 0.984710 0.820737
0.969329 0.986297 0.824308
0.000000 0.154360 0.903868
0.000000 0.150942 0.904112
0.000000 0.133394 0.903258
0.216007 0.079103 0.901915
0.524804 0.000000 0.899565
0.738003 0.000000 0.896086
0.907012 0.000000 0.891661
1.000000 0.000000 0.874449
0.000000 0.192630 0.902159
0.000000 0.190311 0.902525
0.000000 0.178195 0.901732
0.201602 0.149905 0.900145
0.520317 0.064790 0.897612
0.734463 0.000000 0.893736
0.903624 0.000000 0.888884
1.000000 0.000000 0.871366
0.000000 0.340734 0.902525
0.000000 0.327855 0.902831
0.000000 0.291936 0.902770
0.130251 0.280156 0.901061
0.508934 0.261143 0.898100
0.729946 0.234470 0.894347
0.903929 0.208286 0.890440
1.000000 0.205142 0.872801
0.000000 0.525414 0.899870
0.000000 0.518364 0.900023
0.000000 0.486976 0.900816
0.000000 0.429084 0.902586
0.491524 0.422766 0.899657
0.723262 0.417151 0.896056
0.902251 0.413794 0.891936
1.000000 0.419440 0.872801
0.000000 0.666346 0.896361
0.000000 0.663966 0.895933
0.000000 0.655451 0.895476
0.283085 0.640650 0.895262
0.475959 0.586999 0.897337
0.712032 0.586358 0.893278
0.892943 0.586572 0.888670
1.000000 0.592676 0.871885
0.000000 0.789548 0.895018
0.000000 0.789120 0.894987
0.000000 0.786893 0.894713
0.282017 0.782498 0.894102
0.525811 0.775753 0.892699
0.705226 0.744808 0.893400
0.885435 0.746456 0.888853
1.000000 0.747921 0.875181
0.000000 0.913603 0.896666
0.000000 0.913390 0.896788
0.000000 0.911406 0.896422
0.374914 0.907561 0.895842
0.565820 0.901030 0.894499
0.730190 0.891814 0.892393
0.876921 0.879393 0.888884
0.998291 0.914672 0.911498
0.277562 0.998505 0.869749
0.303563 0.998291 0.870085
0.391058 0.997620 0.871946
0.508812 0.995605 0.876341
0.636194 0.992340 0.883116
0.766445 0.987060 0.893919
0.871458 0.982025 0.903349
0.976532 0.984924 0.912474
0.000000 0.184848 1.000000
0.000000 0.182345 1.000000
0.000000 0.171298 1.000000
0.000000 0.145388 1.000000
0.433906 0.076417 0.999695
0.666041 0.000000 0.997620
0.863157 0.000000 0.995087
1.000000 0.000000 0.991760
0.000000 0.214817 1.000000
0.000000 0.213077 1.000000
0.000000 0.204318 1.000000
0.000000 0.185031 1.000000
0.429969 0.147890 0.998901
0.663905 0.015808 0.996796
0.861295 0.000000 0.994049
1.000000 0.000000 0.990509
0.000000 0.333715 1.000000
0.000000 0.321752 1.000000
0.000000 0.301061 1.000000
0.000000 0.292607 1.000000
0.416846 0.277256 0.998474
0.657801 0.254978 0.996002
0.857511 0.226444 0.993194
1.000000 0.200076 0.989654
0.000000 0.507378 0.996155
0.000000 0.501091 0.996521
0.000000 0.472511 0.997528
0.000000 0.427039 0.998993
0.398016 0.421576 0.997436
0.649714 0.414618 0.995056
0.851896 0.408850 0.992065
1.000000 0.404578 0.988464
0.000000 0.660151 0.991150
0.000000 0.658900 0.991272
0.000000 0.652766 0.991058
0.175448 0.630182 0.991943
0.391241 0.575402 0.994415
0.643824 0.573602 0.991852
0.843900 0.573816 0.988800
1.000000 0.574548 0.985534
0.000000 0.787564 0.987457
0.000000 0.786831 0.987243
0.000000 0.784573 0.986633
0.205173 0.778988 0.986114
0.504509 0.767788 0.985870
0.649836 0.728603 0.988678
0.840421 0.732357 0.986389
0.996094 0.735195 0.983459
0.000000 0.902190 0.986053
0.000000 0.901854 0.985962
0.000000 0.900572 0.985565
0.334081 0.898436 0.985046
0.533471 0.895384 0.984283
0.700191 0.891844 0.983276
0.842374 0.870695 0.984375
0.985840 0.871733 0.980896
0.133761 1.000000 0.985107
0.189548 1.000000 0.985016
0.319005 1.000000 0.984863
0.463111 1.000000 0.984710
0.605615 1.000000 0.984314
0.742733 0.995087 0.983612
0.870848 0.987579 0.982483
0.978332 0.978790 0.980438
