luts/日系自然[一麻]02.cube
# Created by Adobe Lightroom plugin Export LUT (1.24.0)
# www.johnrellis.com/lightroom/exportlut.htm
# Preset: 日系自然[一麻]02
# Color profile: C:\Program Files (x86)\Common Files\Adobe\Color\Profiles\Recommended\VideoHD.icc
LUT_3D_SIZE 5
DOMAIN_MIN 0.000000 0.000000 0.000000
DOMAIN_MAX 0.903226 0.903226 0.903226
0.000000 0.000000 0.000000
0.251865 0.073976 0.000000
0.559228 0.190738 0.000000
0.894255 0.308354 0.000000
1.000000 0.383215 0.000000
0.000000 0.244419 0.088258
0.240299 0.251133 0.036164
0.558373 0.318364 0.000000
0.888975 0.397375 0.000000
1.000000 0.443519 0.000000
0.000000 0.517327 0.207828
0.000000 0.514855 0.213321
0.524010 0.548669 0.157900
0.868162 0.610712 0.000000
1.000000 0.623377 0.000000
0.000000 0.790646 0.316350
0.000000 0.789364 0.319829
0.373754 0.792172 0.322087
0.781430 0.817075 0.275303
1.000000 0.818997 0.156558
0.000000 0.995331 0.517082
0.000000 0.994720 0.520226
0.388617 0.992370 0.534173
0.674800 0.993042 0.527245
0.952117 0.990387 0.482094
0.000000 0.019257 0.276921
0.239719 0.000000 0.272099
0.562005 0.000000 0.221530
0.896727 0.248539 0.212619
1.000000 0.351812 0.099886
0.000000 0.261234 0.289952
0.236881 0.247745 0.284215
0.555871 0.285008 0.260105
0.890410 0.364111 0.215335
1.000000 0.422400 0.118166
0.000000 0.523064 0.327794
0.000000 0.520928 0.323980
0.522362 0.546319 0.310155
0.866575 0.605890 0.237369
1.000000 0.615991 0.175143
0.000000 0.792477 0.390417
0.000000 0.791104 0.392920
0.378210 0.790219 0.399481
0.782406 0.816495 0.375616
1.000000 0.819638 0.315343
0.000000 0.994598 0.557000
0.130831 0.993957 0.559838
0.424262 0.991638 0.571923
0.684901 0.991913 0.570611
0.953674 0.989899 0.535424
0.000000 0.081422 0.560510
0.000000 0.001984 0.558770
0.517784 0.000000 0.550958
0.831815 0.000000 0.545739
1.000000 0.000000 0.473762
0.000000 0.303593 0.564446
0.000000 0.241428 0.565667
0.520806 0.219394 0.556878
0.845518 0.179019 0.545190
1.000000 0.335943 0.515373
0.000000 0.555444 0.577356
0.000000 0.550744 0.575586
0.513420 0.524865 0.565759
0.851041 0.580133 0.575555
1.000000 0.618799 0.568017
0.000000 0.796933 0.590753
0.124208 0.795071 0.596216
0.464942 0.790127 0.597131
0.787594 0.811856 0.607477
1.000000 0.827939 0.591699
0.353765 0.991730 0.684138
0.376349 0.991974 0.679011
0.523949 0.989593 0.686091
0.717128 0.987823 0.694881
0.960113 0.988159 0.683345
0.000000 0.131655 0.814755
0.000000 0.109957 0.813901
0.461158 0.000000 0.810025
0.804746 0.000000 0.802213
1.000000 0.000000 0.769131
0.000000 0.299657 0.815274
0.000000 0.254124 0.815702
0.446906 0.222812 0.811643
0.804929 0.158816 0.803677
1.000000 0.136965 0.768582
0.000000 0.591669 0.811551
0.000000 0.580133 0.810971
0.390600 0.508293 0.812650
0.796109 0.504845 0.802548
1.000000 0.528038 0.776333
0.000000 0.823423 0.815122
0.000000 0.821134 0.814633
0.463966 0.810941 0.812222
0.783413 0.787991 0.805173
1.000000 0.843717 0.834134
0.299351 0.997894 0.802731
0.381933 0.996612 0.806088
0.586877 0.991272 0.820768
0.775814 0.984344 0.837491
0.971130 0.985992 0.847288
0.000000 0.184848 1.000000
0.000000 0.174960 1.000000
0.266331 0.121950 1.000000
0.717189 0.000000 0.997070
1.000000 0.000000 0.991760
0.000000 0.291783 1.000000
0.000000 0.275181 1.000000
0.237919 0.253849 0.999451
0.711818 0.205753 0.995819
1.000000 0.129580 0.990448
0.000000 0.597375 0.992950
0.000000 0.577813 0.993622
0.145632 0.498665 0.996612
0.698329 0.492714 0.992126
1.000000 0.489784 0.986969
0.000000 0.817014 0.987640
0.000000 0.815305 0.987121
0.383276 0.810239 0.985779
0.702327 0.765591 0.987304
0.993408 0.771359 0.982696
0.133761 1.000000 0.985107
0.284215 1.000000 0.984894
0.534966 1.000000 0.984558
0.775937 0.993317 0.983368
0.978332 0.978790 0.980438
