luts/日系自然[一麻]06.cube
# Created by Adobe Lightroom plugin Export LUT (1.24.0)
# www.johnrellis.com/lightroom/exportlut.htm
# Preset: 日系自然[一麻]06
# Color profile: C:\Program Files (x86)\Common Files\Adobe\Color\Profiles\Recommended\VideoHD.icc
LUT_3D_SIZE 8
DOMAIN_MIN 0.000000 0.000000 0.000000
DOMAIN_MAX 0.903226 0.903226 0.903226
0.000000 0.000000 0.000000
0.123751 0.016480 0.000000
0.280156 0.089296 0.000000
0.439551 0.129824 0.000000
0.615229 0.165927 0.000000
0.787686 0.190494 0.000000
0.940703 0.205570 0.000000
1.000000 0.211124 0.000000
0.000000 0.133425 0.079866
0.103548 0.160281 0.000000
0.278172 0.173770 0.000000
0.437446 0.193698 0.000000
0.612390 0.217197 0.000000
0.784115 0.234104 0.000000
0.932128 0.242313 0.000000
1.000000 0.243412 0.000000
0.000000 0.295140 0.164492
0.019013 0.297002 0.172091
0.246342 0.349401 0.000000
0.447181 0.352331 0.000000
0.640345 0.359106 0.000000
0.812772 0.362310 0.000000
0.953491 0.356115 0.000000
1.000000 0.343908 0.000000
0.000000 0.465431 0.277501
0.082765 0.466957 0.282200
0.222019 0.491585 0.255314
0.440131 0.552758 0.000000
0.660365 0.550378 0.000000
0.847684 0.530205 0.000000
0.973358 0.500969 0.000000
1.000000 0.473091 0.000000
0.178347 0.645106 0.396460
0.217594 0.646448 0.400305
0.328038 0.654597 0.418647
0.425330 0.690608 0.327214
0.634546 0.725093 0.000000
0.810117 0.690394 0.000000
0.962005 0.654078 0.000000
1.000000 0.609949 0.000000
0.370977 0.780423 0.526787
0.392004 0.783902 0.533471
0.452735 0.787747 0.547601
0.519036 0.800992 0.536004
0.602533 0.825467 0.414618
0.784878 0.844480 0.025238
0.938293 0.802853 0.000000
1.000000 0.755032 0.000000
0.545586 0.880186 0.656123
0.554833 0.880949 0.658930
0.587121 0.882170 0.667323
0.644678 0.885130 0.684810
0.670985 0.899962 0.630762
0.744686 0.917144 0.510338
0.899168 0.927886 0.221500
1.000000 0.883787 0.000000
0.679377 0.949493 0.756771
0.683833 0.949523 0.757900
0.702754 0.949798 0.763088
0.738033 0.950500 0.773617
0.764462 0.952544 0.764096
0.786099 0.966796 0.701686
0.850340 0.979278 0.581048
0.982147 0.984405 0.251926
0.000000 0.044984 0.140627
0.109224 0.039918 0.141421
0.266606 0.016510 0.139925
0.415991 0.106813 0.119905
0.589960 0.145449 0.097566
0.766323 0.174411 0.008881
0.917784 0.195163 0.000000
1.000000 0.204501 0.000000
0.000000 0.142885 0.137606
0.082460 0.155093 0.143252
0.260746 0.162722 0.133425
0.419928 0.179812 0.116609
0.594385 0.202853 0.090761
0.770169 0.222293 0.000000
0.915831 0.233707 0.000000
1.000000 0.237217 0.000000
0.000000 0.296971 0.201633
0.024598 0.299413 0.208469
0.234501 0.339513 0.131930
0.435187 0.340215 0.094270
0.620783 0.347509 0.024720
0.792203 0.352148 0.000000
0.930968 0.347875 0.000000
1.000000 0.338872 0.000000
0.000000 0.457954 0.293248
0.075898 0.459998 0.298009
0.223270 0.480446 0.291875
0.418799 0.534020 0.096223
0.634089 0.530755 0.000000
0.822995 0.515923 0.000000
0.950591 0.491920 0.000000
1.000000 0.468208 0.000000
0.172244 0.639338 0.406073
0.211429 0.640345 0.409369
0.321599 0.647395 0.426307
0.416571 0.679133 0.352697
0.618860 0.712673 0.011688
0.796597 0.680751 0.000000
0.951598 0.648005 0.000000
1.000000 0.607385 0.000000
0.365393 0.774777 0.530083
0.382300 0.775967 0.533593
0.444251 0.780301 0.548089
0.517388 0.793545 0.546288
0.597375 0.819242 0.433570
0.778561 0.840024 0.174014
0.932586 0.799283 0.000000
1.000000 0.752743 0.000000
0.540368 0.876432 0.656275
0.547753 0.876310 0.657588
0.580194 0.877592 0.665919
0.639246 0.881163 0.684047
0.670375 0.896513 0.638575
0.742000 0.914000 0.523674
0.894072 0.924498 0.260868
1.000000 0.880674 0.000000
0.676326 0.947753 0.756802
0.681697 0.948119 0.758633
0.700587 0.948394 0.763729
0.736172 0.949248 0.774380
0.771206 0.953399 0.773678
0.789822 0.966796 0.711879
0.851164 0.978729 0.594720
0.981292 0.983978 0.292271
0.000000 0.108888 0.301091
0.031373 0.104738 0.300359
0.235477 0.103761 0.294804
0.359380 0.168521 0.293889
0.565698 0.056825 0.286290
0.742123 0.000000 0.251011
0.897307 0.172213 0.254276
1.000000 0.197940 0.241428
0.000000 0.188571 0.300481
0.000000 0.181674 0.299809
0.228183 0.176242 0.294560
0.367224 0.203555 0.295750
0.562860 0.154452 0.275944
0.736080 0.189609 0.260807
0.895933 0.216556 0.252689
1.000000 0.232578 0.240024
0.000000 0.296849 0.286778
0.000000 0.300877 0.288396
0.192172 0.314763 0.292912
0.389899 0.315740 0.282658
0.579339 0.325078 0.275303
0.761959 0.334752 0.267491
0.910796 0.339818 0.258122
1.000000 0.338323 0.244327
0.000000 0.450965 0.350286
0.000000 0.455268 0.354376
0.228336 0.470466 0.369085
0.392462 0.515953 0.301976
0.620752 0.515770 0.276371
0.799588 0.506645 0.282994
0.934661 0.490852 0.272251
1.000000 0.472389 0.256687
0.140291 0.630579 0.444007
0.190494 0.632593 0.448096
0.311925 0.642145 0.466346
0.422187 0.668696 0.454017
0.605158 0.704189 0.310307
0.789578 0.674098 0.246220
0.944823 0.646754 0.282841
1.000000 0.613214 0.283238
0.368902 0.770321 0.560418
0.386084 0.771847 0.564233
0.447150 0.776699 0.578363
0.541894 0.786191 0.605921
0.600366 0.812192 0.519951
0.768399 0.833982 0.350622
0.925536 0.796139 0.249424
1.000000 0.754574 0.276738
0.551141 0.876890 0.679835
0.558282 0.876921 0.681300
0.589410 0.878111 0.688960
0.646540 0.881773 0.705898
0.688350 0.893980 0.686458
0.749050 0.912169 0.593683
0.892393 0.924224 0.403815
1.000000 0.881834 0.239475
0.683680 0.948547 0.771695
0.687678 0.948455 0.772457
0.706386 0.948791 0.777554
0.742733 0.950225 0.788846
0.787228 0.952026 0.800595
0.802243 0.965820 0.747555
0.857481 0.978027 0.649500
0.980224 0.983764 0.421332
0.000000 0.159701 0.457496
0.000000 0.160555 0.457038
0.213504 0.159518 0.449409
0.362707 0.159884 0.437507
0.491707 0.215396 0.433021
0.681117 0.198062 0.447486
0.867552 0.000000 0.422004
1.000000 0.000000 0.379644
0.000000 0.224552 0.459083
0.000000 0.223087 0.457465
0.206699 0.216037 0.450385
0.360784 0.207675 0.438758
0.490944 0.249760 0.434119
0.687800 0.223697 0.446387
0.866880 0.141543 0.417975
1.000000 0.041840 0.375006
0.000000 0.359716 0.455970
0.000000 0.357214 0.454536
0.170474 0.338933 0.448798
0.347143 0.321813 0.436622
0.487526 0.352300 0.439094
0.712734 0.312505 0.436927
0.876066 0.290562 0.403784
1.000000 0.338384 0.404852
0.000000 0.443549 0.432013
0.000000 0.445197 0.432471
0.161563 0.452491 0.434668
0.322972 0.464759 0.437354
0.542351 0.469184 0.434058
0.726986 0.475776 0.432776
0.884764 0.480262 0.430976
1.000000 0.477577 0.423835
0.000000 0.600580 0.496712
0.000000 0.602838 0.498390
0.258000 0.614160 0.508904
0.416449 0.640070 0.540124
0.565942 0.677668 0.476326
0.764004 0.661097 0.458656
0.918303 0.650294 0.479347
1.000000 0.626764 0.462837
0.374304 0.757076 0.607050
0.386511 0.761166 0.609491
0.432715 0.768032 0.615625
0.535485 0.780697 0.644282
0.614923 0.802548 0.634485
0.751644 0.824521 0.521141
0.911589 0.793271 0.463264
1.000000 0.764370 0.488838
0.549828 0.873808 0.708095
0.558923 0.874662 0.710567
0.593561 0.877501 0.719997
0.653590 0.882933 0.738155
0.723445 0.891356 0.758541
0.762325 0.909728 0.690181
0.886931 0.922148 0.562463
1.000000 0.883299 0.461036
0.692836 0.950774 0.795895
0.697292 0.950866 0.797055
0.716121 0.951293 0.801999
0.751308 0.952422 0.812039
0.798459 0.953918 0.826627
0.822995 0.963867 0.801846
0.867552 0.976562 0.727321
0.977996 0.983246 0.572564
0.000000 0.228885 0.618982
0.000000 0.229404 0.618311
0.178286 0.227848 0.611261
0.359625 0.215030 0.597894
0.503624 0.206363 0.582300
0.638300 0.250919 0.575555
0.767300 0.314488 0.577234
0.964080 0.220737 0.570794
0.000000 0.275944 0.619715
0.000000 0.275212 0.619379
0.173556 0.269200 0.612573
0.356970 0.252079 0.598230
0.503410 0.239841 0.583337
0.637995 0.277989 0.575891
0.771664 0.328344 0.578271
0.966552 0.242679 0.569055
0.000000 0.394720 0.619196
0.000000 0.384375 0.618463
0.135378 0.374212 0.611658
0.344427 0.355596 0.599512
0.497383 0.336858 0.582635
0.630518 0.364385 0.572961
0.786801 0.379217 0.578759
0.974548 0.312566 0.559289
0.000000 0.517205 0.613916
0.000000 0.518547 0.614435
0.138705 0.521813 0.615198
0.326970 0.493568 0.602167
0.487953 0.466194 0.582574
0.622553 0.489418 0.576562
0.821988 0.467567 0.575402
0.976928 0.447120 0.548974
0.000000 0.585626 0.576318
0.000000 0.586847 0.576806
0.163882 0.590814 0.577691
0.334417 0.597742 0.578424
0.468574 0.604456 0.576532
0.671473 0.612543 0.580774
0.842588 0.620264 0.585870
0.985748 0.621149 0.585229
0.159213 0.711391 0.620111
0.201450 0.713100 0.621759
0.311131 0.719844 0.627985
0.447364 0.735164 0.645350
0.585962 0.763027 0.682795
0.707332 0.795041 0.637690
0.879667 0.784726 0.629786
1.000000 0.776577 0.652216
0.504356 0.854948 0.727779
0.514061 0.855558 0.729152
0.555108 0.859403 0.736965
0.614313 0.870146 0.749447
0.708217 0.882719 0.780667
0.769497 0.899901 0.772976
0.872862 0.914366 0.684199
1.000000 0.882322 0.626032
0.678767 0.947631 0.814206
0.681422 0.947967 0.814206
0.698665 0.949218 0.817319
0.742397 0.951995 0.830350
0.796445 0.954772 0.846921
0.847929 0.959594 0.859281
0.877043 0.973297 0.804074
0.972992 0.980987 0.698085
0.000000 0.302647 0.757931
0.000000 0.302647 0.757321
0.134218 0.299748 0.752193
0.346685 0.289677 0.743038
0.501579 0.266178 0.731289
0.642725 0.253666 0.717098
0.775967 0.290806 0.706966
0.896727 0.369482 0.703639
0.000000 0.333227 0.754299
0.000000 0.332189 0.753170
0.132021 0.327367 0.748684
0.343694 0.315679 0.740749
0.497383 0.290532 0.727749
0.638636 0.276677 0.713710
0.771756 0.310735 0.704067
0.893034 0.383642 0.701625
0.000000 0.428412 0.757229
0.000000 0.426886 0.756252
0.131746 0.420478 0.752712
0.339971 0.404517 0.742947
0.493111 0.377874 0.728573
0.636133 0.359747 0.713497
0.769863 0.387793 0.704158
0.889586 0.447272 0.703548
0.000000 0.568017 0.759457
0.000000 0.566522 0.758083
0.230167 0.560693 0.753719
0.350958 0.535668 0.748104
0.492897 0.507347 0.734005
0.635401 0.480964 0.716457
0.767086 0.505821 0.707546
0.894499 0.539849 0.711360
0.033021 0.656001 0.741329
0.141756 0.657099 0.741390
0.271550 0.662104 0.742489
0.403052 0.671534 0.745113
0.496437 0.640528 0.729824
0.622339 0.604608 0.708492
0.751431 0.623316 0.704372
0.932341 0.608942 0.705409
0.163973 0.711086 0.705104
0.198581 0.712612 0.706111
0.285222 0.714748 0.706325
0.391485 0.718685 0.706691
0.502403 0.723354 0.706050
0.614649 0.728420 0.704097
0.808316 0.744076 0.719203
0.959167 0.751644 0.727291
0.317998 0.821714 0.744533
0.337224 0.823178 0.745998
0.402136 0.827756 0.750057
0.504631 0.837369 0.759792
0.629694 0.853788 0.780423
0.760067 0.881010 0.821469
0.851194 0.901488 0.781918
0.981903 0.886076 0.771603
0.615198 0.937591 0.829862
0.621546 0.937804 0.830594
0.650629 0.939696 0.835172
0.706722 0.944518 0.846799
0.772305 0.952392 0.862028
0.848173 0.958953 0.886839
0.892454 0.969726 0.879423
0.968322 0.978973 0.808499
0.000000 0.379278 0.866575
0.000000 0.379156 0.866148
0.145693 0.376684 0.864134
0.339879 0.369360 0.859953
0.488472 0.351568 0.852415
0.628077 0.316991 0.840879
0.765805 0.305852 0.830594
0.898680 0.335698 0.822477
0.000000 0.403143 0.866423
0.000000 0.402594 0.865995
0.157198 0.399023 0.863920
0.341558 0.389990 0.859586
0.488289 0.371405 0.852171
0.627527 0.336736 0.840726
0.765286 0.324681 0.830289
0.898039 0.353216 0.822171
0.000000 0.480415 0.866026
0.000000 0.479500 0.865568
0.194522 0.474281 0.863432
0.350683 0.463142 0.859129
0.489723 0.443030 0.851804
0.626001 0.408453 0.840452
0.763821 0.392645 0.829770
0.895964 0.418372 0.821653
0.220798 0.605005 0.864714
0.226658 0.600031 0.864256
0.279362 0.588312 0.862821
0.384253 0.575982 0.858579
0.500664 0.554253 0.851347
0.625757 0.518730 0.840055
0.761440 0.496101 0.828580
0.891386 0.519036 0.820554
0.332403 0.715358 0.864897
0.345830 0.714961 0.864500
0.394324 0.712764 0.862913
0.466743 0.705409 0.859220
0.530694 0.677150 0.852689
0.631739 0.642176 0.840604
0.759060 0.610193 0.826871
0.886564 0.629480 0.820127
0.365698 0.775906 0.849546
0.377813 0.776699 0.849821
0.423560 0.779934 0.850950
0.498238 0.786130 0.853391
0.591669 0.795438 0.857633
0.655543 0.766445 0.845487
0.758755 0.727169 0.825223
0.882017 0.743282 0.822690
0.371252 0.825162 0.824552
0.381445 0.825620 0.824704
0.421027 0.827176 0.825162
0.488106 0.830289 0.826108
0.572900 0.834653 0.827176
0.666621 0.839261 0.827420
0.761013 0.840360 0.822995
0.935058 0.857633 0.842435
0.432105 0.917998 0.855100
0.443610 0.918547 0.855436
0.488014 0.920745 0.857267
0.565789 0.925353 0.861540
0.668360 0.933288 0.870817
0.787228 0.945953 0.890654
0.900511 0.963958 0.926970
0.962371 0.976013 0.897215
0.113313 0.479286 0.960906
0.158541 0.478798 0.960723
0.261814 0.476478 0.959899
0.378637 0.470527 0.958282
0.500053 0.457923 0.955749
0.625422 0.434577 0.951995
0.756283 0.392981 0.946715
0.891020 0.388769 0.941070
0.151400 0.496620 0.960388
0.183749 0.496010 0.960204
0.273625 0.493172 0.959442
0.384131 0.486366 0.957916
0.502556 0.473182 0.955383
0.626246 0.449439 0.951720
0.756222 0.407752 0.946502
0.890745 0.402502 0.940856
0.241428 0.558556 0.958679
0.258701 0.557702 0.958526
0.319097 0.554101 0.957824
0.409094 0.546044 0.956451
0.514702 0.531334 0.954131
0.630701 0.506279 0.950713
0.756466 0.464576 0.945739
0.890196 0.455451 0.940185
0.347356 0.650538 0.956298
0.356664 0.649592 0.956176
0.392981 0.645502 0.955566
0.456397 0.636774 0.954376
0.540887 0.621424 0.952300
0.641840 0.596094 0.949187
0.758450 0.555413 0.944518
0.889708 0.538384 0.939055
0.464942 0.754086 0.953491
0.472206 0.753841 0.953429
0.500175 0.752560 0.953185
0.520409 0.735317 0.953307
0.580346 0.720455 0.951354
0.660792 0.696407 0.948302
0.763241 0.658076 0.943633
0.890471 0.633356 0.937957
0.518700 0.828489 0.951415
0.525597 0.829221 0.951598
0.553887 0.832273 0.952361
0.597009 0.831815 0.952636
0.649958 0.824949 0.951904
0.695827 0.800229 0.949584
0.776150 0.767300 0.944030
0.893339 0.736446 0.937041
0.533318 0.876005 0.942779
0.539513 0.876493 0.942931
0.565026 0.878477 0.943664
0.612329 0.882506 0.945159
0.678614 0.889097 0.947875
0.759701 0.898833 0.952361
0.810788 0.878294 0.948241
0.899931 0.841703 0.936553
0.540520 0.924987 0.931090
0.545922 0.925231 0.931182
0.568627 0.926329 0.931640
0.611048 0.928496 0.932525
0.671382 0.931884 0.933989
0.745480 0.936584 0.936126
0.828794 0.942077 0.938628
0.911681 0.944274 0.937011
