luts/日系自然[一麻]08.cube
# Created by Adobe Lightroom plugin Export LUT (1.24.0)
# www.johnrellis.com/lightroom/exportlut.htm
# Preset: 日系自然[一麻]08
# Color profile: C:\Program Files (x86)\Common Files\Adobe\Color\Profiles\Recommended\VideoHD.icc
LUT_3D_SIZE 32
DOMAIN_MIN 0.0 0.0 0.0
DOMAIN_MAX 1.0 1.0 1.0
0.000000 0.000000 0.000000
0.019165 0.000000 0.000000
0.079255 0.000000 0.000000
0.118929 0.000000 0.000000
0.165072 0.000000 0.000000
0.220279 0.000000 0.000000
0.275273 0.000000 0.000000
0.326726 0.000000 0.000000
0.375555 0.000000 0.000000
0.422583 0.000000 0.000000
0.469520 0.000000 0.000000
0.516533 0.000000 0.000000
0.564294 0.000000 0.000000
0.612634 0.000000 0.000000
0.661463 0.000000 0.000000
0.709346 0.000000 0.000000
0.754604 0.000000 0.000000
0.797513 0.000000 0.000000
0.837949 0.000000 0.000000
0.875517 0.000000 0.000000
0.910399 0.000000 0.000000
0.943633 0.000000 0.000000
0.978271 0.000000 0.000000
1.000000 0.000000 0.000000
1.000000 0.000000 0.000000
1.000000 0.000000 0.000000
1.000000 0.000000 0.000000
1.000000 0.000000 0.000000
1.000000 0.000000 0.000000
1.000000 0.000000 0.000000
1.000000 0.000000 0.000000
1.000000 0.000000 0.000000
0.000000 0.015717 0.002411
0.011292 0.014374 0.000092
0.076875 0.013764 0.000000
0.118990 0.008576 0.000000
0.165072 0.003937 0.000000
0.219699 0.000000 0.000000
0.273777 0.000000 0.000000
0.324865 0.000000 0.000000
0.373785 0.000000 0.000000
0.420539 0.000000 0.000000
0.467018 0.000000 0.000000
0.513909 0.000000 0.000000
0.561547 0.000000 0.000000
0.609705 0.000000 0.000000
0.658412 0.000000 0.000000
0.706355 0.000000 0.000000
0.751797 0.000000 0.000000
0.794980 0.000000 0.000000
0.835447 0.000000 0.000000
0.873136 0.000000 0.000000
0.907958 0.000000 0.000000
0.941222 0.000000 0.000000
0.975219 0.000000 0.000000
1.000000 0.000000 0.000000
1.000000 0.000000 0.000000
1.000000 0.000000 0.000000
1.000000 0.000000 0.000000
1.000000 0.000000 0.000000
1.000000 0.000000 0.000000
1.000000 0.000000 0.000000
1.000000 0.000000 0.000000
1.000000 0.000000 0.000000
0.000000 0.071809 0.010651
0.005432 0.071656 0.012726
0.061616 0.077974 0.001740
0.117037 0.069947 0.000000
0.165377 0.069978 0.000000
0.219547 0.073823 0.000000
0.273014 0.071687 0.000000
0.323735 0.064057 0.000000
0.371984 0.058808 0.000000
0.418708 0.049744 0.000000
0.465156 0.039734 0.000000
0.511986 0.033814 0.000000
0.559380 0.030243 0.000000
0.607294 0.031006 0.000000
0.656092 0.029450 0.000000
0.703914 0.037903 0.000000
0.749416 0.050385 0.000000
0.792630 0.061585 0.000000
0.833371 0.067567 0.000000
0.871183 0.075990 0.000000
0.906218 0.080049 0.000000
0.939910 0.081666 0.000000
0.973571 0.076478 0.000000
1.000000 0.062959 0.000000
1.000000 0.036774 0.000000
1.000000 0.000000 0.000000
1.000000 0.000000 0.000000
1.000000 0.000000 0.000000
1.000000 0.000000 0.000000
1.000000 0.000000 0.000000
1.000000 0.000000 0.000000
1.000000 0.000000 0.000000
0.000000 0.116152 0.032959
0.000000 0.116487 0.034882
0.040772 0.117861 0.027680
0.112215 0.123201 0.000000
0.166140 0.125948 0.000000
0.219974 0.128267 0.000000
0.272618 0.129580 0.000000
0.322118 0.129885 0.000000
0.370489 0.128542 0.000000
0.416815 0.127565 0.000000
0.463294 0.126162 0.000000
0.509697 0.124483 0.000000
0.557153 0.124361 0.000000
0.604913 0.125734 0.000000
0.653193 0.125704 0.000000
0.700954 0.128878 0.000000
0.746304 0.130739 0.000000
0.789242 0.133150 0.000000
0.829831 0.134035 0.000000
0.867552 0.135103 0.000000
0.902770 0.133822 0.000000
0.937041 0.132906 0.000000
0.970153 0.129824 0.000000
1.000000 0.124880 0.000000
1.000000 0.115999 0.000000
1.000000 0.103365 0.000000
1.000000 0.083558 0.000000
1.000000 0.016266 0.000000
1.000000 0.000000 0.000000
1.000000 0.000000 0.000000
1.000000 0.000000 0.000000
1.000000 0.000000 0.000000
0.000000 0.165225 0.053925
0.000000 0.165316 0.053559
0.013764 0.165194 0.054810
0.100679 0.169100 0.033417
0.160098 0.176364 0.000000
0.218967 0.178744 0.000000
0.270573 0.178897 0.000000
0.319554 0.176944 0.000000
0.367163 0.176791 0.000000
0.413458 0.177249 0.000000
0.459541 0.176913 0.000000
0.506096 0.176852 0.000000
0.553307 0.177310 0.000000
0.601251 0.178470 0.000000
0.649622 0.180270 0.000000
0.697414 0.182406 0.000000
0.743130 0.183169 0.000000
0.786404 0.184176 0.000000
0.827146 0.184329 0.000000
0.865141 0.183169 0.000000
0.900328 0.181521 0.000000
0.935637 0.179263 0.000000
0.968170 0.176211 0.000000
0.998810 0.170382 0.000000
1.000000 0.163272 0.000000
1.000000 0.154665 0.000000
1.000000 0.142092 0.000000
1.000000 0.125338 0.000000
1.000000 0.100374 0.000000
1.000000 0.028473 0.000000
1.000000 0.000000 0.000000
1.000000 0.000000 0.000000
0.000000 0.215610 0.067048
0.000000 0.215702 0.067842
0.000000 0.215366 0.068055
0.064027 0.215793 0.066224
0.143771 0.222019 0.019928
0.208530 0.229343 0.000000
0.268650 0.230564 0.000000
0.318303 0.227756 0.000000
0.365301 0.224582 0.000000
0.411566 0.221897 0.000000
0.457740 0.221714 0.000000
0.504417 0.222446 0.000000
0.551659 0.223087 0.000000
0.599451 0.224796 0.000000
0.648066 0.226535 0.000000
0.696010 0.227756 0.000000
0.741512 0.228397 0.000000
0.784970 0.228275 0.000000
0.825986 0.227237 0.000000
0.863798 0.225742 0.000000
0.900084 0.223606 0.000000
0.935485 0.221378 0.000000
0.984985 0.220829 0.000000
1.000000 0.217166 0.000000
1.000000 0.210544 0.000000
1.000000 0.201968 0.000000
1.000000 0.190799 0.000000
1.000000 0.177523 0.000000
1.000000 0.161044 0.000000
1.000000 0.139559 0.000000
1.000000 0.108888 0.000000
1.000000 0.018799 0.000000
0.000000 0.268406 0.086183
0.000000 0.268437 0.086671
0.000000 0.268193 0.088502
0.000000 0.268132 0.089174
0.121340 0.270787 0.067536
0.191470 0.276707 0.002228
0.258183 0.283726 0.000000
0.320623 0.284123 0.000000
0.368872 0.280064 0.000000
0.415747 0.275944 0.000000
0.462409 0.271794 0.000000
0.509483 0.270359 0.000000
0.557305 0.270756 0.000000
0.605554 0.271702 0.000000
0.654078 0.272923 0.000000
0.701106 0.273045 0.000000
0.746273 0.272770 0.000000
0.789181 0.271702 0.000000
0.829587 0.269688 0.000000
0.867460 0.267063 0.000000
0.907103 0.265293 0.000000
0.943572 0.262333 0.000000
0.977295 0.258854 0.000000
1.000000 0.254520 0.000000
1.000000 0.249638 0.000000
1.000000 0.244144 0.000000
1.000000 0.235935 0.000000
1.000000 0.224399 0.000000
1.000000 0.211063 0.000000
1.000000 0.194766 0.000000
1.000000 0.175204 0.000000
1.000000 0.149935 0.000000
0.000000 0.313390 0.104494
0.000000 0.313298 0.105440
0.000000 0.313207 0.105440
0.000000 0.313146 0.106630
0.086641 0.312871 0.107820
0.167727 0.317998 0.082856
0.234501 0.324041 0.002350
0.301091 0.330938 0.000000
0.364050 0.332097 0.000000
0.413123 0.326970 0.000000
0.460426 0.322698 0.000000
0.507408 0.318914 0.000000
0.554131 0.315404 0.000000
0.602136 0.315312 0.000000
0.650752 0.315892 0.000000
0.697566 0.315648 0.000000
0.742397 0.314916 0.000000
0.785397 0.313085 0.000000
0.825864 0.310704 0.000000
0.866728 0.308598 0.000000
0.904997 0.305760 0.000000
0.940429 0.301854 0.000000
0.973571 0.297612 0.000000
1.000000 0.292546 0.000000
1.000000 0.287144 0.000000
1.000000 0.281468 0.000000
1.000000 0.274784 0.000000
1.000000 0.267704 0.000000
1.000000 0.255741 0.000000
1.000000 0.242100 0.000000
1.000000 0.225711 0.000000
1.000000 0.207004 0.000000
0.000000 0.356786 0.127749
0.000000 0.356909 0.127871
0.000000 0.356786 0.128420
0.000000 0.356786 0.129305
0.000000 0.356847 0.131075
0.145327 0.358862 0.124514
0.212497 0.364233 0.100069
0.277562 0.370489 0.018952
0.343420 0.377539 0.000000
0.407324 0.379583 0.000000
0.458381 0.374945 0.000000
0.506249 0.370916 0.000000
0.553918 0.366827 0.000000
0.601312 0.362951 0.000000
0.648554 0.359777 0.000000
0.695033 0.358953 0.000000
0.739925 0.357488 0.000000
0.782742 0.355077 0.000000
0.825925 0.353216 0.000000
0.866026 0.350195 0.000000
0.903197 0.346044 0.000000
0.937835 0.341741 0.000000
0.970489 0.336553 0.000000
1.000000 0.331212 0.000000
1.000000 0.325444 0.000000
1.000000 0.319158 0.000000
1.000000 0.312169 0.000000
1.000000 0.304875 0.000000
1.000000 0.297185 0.000000
1.000000 0.285313 0.000000
1.000000 0.271336 0.000000
1.000000 0.255009 0.000000
0.000000 0.400122 0.151736
0.000000 0.400061 0.151888
0.000000 0.399969 0.152316
0.000000 0.400031 0.153201
0.000000 0.400214 0.154574
0.119234 0.400275 0.156619
0.192813 0.404395 0.142123
0.256779 0.410132 0.116182
0.320317 0.416419 0.049836
0.385748 0.423590 0.000000
0.449866 0.426123 0.000000
0.503624 0.422492 0.000000
0.552392 0.418433 0.000000
0.600488 0.414679 0.000000
0.648005 0.410254 0.000000
0.693294 0.404974 0.000000
0.738827 0.401434 0.000000
0.784024 0.399512 0.000000
0.826108 0.396521 0.000000
0.865171 0.392340 0.000000
0.901366 0.387274 0.000000
0.934966 0.381689 0.000000
0.966766 0.375738 0.000000
0.997070 0.369574 0.000000
1.000000 0.362799 0.000000
1.000000 0.356207 0.000000
1.000000 0.348974 0.000000
1.000000 0.341497 0.000000
1.000000 0.333532 0.000000
1.000000 0.325231 0.000000
1.000000 0.313085 0.000000
1.000000 0.298375 0.000000
0.000000 0.442329 0.175509
0.000000 0.442359 0.175448
0.000000 0.442481 0.175845
0.000000 0.442756 0.176669
0.000000 0.443000 0.177890
0.073457 0.443549 0.179538
0.174655 0.445411 0.177615
0.238895 0.450843 0.159152
0.301366 0.456977 0.131624
0.364385 0.463844 0.083680
0.430152 0.471046 0.000000
0.493660 0.473732 0.000000
0.551263 0.471717 0.000000
0.600763 0.467384 0.000000
0.649805 0.463569 0.000000
0.696864 0.458686 0.000000
0.741665 0.452552 0.000000
0.784024 0.445289 0.000000
0.824430 0.439765 0.000000
0.862577 0.434485 0.000000
0.898100 0.428443 0.000000
0.931365 0.421942 0.000000
0.963012 0.415351 0.000000
0.993225 0.408270 0.000000
1.000000 0.400885 0.000000
1.000000 0.393561 0.000000
1.000000 0.385840 0.000000
1.000000 0.377966 0.000000
1.000000 0.369909 0.000000
1.000000 0.361425 0.000000
1.000000 0.352422 0.000000
1.000000 0.339452 0.000000
0.000000 0.486366 0.197696
0.000000 0.486397 0.197910
0.000000 0.486580 0.197818
0.000000 0.486915 0.198734
0.000000 0.487526 0.199741
0.000000 0.488136 0.201602
0.152438 0.489418 0.203464
0.223117 0.493355 0.193515
0.284977 0.499153 0.173953
0.346715 0.505882 0.145632
0.410590 0.512932 0.096223
0.477882 0.521874 0.000000
0.555840 0.537621 0.000000
0.619409 0.537346 0.000000
0.669032 0.531365 0.000000
0.716030 0.524193 0.000000
0.759915 0.515801 0.000000
0.801175 0.506401 0.000000
0.839536 0.496132 0.000000
0.875181 0.485328 0.000000
0.909697 0.477089 0.000000
0.941955 0.469001 0.000000
0.972564 0.460700 0.000000
1.000000 0.452277 0.000000
1.000000 0.443702 0.000000
1.000000 0.434974 0.000000
1.000000 0.426001 0.000000
1.000000 0.417121 0.000000
1.000000 0.408087 0.000000
1.000000 0.398871 0.000000
1.000000 0.389471 0.000000
1.000000 0.379431 0.000000
0.000000 0.536797 0.220981
0.000000 0.536858 0.220920
0.000000 0.536614 0.221469
0.000000 0.536889 0.221653
0.000000 0.537041 0.222812
0.000000 0.537438 0.224002
0.121645 0.538720 0.225986
0.208438 0.541405 0.227298
0.272618 0.548119 0.211673
0.335698 0.555840 0.190463
0.400305 0.564691 0.159731
0.467262 0.574151 0.110994
0.536950 0.583642 0.000000
0.606226 0.589654 0.000000
0.667414 0.585565 0.000000
0.714382 0.577264 0.000000
0.757870 0.567437 0.000000
0.797971 0.556359 0.000000
0.835508 0.544915 0.000000
0.870481 0.532860 0.000000
0.903380 0.520348 0.000000
0.934722 0.508598 0.000000
0.965484 0.499550 0.000000
0.994965 0.490608 0.000000
1.000000 0.481422 0.000000
1.000000 0.472236 0.000000
1.000000 0.462867 0.000000
1.000000 0.453529 0.000000
1.000000 0.443977 0.000000
1.000000 0.434394 0.000000
1.000000 0.424781 0.000000
1.000000 0.414710 0.000000
0.000000 0.585718 0.242771
0.000000 0.585687 0.242802
0.000000 0.585687 0.242954
0.000000 0.585687 0.243229
0.000000 0.585931 0.244175
0.000000 0.586481 0.245640
0.023102 0.587549 0.247501
0.186923 0.589105 0.249638
0.257877 0.593103 0.243442
0.320623 0.599420 0.226352
0.383551 0.606867 0.203708
0.448096 0.614771 0.173037
0.514641 0.623011 0.124575
0.583215 0.631067 0.000000
0.653407 0.637690 0.000000
0.710780 0.629328 0.000000
0.753964 0.618128 0.000000
0.793912 0.606043 0.000000
0.831083 0.593286 0.000000
0.865751 0.580072 0.000000
0.898314 0.566705 0.000000
0.929564 0.553613 0.000000
0.959625 0.540612 0.000000
0.988922 0.529107 0.000000
1.000000 0.519463 0.000000
1.000000 0.509758 0.000000
1.000000 0.499886 0.000000
1.000000 0.489906 0.000000
1.000000 0.479896 0.000000
1.000000 0.469856 0.000000
1.000000 0.459663 0.000000
1.000000 0.449531 0.000000
0.000000 0.631434 0.264652
0.000000 0.631434 0.264439
0.000000 0.631342 0.264836
0.000000 0.631159 0.265049
0.000000 0.631006 0.265599
0.000000 0.631128 0.266697
0.000000 0.631708 0.268254
0.159915 0.632837 0.270634
0.242588 0.634516 0.273289
0.306371 0.639826 0.259342
0.367498 0.645991 0.241947
0.429725 0.652949 0.218662
0.493080 0.660151 0.187686
0.558709 0.667109 0.140871
0.625666 0.673426 0.000000
0.693996 0.678767 0.000000
0.747890 0.668025 0.000000
0.789303 0.654994 0.000000
0.826444 0.641138 0.000000
0.860990 0.627039 0.000000
0.893523 0.612848 0.000000
0.924834 0.598932 0.000000
0.954894 0.585260 0.000000
0.983917 0.571801 0.000000
1.000000 0.558373 0.000000
1.000000 0.547173 0.000000
1.000000 0.536919 0.000000
1.000000 0.526543 0.000000
1.000000 0.516014 0.000000
1.000000 0.505486 0.000000
1.000000 0.495003 0.000000
1.000000 0.484260 0.000000
0.000000 0.671901 0.286168
0.000000 0.672023 0.286351
0.000000 0.672023 0.286595
0.000000 0.672084 0.287022
0.000000 0.672175 0.287480
0.000000 0.672541 0.288762
0.000000 0.673396 0.290532
0.129427 0.674586 0.292851
0.226963 0.676265 0.296056
0.294285 0.679347 0.292943
0.354284 0.684291 0.277989
0.413642 0.689601 0.259007
0.474037 0.695064 0.235447
0.535363 0.700313 0.204562
0.598108 0.705135 0.160037
0.662257 0.709621 0.052918
0.728511 0.713436 0.000000
0.779995 0.701991 0.000000
0.820249 0.687678 0.000000
0.855039 0.672847 0.000000
0.888121 0.658076 0.000000
0.919677 0.643702 0.000000
0.950072 0.629511 0.000000
0.979461 0.615564 0.000000
1.000000 0.601678 0.000000
1.000000 0.587945 0.000000
1.000000 0.574182 0.000000
1.000000 0.563134 0.000000
1.000000 0.552239 0.000000
1.000000 0.541192 0.000000
1.000000 0.529992 0.000000
1.000000 0.518700 0.000000
0.000000 0.708370 0.308232
0.000000 0.708309 0.308232
0.000000 0.708370 0.308415
0.000000 0.708492 0.308873
0.000000 0.708644 0.309728
0.000000 0.709102 0.311009
0.000000 0.709712 0.312505
0.095796 0.710658 0.314916
0.211154 0.711910 0.317693
0.283207 0.713405 0.321233
0.342016 0.717098 0.311223
0.398566 0.721584 0.295628
0.455543 0.726162 0.276768
0.513481 0.730617 0.253361
0.573022 0.734859 0.222568
0.633753 0.738643 0.180789
0.695918 0.742061 0.108156
0.759976 0.744900 0.000000
0.809842 0.733455 0.000000
0.849180 0.718013 0.000000
0.882536 0.702968 0.000000
0.914580 0.687831 0.000000
0.945129 0.673243 0.000000
0.974731 0.658808 0.000000
1.000000 0.644526 0.000000
1.000000 0.630274 0.000000
1.000000 0.616114 0.000000
1.000000 0.601953 0.000000
1.000000 0.588342 0.000000
1.000000 0.576867 0.000000
1.000000 0.565209 0.000000
1.000000 0.553307 0.000000
0.000000 0.742184 0.332128
0.000000 0.742306 0.332280
0.000000 0.751553 0.340276
0.000000 0.751705 0.340856
0.000000 0.751797 0.341619
0.000000 0.752010 0.342626
0.000000 0.752316 0.344244
0.099916 0.752834 0.346380
0.212436 0.753719 0.348974
0.283909 0.754818 0.352209
0.342779 0.756558 0.352361
0.395331 0.760006 0.339117
0.448219 0.763424 0.322850
0.502464 0.766781 0.303380
0.557977 0.769772 0.279301
0.614557 0.772549 0.249882
0.672999 0.774807 0.210575
0.732723 0.776791 0.151949
0.794156 0.778286 0.000000
0.842130 0.766262 0.000000
0.881102 0.750118 0.000000
0.912840 0.734310 0.000000
0.943481 0.718654 0.000000
0.972747 0.703304 0.000000
1.000000 0.688136 0.000000
1.000000 0.673060 0.000000
1.000000 0.658137 0.000000
1.000000 0.643275 0.000000
1.000000 0.628473 0.000000
1.000000 0.613733 0.000000
1.000000 0.600153 0.000000
1.000000 0.587701 0.000000
0.000000 0.775296 0.359380
0.000000 0.776150 0.360296
0.000000 0.777035 0.361364
0.000000 0.777829 0.362341
0.000000 0.778470 0.363745
0.000000 0.778897 0.365026
0.000000 0.779202 0.366644
0.102266 0.779629 0.368444
0.209995 0.780179 0.371038
0.278874 0.780941 0.374029
0.337041 0.781979 0.377844
0.386969 0.784360 0.371221
0.436042 0.787289 0.357122
0.486122 0.790249 0.340917
0.537530 0.793057 0.321477
0.590661 0.795651 0.297826
0.645380 0.798001 0.268528
0.701686 0.800046 0.232090
0.759884 0.801816 0.180850
0.819608 0.803220 0.077394
0.866545 0.791714 0.000000
0.906188 0.776181 0.000000
0.937072 0.760342 0.000000
0.966705 0.744594 0.000000
0.995087 0.729000 0.000000
1.000000 0.713619 0.000000
1.000000 0.698299 0.000000
1.000000 0.683070 0.000000
1.000000 0.667964 0.000000
1.000000 0.652796 0.000000
1.000000 0.637629 0.000000
1.000000 0.622187 0.000000
0.000000 0.801968 0.383551
0.000000 0.802731 0.384405
0.000000 0.803616 0.385534
0.000000 0.804379 0.386725
0.000000 0.805020 0.388037
0.000000 0.805417 0.389532
0.000000 0.805692 0.390845
0.127535 0.805966 0.392889
0.217227 0.806363 0.395178
0.280705 0.806912 0.398199
0.336309 0.807614 0.401465
0.386297 0.808621 0.404059
0.430304 0.811215 0.391852
0.476051 0.813870 0.377508
0.523400 0.816373 0.360937
0.572442 0.818845 0.340887
0.623346 0.821042 0.317632
0.675959 0.822995 0.289097
0.730373 0.824704 0.254490
0.786679 0.826200 0.207675
0.844663 0.827237 0.133761
0.890379 0.816434 0.000000
0.930480 0.800931 0.000000
0.960388 0.785031 0.000000
0.989014 0.769162 0.000000
1.000000 0.753384 0.000000
1.000000 0.737728 0.000000
1.000000 0.722164 0.000000
1.000000 0.706722 0.000000
1.000000 0.691279 0.000000
1.000000 0.675776 0.000000
1.000000 0.659998 0.000000
0.000000 0.827634 0.409064
0.000000 0.828275 0.409949
0.000000 0.829007 0.410956
0.000000 0.829679 0.412207
0.000000 0.830198 0.413672
0.000000 0.830533 0.414923
0.000000 0.830747 0.416297
0.163119 0.830930 0.418189
0.233402 0.831235 0.420356
0.290043 0.831662 0.423194
0.341283 0.832181 0.426551
0.389014 0.832761 0.430304
0.431128 0.834318 0.426368
0.471748 0.836637 0.413764
0.514794 0.838987 0.399207
0.559533 0.841306 0.382300
0.606378 0.843565 0.362829
0.655604 0.845731 0.339544
0.706538 0.847776 0.312352
0.759670 0.849638 0.279515
0.814694 0.851164 0.236851
0.871489 0.852293 0.176181
0.916716 0.842374 0.067750
0.956420 0.826963 0.000000
0.986084 0.810880 0.000000
1.000000 0.795010 0.000000
1.000000 0.778958 0.000000
1.000000 0.763088 0.000000
1.000000 0.747280 0.000000
1.000000 0.731411 0.000000
1.000000 0.715297 0.000000
1.000000 0.699001 0.000000
0.000000 0.855985 0.441749
0.000000 0.856229 0.442145
0.000000 0.856443 0.442481
0.000000 0.856596 0.443183
0.000000 0.856657 0.443915
0.000000 0.856657 0.444800
0.148135 0.856687 0.446296
0.211093 0.856748 0.447883
0.263523 0.856901 0.449897
0.311254 0.857237 0.452796
0.356298 0.857603 0.455940
0.399695 0.858061 0.459632
0.441779 0.858518 0.463691
0.477211 0.860472 0.453162
0.514641 0.862547 0.439765
0.554528 0.864622 0.424720
0.596704 0.866575 0.407263
0.641169 0.868406 0.387427
0.687892 0.870146 0.364538
0.736751 0.871672 0.337163
0.787686 0.872892 0.304662
0.840391 0.873838 0.264317
0.895201 0.874266 0.209049
0.939361 0.864714 0.134096
0.977508 0.848966 0.000000
1.000000 0.832578 0.000000
1.000000 0.816495 0.000000
1.000000 0.800412 0.000000
1.000000 0.784360 0.000000
1.000000 0.768246 0.000000
1.000000 0.751949 0.000000
1.000000 0.735286 0.000000
0.000000 0.878691 0.470130
0.000000 0.878904 0.470436
0.000000 0.879088 0.471046
0.016541 0.879240 0.471534
0.118471 0.879301 0.472358
0.168154 0.879301 0.473121
0.211887 0.879301 0.474372
0.253513 0.879301 0.475837
0.294255 0.879454 0.477974
0.334173 0.879637 0.480537
0.373632 0.879911 0.483314
0.412482 0.880217 0.486824
0.450660 0.880552 0.490455
0.486213 0.881437 0.488930
0.518853 0.883360 0.477790
0.553887 0.885252 0.464637
0.591516 0.887205 0.449470
0.631312 0.889006 0.431830
0.673671 0.890684 0.411933
0.718196 0.892210 0.388769
0.765103 0.893523 0.361913
0.814176 0.894499 0.329808
0.865263 0.895079 0.290745
0.918273 0.895171 0.239567
0.960357 0.885100 0.167086
0.996765 0.868894 0.051881
1.000000 0.852171 0.000000
1.000000 0.836118 0.000000
1.000000 0.819913 0.000000
1.000000 0.803647 0.000000
1.000000 0.787259 0.000000
1.000000 0.770413 0.000000
0.175845 0.902220 0.501823
0.180179 0.902525 0.502464
0.187686 0.902647 0.502953
0.201266 0.902617 0.503075
0.219577 0.902434 0.503380
0.242741 0.902159 0.503899
0.268833 0.901823 0.504540
0.297398 0.901518 0.505303
0.328679 0.901244 0.506737
0.360815 0.901091 0.508354
0.394110 0.900938 0.510552
0.428077 0.900877 0.513085
0.462226 0.900877 0.516136
0.496651 0.900786 0.519554
0.525780 0.901976 0.511589
0.555871 0.903471 0.499519
0.588739 0.904997 0.485847
0.624048 0.906554 0.470619
0.661952 0.908171 0.452979
0.702480 0.909697 0.432990
0.745083 0.911101 0.409644
0.790219 0.912169 0.382788
0.837308 0.912840 0.350835
0.886412 0.912963 0.311406
0.937377 0.912535 0.260716
0.982025 0.905425 0.195224
1.000000 0.888151 0.107729
1.000000 0.870756 0.000000
1.000000 0.854520 0.000000
1.000000 0.838010 0.000000
1.000000 0.821378 0.000000
1.000000 0.804471 0.000000
0.247990 0.921233 0.528069
0.250767 0.921508 0.528588
0.256016 0.921660 0.529107
0.264256 0.921721 0.529503
0.277195 0.921660 0.529992
0.293706 0.921569 0.530632
0.313787 0.921447 0.531548
0.337011 0.921386 0.532860
0.362615 0.921324 0.534417
0.390051 0.921294 0.536339
0.418860 0.921263 0.538567
0.449012 0.921233 0.541131
0.479561 0.921172 0.544091
0.510643 0.921050 0.547234
0.540093 0.921202 0.547326
0.565759 0.922515 0.536553
0.594018 0.923857 0.524376
0.624811 0.925231 0.510826
0.658198 0.926635 0.495369
0.694057 0.928038 0.477852
0.732448 0.929320 0.458167
0.773159 0.930419 0.434913
0.816098 0.931182 0.407507
0.861265 0.931487 0.374914
0.908568 0.931365 0.335729
0.957916 0.930663 0.286168
1.000000 0.925261 0.222446
1.000000 0.907012 0.137362
1.000000 0.889006 0.011597
1.000000 0.872557 0.000000
1.000000 0.855741 0.000000
1.000000 0.838529 0.000000
0.311131 0.940612 0.556939
0.312413 0.940734 0.557275
0.315892 0.940764 0.557610
0.321904 0.940764 0.557946
0.330755 0.940642 0.558282
0.342901 0.940520 0.558801
0.358221 0.940368 0.559594
0.376593 0.940215 0.560601
0.397192 0.940063 0.561913
0.420264 0.939940 0.563622
0.444923 0.939757 0.565545
0.471015 0.939666 0.567864
0.498116 0.939513 0.570520
0.525750 0.939300 0.573297
0.554314 0.938994 0.576196
0.578424 0.939666 0.570581
0.602472 0.940856 0.559838
0.629023 0.942107 0.547417
0.658015 0.943359 0.533806
0.689601 0.944640 0.518364
0.723629 0.945830 0.501061
0.760067 0.946868 0.480964
0.798642 0.947601 0.457588
0.839658 0.947997 0.429816
0.882811 0.947936 0.396735
0.928191 0.947448 0.356268
0.975921 0.946410 0.306493
1.000000 0.942351 0.241306
1.000000 0.923217 0.155276
1.000000 0.904692 0.044953
1.000000 0.887999 0.000000
1.000000 0.870756 0.000000
0.362982 0.957946 0.584466
0.363897 0.958007 0.584588
0.366522 0.958068 0.584985
0.371344 0.958099 0.585321
0.378576 0.958099 0.585840
0.388861 0.958099 0.586755
0.402136 0.958221 0.588098
0.418280 0.958373 0.589868
0.436683 0.958618 0.592004
0.457069 0.958831 0.594415
0.479377 0.959075 0.597223
0.502770 0.959258 0.600275
0.527245 0.959380 0.603388
0.552148 0.959350 0.606409
0.577752 0.959167 0.609522
0.602869 0.958984 0.611475
0.622858 0.960082 0.602136
0.645136 0.961181 0.591424
0.669612 0.962310 0.579522
0.696559 0.963439 0.566094
0.725795 0.964477 0.550744
0.757412 0.965362 0.533318
0.791196 0.965972 0.513146
0.827359 0.966339 0.489631
0.865843 0.966308 0.461799
0.906676 0.965881 0.428687
0.950042 0.964965 0.388373
0.995819 0.963592 0.338323
1.000000 0.960754 0.273228
1.000000 0.940642 0.195743
1.000000 0.921172 0.122255
1.000000 0.903716 0.000000
0.423407 0.976654 0.618677
0.423713 0.976654 0.618647
0.425299 0.976623 0.618708
0.428534 0.976562 0.618830
0.433814 0.976440 0.619074
0.441291 0.976287 0.619623
0.451057 0.976165 0.620325
0.462959 0.976013 0.621149
0.476997 0.975860 0.622370
0.493050 0.975738 0.623896
0.510887 0.975555 0.625666
0.530144 0.975372 0.627619
0.550713 0.975158 0.629816
0.572351 0.974853 0.632105
