luts/日系自然[一麻]09.cube
# Created by Adobe Lightroom plugin Export LUT (1.24.0)
# www.johnrellis.com/lightroom/exportlut.htm
# Preset: 日系自然[一麻]09
# Color profile: C:\Program Files (x86)\Common Files\Adobe\Color\Profiles\Recommended\VideoHD.icc
LUT_3D_SIZE 8
DOMAIN_MIN 0.000000 0.000000 0.000000
DOMAIN_MAX 0.903226 0.903226 0.903226
0.000000 0.000000 0.000000
0.161532 0.015351 0.000000
0.378302 0.087587 0.000000
0.581292 0.118166 0.000000
0.783841 0.139071 0.000000
0.951446 0.151949 0.000000
1.000000 0.160800 0.000000
1.000000 0.162631 0.000000
0.001099 0.160647 0.081605
0.143954 0.185275 0.000000
0.365789 0.197116 0.000000
0.565087 0.208255 0.000000
0.767697 0.217288 0.000000
0.936584 0.218906 0.000000
1.000000 0.215366 0.000000
1.000000 0.208621 0.000000
0.080140 0.361578 0.179232
0.159915 0.361578 0.187076
0.335302 0.395117 0.000000
0.566308 0.388678 0.000000
0.770901 0.378119 0.000000
0.937621 0.366735 0.000000
1.000000 0.349279 0.000000
1.000000 0.328527 0.000000
0.251469 0.564935 0.294926
0.283207 0.564843 0.299168
0.365728 0.580102 0.264073
0.572412 0.611200 0.000000
0.796109 0.588067 0.000000
0.939208 0.534112 0.000000
1.000000 0.494728 0.000000
1.000000 0.462074 0.000000
0.422461 0.730739 0.411627
0.438727 0.730373 0.414557
0.499702 0.731960 0.427649
0.567041 0.748745 0.335637
0.740627 0.756008 0.032654
0.915465 0.711330 0.000000
1.000000 0.651362 0.000000
1.000000 0.593194 0.000000
0.580560 0.835721 0.532769
0.593683 0.838499 0.539055
0.626215 0.838651 0.548547
0.658228 0.844511 0.524681
0.716304 0.854032 0.425055
0.857572 0.857725 0.220768
1.000000 0.815183 0.000000
1.000000 0.751553 0.000000
0.701991 0.911742 0.641718
0.707271 0.912139 0.643977
0.724361 0.911528 0.649042
0.756588 0.911040 0.660365
0.769223 0.919310 0.604334
0.823026 0.927855 0.509453
0.939696 0.931640 0.327214
1.000000 0.891905 0.000000
0.787991 0.966461 0.731258
0.790372 0.966278 0.732021
0.800748 0.965942 0.735653
0.820768 0.965393 0.743404
0.831601 0.965362 0.725399
0.850950 0.975067 0.673335
0.902251 0.983886 0.583551
1.000000 0.987396 0.400092
0.000000 0.003357 0.156558
0.160739 0.000000 0.155001
0.366796 0.000000 0.129641
0.555444 0.101137 0.100526
0.760159 0.127382 0.000000
0.929534 0.144503 0.000000
1.000000 0.157534 0.000000
1.000000 0.159548 0.000000
0.000000 0.174289 0.141024
0.142184 0.185977 0.145968
0.355016 0.189395 0.121126
0.551232 0.200595 0.083009
0.755062 0.209689 0.000000
0.924102 0.212985 0.000000
1.000000 0.211643 0.000000
1.000000 0.205386 0.000000
0.136873 0.360357 0.217472
0.186496 0.361364 0.223758
0.329168 0.388251 0.138705
0.552392 0.378210 0.000000
0.754330 0.370092 0.000000
0.918853 0.359564 0.000000
1.000000 0.342840 0.000000
1.000000 0.323919 0.000000
0.259190 0.550256 0.308415
0.287724 0.550866 0.312444
0.365087 0.564538 0.293034
0.547448 0.588922 0.126070
0.763943 0.566339 0.000000
0.911406 0.518364 0.000000
1.000000 0.485206 0.000000
1.000000 0.456123 0.000000
0.427008 0.725124 0.421027
0.441657 0.724208 0.423072
0.500298 0.724208 0.435950
0.560876 0.737636 0.353857
0.726711 0.743191 0.152743
0.901213 0.701137 0.000000
1.000000 0.644404 0.000000
1.000000 0.588922 0.000000
0.579065 0.830411 0.534966
0.587610 0.830625 0.537499
0.620691 0.831235 0.547295
0.656550 0.837430 0.530663
0.712978 0.847990 0.436835
0.853147 0.853239 0.252781
1.000000 0.811246 0.000000
1.000000 0.748226 0.000000
0.699062 0.907988 0.640986
0.702327 0.907317 0.641291
0.719356 0.906676 0.646174
0.752682 0.906767 0.658350
0.768338 0.915770 0.608728
0.820859 0.924376 0.516533
0.935454 0.927428 0.340673
1.000000 0.887572 0.000000
0.785763 0.964477 0.730251
0.788998 0.964721 0.731899
0.799252 0.964294 0.735409
0.819486 0.963897 0.743313
0.837644 0.966613 0.735531
0.854246 0.975311 0.682307
0.903044 0.983337 0.592309
1.000000 0.986877 0.414740
0.000000 0.010346 0.324254
0.152468 0.000000 0.323308
0.348425 0.000000 0.316320
0.544701 0.000000 0.302525
0.757198 0.000000 0.257664
0.927581 0.127047 0.243778
1.000000 0.178317 0.223423
1.000000 0.187045 0.193271
0.000000 0.194980 0.316533
0.116335 0.181827 0.315862
0.342809 0.182864 0.308812
0.539544 0.169741 0.289403
0.748440 0.149599 0.250278
0.919615 0.210178 0.240391
1.000000 0.223941 0.217105
1.000000 0.223972 0.187045
0.087312 0.363195 0.288975
0.180392 0.364538 0.291081
0.320287 0.377508 0.291264
0.535546 0.366522 0.265202
0.751003 0.367468 0.247440
0.916686 0.360693 0.227024
1.000000 0.350072 0.204868
1.000000 0.334173 0.174289
0.285161 0.552789 0.363592
0.316594 0.555077 0.368872
0.407782 0.562341 0.386938
0.546380 0.584924 0.297154
0.759518 0.558740 0.220218
0.909667 0.517571 0.198337
1.000000 0.492348 0.178500
1.000000 0.464302 0.144808
0.459541 0.722805 0.466926
0.474189 0.723049 0.469825
0.529503 0.725338 0.483070
0.588312 0.736934 0.447761
0.730343 0.743893 0.313725
0.898558 0.699641 0.166629
1.000000 0.643885 0.132815
1.000000 0.594354 0.042298
0.604883 0.830167 0.569207
0.613092 0.830716 0.571923
0.643275 0.831510 0.580957
0.686732 0.834836 0.585779
0.726986 0.845151 0.506462
0.852415 0.850706 0.367071
1.000000 0.809873 0.129732
1.000000 0.749294 0.000000
0.718837 0.910430 0.667994
0.722072 0.909911 0.668482
0.737209 0.909026 0.672389
0.767544 0.908812 0.682918
0.786404 0.915373 0.651026
0.831479 0.924315 0.571405
0.938476 0.928740 0.429084
1.000000 0.889982 0.000000
0.796292 0.965637 0.747341
0.798215 0.965332 0.747646
0.808072 0.964935 0.750973
0.828550 0.965026 0.759762
0.850248 0.965942 0.761349
0.864591 0.975036 0.713649
0.909300 0.983307 0.633021
1.000000 0.987152 0.480079
0.000000 0.020600 0.469490
0.116854 0.010864 0.469917
0.338994 0.000000 0.464118
0.527703 0.000000 0.455055
0.720455 0.000000 0.446754
0.905364 0.000000 0.416846
1.000000 0.000000 0.369940
1.000000 0.241154 0.366094
0.000000 0.183444 0.467170
0.045289 0.182956 0.466224
0.333471 0.180789 0.461128
0.527733 0.172671 0.453040
0.722408 0.150973 0.444282
0.904814 0.072816 0.411139
1.000000 0.107027 0.365301
1.000000 0.278386 0.367132
0.000000 0.382116 0.446967
0.000000 0.378729 0.446509
0.299535 0.360388 0.443702
0.518517 0.355383 0.437751
0.729213 0.343603 0.425025
0.906767 0.330877 0.389899
1.000000 0.381842 0.389471
1.000000 0.377935 0.370184
0.200504 0.540215 0.428779
0.248569 0.539818 0.428992
0.376410 0.542412 0.434974
0.519860 0.556237 0.431220
0.726467 0.534752 0.402533
0.886625 0.524071 0.390845
1.000000 0.509972 0.377844
1.000000 0.488685 0.358068
0.467536 0.714931 0.517937
0.485695 0.714748 0.521202
0.544823 0.717830 0.533501
0.634638 0.728115 0.562432
0.727169 0.736721 0.465644
0.886900 0.695552 0.391852
1.000000 0.646204 0.368292
1.000000 0.612146 0.345434
0.638483 0.831968 0.620111
0.649500 0.834653 0.625513
0.676173 0.835386 0.633021
0.724819 0.838834 0.650355
0.758328 0.846769 0.611444
0.855436 0.850126 0.506035
0.994690 0.811063 0.388647
1.000000 0.754269 0.344854
0.742580 0.913024 0.706447
0.746822 0.913268 0.708064
0.762966 0.913725 0.713802
0.792142 0.914641 0.724971
0.820432 0.917937 0.722408
0.850370 0.926085 0.656184
0.941711 0.929839 0.544579
1.000000 0.892607 0.362158
0.814511 0.969177 0.778439
0.816617 0.969055 0.779049
0.825803 0.968627 0.782071
0.843656 0.968109 0.788754
0.868406 0.967193 0.798398
0.881376 0.974426 0.765011
0.918578 0.982971 0.696864
1.000000 0.987610 0.574548
0.000000 0.070527 0.614588
0.000000 0.065858 0.614771
0.322240 0.044434 0.610620
0.520775 0.000000 0.604242
0.710292 0.000000 0.598444
0.876249 0.000000 0.576867
1.000000 0.000000 0.538964
1.000000 0.100038 0.501610
0.000000 0.187381 0.612543
0.000000 0.187137 0.613062
0.315953 0.183597 0.609522
0.518059 0.169070 0.602014
0.710689 0.139193 0.597192
0.874388 0.125063 0.573938
1.000000 0.148104 0.536797
1.000000 0.190158 0.500847
0.000000 0.377844 0.599420
0.000000 0.368536 0.599664
0.281224 0.352667 0.598810
0.507500 0.345678 0.594476
0.704005 0.332982 0.585687
0.858305 0.332525 0.558068
0.998871 0.335729 0.527214
1.000000 0.348150 0.498116
0.000000 0.553307 0.582025
0.000000 0.551812 0.581384
0.272953 0.545251 0.579553
0.488167 0.527520 0.575586
0.690822 0.521874 0.565454
0.851225 0.519524 0.544518
0.988891 0.519097 0.525109
1.000000 0.541588 0.525566
0.354284 0.690303 0.561669
0.380529 0.690303 0.562432
0.467445 0.689052 0.565118
0.584436 0.691310 0.576745
0.689418 0.699855 0.568688
0.844388 0.673610 0.539544
0.976989 0.660151 0.530602
1.000000 0.639063 0.513909
0.600824 0.812253 0.636652
0.611200 0.812680 0.639246
0.649287 0.813321 0.648585
0.708186 0.818692 0.666835
0.772244 0.828702 0.690150
0.842771 0.836301 0.612329
0.975372 0.803922 0.544305
1.000000 0.756771 0.512810
0.756313 0.910307 0.743099
0.758145 0.910216 0.742763
0.767391 0.910796 0.743099
0.798001 0.913207 0.754696
0.839811 0.916564 0.773220
0.864347 0.923186 0.737636
0.939422 0.926482 0.646998
1.000000 0.890593 0.528954
0.820035 0.969879 0.803677
0.822202 0.969757 0.804288
0.831693 0.969360 0.807279
0.852445 0.969970 0.816556
0.878080 0.969604 0.827054
0.900023 0.972045 0.823636
0.926238 0.980865 0.766201
1.000000 0.985901 0.666255
0.000000 0.116793 0.743618
0.000000 0.116854 0.743526
0.285435 0.112825 0.739773
0.487892 0.099428 0.737118
0.678767 0.000000 0.733333
0.854490 0.000000 0.724819
0.994079 0.000000 0.692409
1.000000 0.134890 0.653895
0.000000 0.196201 0.736599
0.000000 0.195956 0.735866
0.277867 0.193393 0.733150
0.482765 0.185245 0.731136
0.672816 0.162814 0.726375
0.848905 0.124697 0.718746
0.987915 0.147005 0.687007
1.000000 0.197238 0.650416
0.000000 0.353491 0.735103
0.000000 0.353094 0.734493
0.255283 0.351019 0.732815
0.474281 0.344121 0.726558
0.668238 0.334386 0.720485
0.846403 0.322637 0.713069
0.980102 0.334844 0.680568
1.000000 0.352392 0.648920
0.000000 0.540856 0.722225
0.000000 0.539422 0.721126
0.283635 0.536126 0.719112
0.473671 0.521447 0.719600
0.668635 0.517327 0.714687
0.843687 0.511162 0.706783
0.965179 0.519280 0.676905
1.000000 0.522667 0.655146
0.185794 0.694148 0.698177
0.234318 0.693629 0.697688
0.359136 0.691615 0.696132
0.502861 0.685939 0.693477
0.654871 0.670405 0.688655
0.813077 0.664546 0.678614
0.947448 0.662928 0.667750
1.000000 0.660395 0.657008
0.510521 0.802914 0.682002
0.525353 0.803861 0.683894
0.572595 0.802701 0.685573
0.648035 0.800687 0.689754
0.734707 0.802762 0.702815
0.818143 0.812528 0.699184
0.949035 0.790463 0.675380
1.000000 0.775601 0.665827
0.714626 0.904723 0.758938
0.721401 0.905516 0.761349
0.744594 0.906676 0.768032
0.786893 0.909361 0.782223
0.839231 0.915068 0.803525
0.889494 0.923095 0.827878
0.937896 0.925322 0.751492
1.000000 0.892241 0.678157
0.822782 0.971130 0.835264
0.825620 0.970977 0.836210
0.839475 0.971252 0.842222
0.866484 0.972686 0.856016
0.885405 0.973205 0.859770
0.917662 0.973388 0.874723
0.938018 0.979675 0.846738
1.000000 0.985260 0.767117
0.000000 0.144137 0.856809
0.000000 0.144106 0.856443
0.217777 0.142763 0.855314
0.438178 0.135042 0.852811
0.623285 0.108461 0.848417
0.800717 0.000000 0.842741
0.963989 0.000000 0.836271
1.000000 0.061524 0.798276
0.000000 0.207126 0.856229
0.000000 0.206851 0.855863
0.213840 0.205356 0.854551
0.436316 0.199435 0.851926
0.622461 0.185000 0.847807
0.800595 0.157168 0.842435
0.964080 0.123934 0.836179
1.000000 0.176089 0.797910
0.000000 0.345220 0.851347
0.000000 0.344854 0.851041
0.192172 0.343664 0.849851
0.430060 0.340093 0.847349
0.619165 0.333593 0.843626
0.797879 0.323003 0.838590
0.961028 0.313573 0.832334
1.000000 0.335271 0.793576
0.000000 0.525170 0.840757
0.000000 0.524743 0.840085
0.196475 0.502037 0.840848
0.431220 0.500084 0.838560
0.618189 0.496925 0.835233
0.793545 0.491981 0.830594
0.953124 0.487160 0.824796
1.000000 0.498573 0.788663
0.000000 0.670649 0.828397
0.000000 0.670192 0.828336
0.279149 0.667475 0.827756
0.471839 0.665614 0.826291
0.625452 0.653651 0.824613
0.788296 0.647608 0.820890
0.941253 0.640772 0.816098
1.000000 0.643763 0.786831
0.375891 0.811460 0.815396
0.392462 0.811185 0.815335
0.452827 0.809720 0.815152
0.544396 0.805966 0.814511
0.651148 0.797147 0.812711
0.778164 0.780697 0.809201
0.918425 0.776028 0.800992
1.000000 0.777493 0.792935
0.615686 0.901854 0.803494
0.622980 0.901671 0.803861
0.653315 0.901213 0.805631
0.706783 0.900359 0.809415
0.776547 0.899443 0.816007
0.852720 0.902098 0.831083
0.919646 0.909300 0.830777
1.000000 0.888151 0.807309
0.784573 0.971252 0.856107
0.788418 0.971344 0.857176
0.804135 0.971618 0.861570
0.834348 0.972564 0.871244
0.876890 0.974517 0.887724
0.926482 0.978088 0.913329
0.959075 0.980407 0.929992
0.997040 0.985901 0.871092
0.000000 0.167727 0.977905
0.000000 0.167483 0.977661
0.000000 0.166506 0.976898
0.374640 0.160891 0.975158
0.568231 0.147463 0.972656
0.744472 0.118318 0.969482
0.912200 0.014801 0.965545
1.000000 0.000000 0.961334
0.000000 0.218112 0.977417
0.000000 0.218082 0.977173
0.000000 0.216556 0.976379
0.373663 0.212375 0.974731
0.567803 0.203189 0.972320
0.744228 0.186831 0.969146
0.911925 0.160616 0.965362
1.000000 0.138277 0.961273
0.000000 0.343755 0.974670
0.000000 0.343511 0.974487
0.000000 0.342779 0.973754
0.371710 0.340459 0.972107
0.566827 0.335821 0.969909
0.743130 0.328771 0.967041
0.910338 0.318944 0.963409
1.000000 0.313207 0.959442
0.000000 0.494728 0.969451
0.000000 0.494423 0.969268
0.069062 0.494026 0.968627
0.385870 0.492714 0.967254
0.572839 0.490425 0.965209
0.744137 0.487160 0.962524
0.907347 0.481849 0.959167
1.000000 0.477546 0.955566
0.000000 0.653864 0.961181
0.000000 0.654078 0.961028
0.278447 0.655024 0.960723
0.447181 0.652125 0.960021
0.591608 0.642206 0.959045
0.748165 0.637507 0.956939
0.901732 0.631128 0.954192
1.000000 0.625177 0.951049
0.237064 0.790921 0.951019
0.264195 0.790524 0.951171
0.349615 0.788540 0.951659
0.463722 0.783383 0.952453
0.613062 0.779263 0.952300
0.751827 0.770901 0.950958
0.893706 0.765347 0.948302
1.000000 0.760098 0.945464
0.489418 0.912902 0.939239
0.499031 0.912749 0.939361
0.536553 0.911955 0.939818
0.601190 0.910063 0.940642
0.683742 0.906432 0.941955
0.774960 0.898833 0.943450
0.885588 0.886137 0.943420
1.000000 0.883116 0.938048
0.698726 0.985290 0.922057
0.703883 0.985168 0.922362
0.724788 0.984558 0.923613
0.763333 0.983368 0.926085
0.816983 0.981872 0.930571
0.879973 0.980591 0.938018
0.944488 0.981109 0.951476
0.989990 0.985992 0.960449
