luts/日系自然[一麻]04.cube
# Created by Adobe Lightroom plugin Export LUT (1.24.0)
# www.johnrellis.com/lightroom/exportlut.htm
# Preset: 日系自然[一麻]04
# Color profile: C:\Program Files (x86)\Common Files\Adobe\Color\Profiles\Recommended\VideoHD.icc
LUT_3D_SIZE 32
DOMAIN_MIN 0.0 0.0 0.0
DOMAIN_MAX 1.0 1.0 1.0
0.000000 0.000000 0.000000
0.014160 0.000610 0.000763
0.058045 0.000000 0.000000
0.104402 0.002045 0.000000
0.141054 0.003174 0.000000
0.183078 0.005035 0.000000
0.225986 0.010773 0.000000
0.268070 0.015473 0.000000
0.308751 0.022248 0.000000
0.348028 0.031525 0.000000
0.387579 0.039185 0.000000
0.426856 0.051484 0.000000
0.466468 0.063996 0.000000
0.506493 0.078676 0.000000
0.546868 0.088411 0.000000
0.587457 0.095979 0.000000
0.628412 0.103243 0.000000
0.669886 0.109743 0.000000
0.710506 0.113680 0.000000
0.749569 0.120211 0.000000
0.787076 0.124636 0.000000
0.826749 0.128939 0.000000
0.865232 0.132753 0.000000
0.900633 0.136324 0.000000
0.933501 0.138735 0.000000
0.964446 0.141329 0.000000
0.994018 0.143252 0.000000
1.000000 0.143557 0.000000
1.000000 0.143648 0.000000
1.000000 0.143160 0.000000
1.000000 0.141909 0.000000
1.000000 0.139528 0.000000
0.000000 0.011353 0.000732
0.007080 0.012634 0.000000
0.054292 0.010651 0.000000
0.104402 0.010986 0.000000
0.140688 0.012360 0.000000
0.182406 0.015625 0.000000
0.224918 0.018647 0.000000
0.266087 0.027131 0.000000
0.306950 0.031922 0.000000
0.346197 0.041871 0.000000
0.385107 0.051545 0.000000
0.424292 0.063752 0.000000
0.463844 0.076173 0.000000
0.503807 0.086458 0.000000
0.543969 0.093660 0.000000
0.584558 0.099977 0.000000
0.625544 0.106447 0.000000
0.667018 0.112428 0.000000
0.707637 0.117159 0.000000
0.746700 0.122347 0.000000
0.784146 0.127047 0.000000
0.823423 0.130861 0.000000
0.861143 0.135134 0.000000
0.896025 0.139040 0.000000
0.928649 0.141695 0.000000
0.959564 0.142611 0.000000
0.989258 0.144198 0.000000
1.000000 0.144930 0.000000
1.000000 0.145113 0.000000
1.000000 0.144808 0.000000
1.000000 0.143557 0.000000
1.000000 0.140780 0.000000
0.000000 0.050507 0.007874
0.004852 0.050599 0.008820
0.048280 0.060670 0.000000
0.102571 0.054231 0.000000
0.140566 0.052735 0.000000
0.182010 0.059632 0.000000
0.224155 0.066499 0.000000
0.265171 0.073213 0.000000
0.305455 0.080903 0.000000
0.344610 0.085481 0.000000
0.383520 0.090730 0.000000
0.422583 0.095094 0.000000
0.462013 0.099306 0.000000
0.501579 0.104005 0.000000
0.541894 0.109071 0.000000
0.582330 0.114290 0.000000
0.623285 0.119997 0.000000
0.664759 0.124758 0.000000
0.705470 0.129824 0.000000
0.744656 0.133883 0.000000
0.782223 0.137819 0.000000
0.821714 0.141817 0.000000
0.859037 0.144778 0.000000
0.893675 0.147555 0.000000
0.926055 0.150332 0.000000
0.956909 0.150790 0.000000
0.986572 0.152499 0.000000
1.000000 0.153201 0.000000
1.000000 0.153262 0.000000
1.000000 0.152651 0.000000
1.000000 0.150607 0.000000
1.000000 0.148531 0.000000
0.000000 0.100832 0.019715
0.000000 0.100923 0.019532
0.028931 0.103090 0.013519
0.098482 0.108919 0.000000
0.140139 0.107790 0.000000
0.182101 0.107759 0.000000
0.223850 0.110506 0.000000
0.264347 0.112947 0.000000
0.304540 0.115572 0.000000
0.343328 0.118044 0.000000
0.382208 0.120180 0.000000
0.420905 0.122927 0.000000
0.460304 0.126558 0.000000
0.499733 0.130495 0.000000
0.539544 0.134493 0.000000
0.579736 0.138857 0.000000
0.620325 0.142458 0.000000
0.661463 0.147036 0.000000
0.701991 0.150881 0.000000
0.740963 0.154055 0.000000
0.778439 0.156497 0.000000
0.818082 0.159579 0.000000
0.854795 0.162875 0.000000
0.889281 0.164614 0.000000
0.922179 0.166079 0.000000
0.953613 0.167575 0.000000
0.984100 0.168307 0.000000
1.000000 0.168399 0.000000
1.000000 0.167910 0.000000
1.000000 0.167056 0.000000
1.000000 0.165438 0.000000
1.000000 0.162844 0.000000
0.000000 0.136629 0.035981
0.000000 0.136690 0.036927
0.023499 0.136263 0.039887
0.084413 0.142977 0.011597
0.136507 0.151278 0.000000
0.180392 0.148836 0.000000
0.221775 0.148898 0.000000
0.262425 0.147402 0.000000
0.302190 0.149264 0.000000
0.340734 0.151186 0.000000
0.379370 0.152560 0.000000
0.418036 0.154910 0.000000
0.457099 0.157717 0.000000
0.496712 0.160922 0.000000
0.536522 0.163912 0.000000
0.576867 0.167147 0.000000
0.617914 0.170535 0.000000
0.659113 0.173861 0.000000
0.699794 0.177096 0.000000
0.739010 0.179294 0.000000
0.777310 0.182101 0.000000
0.816678 0.184146 0.000000
0.852842 0.185946 0.000000
0.887297 0.187503 0.000000
0.920165 0.188235 0.000000
0.951843 0.189212 0.000000
0.982391 0.189090 0.000000
1.000000 0.189029 0.000000
1.000000 0.188296 0.000000
1.000000 0.186740 0.000000
1.000000 0.184695 0.000000
1.000000 0.182162 0.000000
0.000000 0.174472 0.048096
0.000000 0.174289 0.048035
0.000000 0.173587 0.051270
0.062135 0.175998 0.042115
0.120790 0.185306 0.000092
0.175265 0.194156 0.000000
0.219791 0.191165 0.000000
0.261051 0.189487 0.000000
0.300511 0.187442 0.000000
0.339361 0.186099 0.000000
0.377966 0.187350 0.000000
0.416785 0.189120 0.000000
0.455756 0.191348 0.000000
0.495308 0.193881 0.000000
0.535241 0.196506 0.000000
0.575860 0.199100 0.000000
0.616876 0.201968 0.000000
0.658503 0.204959 0.000000
0.699245 0.207004 0.000000
0.738338 0.209110 0.000000
0.778500 0.211185 0.000000
0.817136 0.213169 0.000000
0.876402 0.219272 0.000000
0.911009 0.220005 0.000000
0.943542 0.219791 0.000000
0.974182 0.219821 0.000000
1.000000 0.218601 0.000000
1.000000 0.217563 0.000000
1.000000 0.216068 0.000000
1.000000 0.214023 0.000000
1.000000 0.211612 0.000000
1.000000 0.208133 0.000000
0.000000 0.216434 0.059907
0.000000 0.216434 0.060853
0.000000 0.215854 0.064057
0.024170 0.214908 0.068086
0.106966 0.221317 0.033967
0.160433 0.231449 0.000000
0.216861 0.240146 0.000000
0.263554 0.236271 0.000000
0.303899 0.234012 0.000000
0.343572 0.230961 0.000000
0.382818 0.227939 0.000000
0.422126 0.227481 0.000000
0.461646 0.229099 0.000000
0.501488 0.230747 0.000000
0.541527 0.232792 0.000000
0.581842 0.234836 0.000000
0.622858 0.237308 0.000000
0.664363 0.239292 0.000000
0.704646 0.241367 0.000000
0.745571 0.243351 0.000000
0.788571 0.245701 0.000000
0.828794 0.247318 0.000000
0.866758 0.248417 0.000000
0.902922 0.248905 0.000000
0.936950 0.248447 0.000000
0.968597 0.248020 0.000000
0.998322 0.246891 0.000000
1.000000 0.245029 0.000000
1.000000 0.243076 0.000000
1.000000 0.240391 0.000000
1.000000 0.237461 0.000000
1.000000 0.234226 0.000000
0.000000 0.253422 0.079438
0.000000 0.253300 0.080842
0.000000 0.252628 0.082338
0.000000 0.251804 0.084169
0.089845 0.253147 0.078431
0.142061 0.261967 0.021485
0.196262 0.272251 0.000000
0.253208 0.280186 0.000000
0.299107 0.276585 0.000000
0.340642 0.273564 0.000000
0.380591 0.270603 0.000000
0.420020 0.267430 0.000000
0.459205 0.264103 0.000000
0.498756 0.265263 0.000000
0.538689 0.266941 0.000000
0.578759 0.268711 0.000000
0.619776 0.270787 0.000000
0.661189 0.272770 0.000000
0.702235 0.274540 0.000000
0.745327 0.277073 0.000000
0.786526 0.278691 0.000000
0.825681 0.279728 0.000000
0.862821 0.280064 0.000000
0.898589 0.279881 0.000000
0.932372 0.279423 0.000000
0.964050 0.278141 0.000000
0.993988 0.276188 0.000000
1.000000 0.274357 0.000000
1.000000 0.271733 0.000000
1.000000 0.269047 0.000000
1.000000 0.265751 0.000000
1.000000 0.262119 0.000000
0.000000 0.289525 0.096681
0.000000 0.289525 0.096590
0.000000 0.289067 0.097749
0.000000 0.288365 0.099519
0.048768 0.287114 0.101900
0.126619 0.292851 0.084260
0.177462 0.301579 0.016022
0.232639 0.312169 0.000000
0.288640 0.319921 0.000000
0.335149 0.316381 0.000000
0.378485 0.313512 0.000000
0.418494 0.310735 0.000000
0.458198 0.307683 0.000000
0.497536 0.304448 0.000000
0.537041 0.301976 0.000000
0.577356 0.303502 0.000000
0.618219 0.305272 0.000000
0.660639 0.307561 0.000000
0.703822 0.310094 0.000000
0.745418 0.311772 0.000000
0.785428 0.312963 0.000000
0.823484 0.313146 0.000000
0.860136 0.312902 0.000000
0.895354 0.312352 0.000000
0.929015 0.311223 0.000000
0.960662 0.309453 0.000000
0.990600 0.307347 0.000000
1.000000 0.304662 0.000000
1.000000 0.301946 0.000000
1.000000 0.298741 0.000000
1.000000 0.295201 0.000000
1.000000 0.291051 0.000000
0.000000 0.325536 0.112337
0.000000 0.325322 0.112428
0.000000 0.325017 0.113313
0.000000 0.324193 0.114199
0.000000 0.323217 0.116793
0.112459 0.323919 0.114534
0.162142 0.331579 0.089418
0.213352 0.340978 0.004486
0.268254 0.351446 0.000000
0.324193 0.358984 0.000000
0.370794 0.355840 0.000000
0.415869 0.353216 0.000000
0.456428 0.350469 0.000000
0.496193 0.347478 0.000000
0.536248 0.344610 0.000000
0.576287 0.341405 0.000000
0.619409 0.341741 0.000000
0.663203 0.344518 0.000000
0.705440 0.346319 0.000000
0.745907 0.347539 0.000000
0.784817 0.347631 0.000000
0.821469 0.347326 0.000000
0.856809 0.346258 0.000000
0.890959 0.345037 0.000000
0.923766 0.343023 0.000000
0.955016 0.340887 0.000000
0.985077 0.338293 0.000000
1.000000 0.335363 0.000000
1.000000 0.332219 0.000000
1.000000 0.328649 0.000000
1.000000 0.325017 0.000000
1.000000 0.320806 0.000000
0.000000 0.360235 0.128145
0.000000 0.360174 0.128115
0.000000 0.359960 0.129091
0.000000 0.359411 0.130282
0.000000 0.358618 0.131899
0.095705 0.357366 0.134432
0.149203 0.362524 0.121340
0.197482 0.371099 0.092866
0.249027 0.381018 0.000000
0.304967 0.392035 0.000000
0.361334 0.399145 0.000000
0.408209 0.396643 0.000000
0.454963 0.394293 0.000000
0.496132 0.391638 0.000000
0.538323 0.390051 0.000000
0.580865 0.388251 0.000000
0.623316 0.386145 0.000000
0.664790 0.382757 0.000000
0.705501 0.382666 0.000000
0.744991 0.382940 0.000000
0.782986 0.382605 0.000000
0.819120 0.381506 0.000000
0.854093 0.380102 0.000000
0.887968 0.378088 0.000000
0.920592 0.375891 0.000000
0.951904 0.373205 0.000000
0.982025 0.370336 0.000000
1.000000 0.367102 0.000000
1.000000 0.363500 0.000000
1.000000 0.359655 0.000000
1.000000 0.355596 0.000000
1.000000 0.351324 0.000000
0.000000 0.396490 0.144259
0.000000 0.396429 0.144228
0.000000 0.396185 0.144656
0.000000 0.395758 0.146304
0.000000 0.395087 0.147646
0.040620 0.394049 0.149996
0.138949 0.394965 0.148013
0.185367 0.402716 0.127626
0.233768 0.411933 0.093141
0.286198 0.422400 0.000000
0.342962 0.433845 0.000000
0.400763 0.442267 0.000000
0.464515 0.455207 0.000000
0.514855 0.452827 0.000000
0.559472 0.450996 0.000000
0.603540 0.448920 0.000000
0.646021 0.445502 0.000000
0.687037 0.441169 0.000000
0.726436 0.435645 0.000000
0.764126 0.429419 0.000000
0.800839 0.427558 0.000000
0.835721 0.425147 0.000000
0.869291 0.422126 0.000000
0.901823 0.419104 0.000000
0.933074 0.415656 0.000000
0.963012 0.411872 0.000000
0.991760 0.407507 0.000000
1.000000 0.403204 0.000000
1.000000 0.398688 0.000000
1.000000 0.393988 0.000000
1.000000 0.389197 0.000000
1.000000 0.384009 0.000000
0.000000 0.438270 0.162295
0.000000 0.438239 0.162478
0.000000 0.437720 0.162783
0.000000 0.437110 0.163760
0.000000 0.436194 0.165072
0.000000 0.434913 0.167117
0.125673 0.433692 0.169223
0.177127 0.439185 0.158358
0.223880 0.448951 0.134676
0.274937 0.460273 0.093568
0.330388 0.473182 0.000000
0.391333 0.487495 0.000000
0.451637 0.497200 0.000000
0.508354 0.501610 0.000000
0.559442 0.497932 0.000000
0.603723 0.495430 0.000000
0.645808 0.491341 0.000000
0.685725 0.485878 0.000000
0.724208 0.479744 0.000000
0.760830 0.472938 0.000000
0.795682 0.465248 0.000000
0.829557 0.458412 0.000000
0.863096 0.455146 0.000000
0.895598 0.451637 0.000000
0.927062 0.447852 0.000000
0.957214 0.443854 0.000000
0.986389 0.439368 0.000000
1.000000 0.434791 0.000000
1.000000 0.429969 0.000000
1.000000 0.425116 0.000000
1.000000 0.419928 0.000000
1.000000 0.414649 0.000000
0.000000 0.478279 0.179171
0.000000 0.478218 0.179355
0.000000 0.477699 0.179507
0.000000 0.477119 0.180179
0.000000 0.476173 0.181247
0.000000 0.475196 0.183108
0.099916 0.474220 0.185519
0.168765 0.474525 0.185428
0.214023 0.483253 0.165499
0.262089 0.493599 0.137758
0.314275 0.505516 0.087709
0.371374 0.518914 0.000000
0.433661 0.533532 0.000000
0.494331 0.542596 0.000000
0.551202 0.546502 0.000000
0.600824 0.541283 0.000000
0.644373 0.536614 0.000000
0.684108 0.530602 0.000000
0.722194 0.523919 0.000000
0.758145 0.516106 0.000000
0.792477 0.507958 0.000000
0.826047 0.499489 0.000000
0.858701 0.491005 0.000000
0.890990 0.484749 0.000000
0.922545 0.480568 0.000000
0.953002 0.476204 0.000000
0.982330 0.471626 0.000000
1.000000 0.466682 0.000000
1.000000 0.461524 0.000000
1.000000 0.456428 0.000000
1.000000 0.451026 0.000000
1.000000 0.445502 0.000000
0.000000 0.518730 0.195254
0.000000 0.518486 0.195071
0.000000 0.518181 0.195407
0.000000 0.517327 0.196078
0.000000 0.516075 0.196628
0.000000 0.514733 0.198245
0.014252 0.513420 0.200046
0.153292 0.512230 0.202884
0.204501 0.517052 0.192996
0.251072 0.526665 0.170718
0.300481 0.537865 0.138064
0.354711 0.550591 0.064912
0.412879 0.564172 0.000000
0.475319 0.578271 0.000000
0.535332 0.585687 0.000000
0.591516 0.588281 0.000000
0.639155 0.581231 0.000000
0.682551 0.575311 0.000000
0.720302 0.567712 0.000000
0.756069 0.559289 0.000000
0.790158 0.550561 0.000000
0.823514 0.541711 0.000000
0.856016 0.532769 0.000000
0.887724 0.523705 0.000000
0.918639 0.514366 0.000000
0.949065 0.508751 0.000000
0.978698 0.503807 0.000000
1.000000 0.498756 0.000000
1.000000 0.493568 0.000000
1.000000 0.488167 0.000000
1.000000 0.482795 0.000000
1.000000 0.477119 0.000000
0.000000 0.557153 0.209445
0.000000 0.557275 0.209506
0.000000 0.556970 0.209689
0.000000 0.556512 0.210513
0.000000 0.555627 0.211276
0.000000 0.554681 0.212833
0.000000 0.553857 0.214542
0.128908 0.552972 0.216983
0.196323 0.553277 0.217960
0.241764 0.562219 0.199710
0.289525 0.572351 0.174319
0.340490 0.583185 0.137728
0.395087 0.594873 0.027314
0.453193 0.606744 0.000000
0.514244 0.618463 0.000000
0.572290 0.623835 0.000000
0.627771 0.625574 0.000000
0.673610 0.617487 0.000000
0.717067 0.610681 0.000000
0.752865 0.601678 0.000000
0.787442 0.592645 0.000000
0.821042 0.583490 0.000000
0.853666 0.574426 0.000000
0.885618 0.565148 0.000000
0.916625 0.555657 0.000000
0.946868 0.546014 0.000000
0.976318 0.536522 0.000000
1.000000 0.531090 0.000000
1.000000 0.525597 0.000000
1.000000 0.519951 0.000000
1.000000 0.514122 0.000000
1.000000 0.508019 0.000000
0.000000 0.594476 0.223362
0.000000 0.594385 0.223514
0.000000 0.594171 0.223636
0.000000 0.593744 0.224155
0.000000 0.593072 0.225040
0.000000 0.592309 0.226047
0.000000 0.591516 0.227878
0.088869 0.590631 0.230289
0.179995 0.589746 0.233066
0.232029 0.594171 0.224582
0.277989 0.603082 0.204288
0.326726 0.612909 0.176028
0.378149 0.623224 0.134524
0.432441 0.633936 0.000000
0.490333 0.644800 0.000000
0.550774 0.655482 0.000000
0.607691 0.659663 0.000000
0.662440 0.660945 0.000000
0.706722 0.652308 0.000000
0.750210 0.644312 0.000000
0.784970 0.634882 0.000000
0.818906 0.625177 0.000000
0.851713 0.615717 0.000000
0.883543 0.606226 0.000000
0.914672 0.596521 0.000000
0.944976 0.586694 0.000000
0.974548 0.576654 0.000000
1.000000 0.566461 0.000000
1.000000 0.557763 0.000000
1.000000 0.551812 0.000000
1.000000 0.545708 0.000000
1.000000 0.539361 0.000000
0.000000 0.630793 0.238560
0.000000 0.630915 0.238621
0.000000 0.642481 0.244816
0.000000 0.642084 0.245243
0.000000 0.641535 0.245975
0.000000 0.640742 0.247135
0.000000 0.639734 0.248569
0.000000 0.638697 0.250706
0.164889 0.637720 0.253239
0.230594 0.637201 0.254917
0.275212 0.644892 0.237888
0.321874 0.653346 0.215579
0.370672 0.662257 0.184970
0.422461 0.671351 0.139620
0.476722 0.680415 0.000000
0.533257 0.689296 0.000000
0.592798 0.697841 0.000000
0.648432 0.700252 0.000000
0.701961 0.700313 0.000000
0.744991 0.690700 0.000000
0.788602 0.681361 0.000000
0.821927 0.670802 0.000000
0.854398 0.660182 0.000000
0.885801 0.649683 0.000000
0.916045 0.638911 0.000000
0.945495 0.628229 0.000000
0.974304 0.617456 0.000000
1.000000 0.606714 0.000000
1.000000 0.595972 0.000000
1.000000 0.585321 0.000000
1.000000 0.577050 0.000000
1.000000 0.570428 0.000000
0.000000 0.668666 0.256474
0.000000 0.669703 0.257115
0.000000 0.670680 0.257786
0.000000 0.671321 0.258671
0.000000 0.671626 0.260014
0.000000 0.671168 0.261234
0.000000 0.670375 0.262699
0.000000 0.669429 0.264378
0.140505 0.668391 0.266728
0.215640 0.667231 0.269322
0.265995 0.670558 0.262303
0.310063 0.678126 0.243534
0.356085 0.686030 0.219516
0.404700 0.694240 0.186709
0.455390 0.702571 0.138094
0.508782 0.710811 0.000000
0.564813 0.718990 0.000000
0.623163 0.727016 0.000000
0.678035 0.729000 0.000000
0.731106 0.729427 0.000000
0.774075 0.720241 0.000000
0.818601 0.711360 0.000000
0.851255 0.700374 0.000000
0.882811 0.689387 0.000000
0.913237 0.678370 0.000000
0.942718 0.667201 0.000000
0.971435 0.656214 0.000000
0.999634 0.645197 0.000000
1.000000 0.634241 0.000000
1.000000 0.623377 0.000000
1.000000 0.612421 0.000000
1.000000 0.601282 0.000000
0.000000 0.699580 0.271702
0.000000 0.700496 0.272099
0.000000 0.701564 0.273045
0.000000 0.702327 0.274418
0.000000 0.702663 0.275517
0.000000 0.702327 0.276493
0.000000 0.701686 0.277897
0.000000 0.700740 0.279393
0.113466 0.699733 0.281682
0.201175 0.698695 0.283909
0.260777 0.697627 0.286809
0.302098 0.704280 0.270848
0.345495 0.711299 0.250492
0.391119 0.718746 0.224796
0.438941 0.726253 0.190951
0.489174 0.733944 0.138003
0.541833 0.741482 0.000000
0.596765 0.748898 0.000000
0.654078 0.756252 0.000000
0.707942 0.757839 0.000000
0.760555 0.758022 0.000000
0.803159 0.749477 0.000000
0.846616 0.740078 0.000000
0.879881 0.728817 0.000000
0.910399 0.717403 0.000000
0.940002 0.705898 0.000000
0.968688 0.694484 0.000000
0.996918 0.683131 0.000000
1.000000 0.671992 0.000000
1.000000 0.660853 0.000000
1.000000 0.649744 0.000000
1.000000 0.638483 0.000000
0.000000 0.730098 0.288243
0.000000 0.731014 0.288792
0.000000 0.731868 0.289799
0.000000 0.732509 0.290837
0.000000 0.732692 0.291691
0.000000 0.732509 0.293034
0.000000 0.731930 0.294072
0.000000 0.731075 0.295537
0.076204 0.730251 0.297520
0.187869 0.729213 0.299931
0.251438 0.728145 0.302495
0.297734 0.730465 0.297032
0.338079 0.736843 0.279515
0.380804 0.743435 0.258305
0.425971 0.750332 0.231540
0.472908 0.757443 0.195651
0.522698 0.764645 0.140566
0.574884 0.771939 0.000000
0.629480 0.779294 0.000000
0.686641 0.786496 0.000000
0.740108 0.788144 0.000000
0.792905 0.788876 0.000000
0.836515 0.781674 0.000000
0.878508 0.771176 0.000000
0.912474 0.759701 0.000000
0.942412 0.747921 0.000000
0.971405 0.736110 0.000000
0.999756 0.724300 0.000000
1.000000 0.712795 0.000000
1.000000 0.701259 0.000000
1.000000 0.689723 0.000000
1.000000 0.678096 0.000000
0.000000 0.765438 0.310643
0.000000 0.765805 0.311131
0.000000 0.765988 0.311589
0.000000 0.765957 0.312078
0.000000 0.765682 0.312779
0.000000 0.765042 0.313481
0.000000 0.764340 0.314427
0.000000 0.763546 0.315831
0.041444 0.762661 0.317388
0.181979 0.761868 0.319768
0.246921 0.760922 0.322271
0.299718 0.759884 0.325200
0.337346 0.765225 0.310521
0.376837 0.771054 0.292271
0.418494 0.777279 0.269566
0.462593 0.783536 0.241306
0.508995 0.789914 0.204105
0.557702 0.796353 0.148318
0.608850 0.802823 0.000000
0.662043 0.809171 0.000000
0.717830 0.815274 0.000000
0.770169 0.815976 0.000000
0.821775 0.815946 0.000000
0.866514 0.810208 0.000000
0.904723 0.797391 0.000000
0.938964 0.785306 0.000000
0.968170 0.773281 0.000000
0.996643 0.761257 0.000000
1.000000 0.749386 0.000000
1.000000 0.737575 0.000000
1.000000 0.725765 0.000000
1.000000 0.713802 0.000000
0.000000 0.793912 0.330358
0.000000 0.794186 0.330694
0.000000 0.794339 0.331182
0.000000 0.794369 0.331395
0.000000 0.794095 0.332250
0.000000 0.793637 0.332830
0.000000 0.793027 0.333684
0.000000 0.792294 0.334966
0.030945 0.791592 0.336858
0.179660 0.790829 0.338964
0.244419 0.790005 0.341283
0.296880 0.789059 0.344060
0.338659 0.790707 0.339483
0.374640 0.796017 0.323491
0.412848 0.801602 0.304356
0.453742 0.807370 0.280674
0.497169 0.813352 0.251286
0.542748 0.819364 0.212161
0.590661 0.825315 0.154147
0.640894 0.831205 0.000000
0.693355 0.836912 0.000000
0.748074 0.842344 0.000000
0.799435 0.842527 0.000000
0.850401 0.842252 0.000000
0.893980 0.835874 0.000000
0.928954 0.821317 0.000000
0.963561 0.808927 0.000000
0.992096 0.796750 0.000000
1.000000 0.784543 0.000000
1.000000 0.772519 0.000000
1.000000 0.760525 0.000000
1.000000 0.748409 0.000000
0.000000 0.824430 0.354467
0.000000 0.824887 0.355108
0.000000 0.825010 0.355322
0.000000 0.824765 0.355718
0.000000 0.824216 0.355810
0.000000 0.823453 0.356176
0.000000 0.822477 0.356512
0.000000 0.821378 0.357275
0.087800 0.820249 0.358404
0.185672 0.819150 0.359899
0.246464 0.817929 0.361547
0.297246 0.816709 0.363836
0.342718 0.815427 0.366491
0.375463 0.819303 0.353368
0.409979 0.823972 0.335454
0.446723 0.828794 0.314702
0.486397 0.833860 0.289128
0.528496 0.839170 0.257755
0.573053 0.844602 0.217411
0.620203 0.850156 0.156954
0.669520 0.855619 0.000000
0.721065 0.860777 0.000000
0.774533 0.865446 0.000000
0.824460 0.864958 0.000000
0.874174 0.864042 0.000000
0.921813 0.861326 0.000000
0.953552 0.845029 0.000000
0.988067 0.831876 0.000000
1.000000 0.819303 0.000000
1.000000 0.806882 0.000000
1.000000 0.794491 0.000000
1.000000 0.782162 0.000000
0.000000 0.849149 0.374975
0.000000 0.849577 0.375494
0.000000 0.849760 0.375952
0.000000 0.849668 0.376349
0.000000 0.849363 0.376867
0.000000 0.848936 0.377325
0.000000 0.848417 0.378210
0.000000 0.847807 0.379217
0.123018 0.847135 0.380774
0.200748 0.846433 0.382422
0.256321 0.845609 0.384588
0.304448 0.844663 0.387091
0.347906 0.843656 0.389837
0.384253 0.844419 0.385992
0.414343 0.848539 0.369970
0.447242 0.852842 0.351019
0.482918 0.857298 0.328985
0.521141 0.862028 0.302342
0.562158 0.866911 0.269841
0.605798 0.871885 0.227726
0.651850 0.876829 0.165042
0.700191 0.881590 0.000000
0.750454 0.886015 0.000000
0.802609 0.889769 0.000000
0.851957 0.888945 0.000000
0.901061 0.887816 0.000000
0.949889 0.886412 0.000000
0.979522 0.869139 0.000000
1.000000 0.855222 0.000000
1.000000 0.842435 0.000000
1.000000 0.829648 0.000000
1.000000 0.816861 0.000000
0.000000 0.875303 0.399756
0.000000 0.875456 0.400275
0.000000 0.875517 0.400305
0.000000 0.875395 0.400824
0.000000 0.875090 0.401129
0.000000 0.874662 0.401709
0.000000 0.874144 0.402380
0.025910 0.873503 0.403265
0.162203 0.872862 0.404425
0.222049 0.872129 0.406226
0.271366 0.871366 0.408118
0.315129 0.870542 0.410468
0.355932 0.869596 0.413245
0.394781 0.868467 0.415839
0.422705 0.871427 0.403418
0.451118 0.875303 0.386145
0.482673 0.879301 0.366369
0.517113 0.883543 0.342718
0.554376 0.887907 0.314702
0.594263 0.892454 0.280461
0.636896 0.896971 0.235172
0.681819 0.901305 0.168368
0.728695 0.905333 0.000000
0.777798 0.908934 0.000000
0.828672 0.911681 0.000000
0.876982 0.910460 0.000000
0.925231 0.908965 0.000000
0.973266 0.907164 0.000000
1.000000 0.890471 0.000000
1.000000 0.876066 0.000000
1.000000 0.862760 0.000000
1.000000 0.849699 0.000000
0.000000 0.899382 0.424903
0.000000 0.899474 0.425238
0.000000 0.899535 0.425330
0.000000 0.899504 0.425910
0.000000 0.899413 0.426520
0.000000 0.899260 0.427283
0.049836 0.899321 0.428809
0.157046 0.899382 0.430884
0.212436 0.899443 0.433509
0.258885 0.899535 0.436255
0.301488 0.899596 0.439612
0.341131 0.899535 0.443153
0.379156 0.899290 0.446662
0.415625 0.898802 0.450568
0.446723 0.899535 0.448402
0.470344 0.903166 0.432776
0.496712 0.906859 0.414405
0.526207 0.910643 0.392981
0.558709 0.914549 0.368200
0.594202 0.918608 0.338994
0.632410 0.922576 0.302892
0.673335 0.926360 0.256657
0.716518 0.929870 0.188907
0.762081 0.932982 0.000000
0.809781 0.935637 0.000000
0.859220 0.937377 0.000000
0.906859 0.935637 0.000000
0.954284 0.933684 0.000000
1.000000 0.931487 0.000000
1.000000 0.915038 0.000000
1.000000 0.899687 0.000000
1.000000 0.885222 0.000000
0.000000 0.927367 0.460578
0.000000 0.927337 0.460578
0.011933 0.927245 0.460609
0.085481 0.927062 0.460883
0.123903 0.926848 0.461219
0.160098 0.926513 0.461677
0.194736 0.926207 0.462531
0.229191 0.925811 0.463661
0.263340 0.925475 0.465095
0.297520 0.925048 0.466926
0.331548 0.924590 0.469245
0.364996 0.924071 0.471778
0.398230 0.923491 0.474586
0.431098 0.922728 0.477424
